<?xml version="1.0" encoding="UTF-8"?>
<map version="1.10" tiledversion="1.12.2" orientation="orthogonal" renderorder="right-down" width="30" height="90" tilewidth="64" tileheight="64" infinite="0" nextlayerid="10" nextobjectid="34">
 <tileset firstgid="1" source="../tilesets/lobby_2.tsx"/>
 <tileset firstgid="385" source="../tilesets/lobby_1.tsx"/>
 <layer id="3" name="TileLayer2" width="30" height="90">
  <data encoding="csv">
0,0,0,0,0,0,0,0,0,0,0,0,0,0,0,0,0,0,0,0,0,0,0,0,0,0,0,0,0,0,
0,0,0,0,0,0,0,0,0,0,0,0,0,0,0,0,0,0,0,0,0,0,0,0,0,0,0,0,0,0,
0,0,0,0,0,0,0,0,0,0,0,0,0,0,0,0,0,0,0,0,0,0,0,0,0,0,0,0,0,0,
0,0,0,0,0,0,0,0,0,0,0,0,0,0,0,0,0,0,0,0,0,0,0,0,0,0,0,0,0,0,
0,0,0,0,0,0,0,0,0,0,0,0,0,0,0,0,0,0,0,0,0,0,0,0,0,0,0,0,0,0,
0,0,0,0,0,0,0,0,0,0,0,0,0,0,0,0,0,0,0,0,0,0,0,0,0,0,0,0,0,0,
0,0,0,0,0,0,0,0,0,0,0,0,0,0,0,0,0,0,0,0,0,0,0,0,0,0,0,0,0,0,
0,0,0,0,0,0,0,0,0,0,0,0,0,0,0,0,0,0,0,0,0,0,0,0,0,0,0,0,0,0,
0,0,0,0,0,0,0,0,0,0,0,0,0,0,0,0,0,0,0,0,0,0,0,0,0,0,0,0,0,0,
0,0,0,0,0,0,0,0,0,0,0,0,0,0,0,0,0,0,0,0,0,0,0,0,0,0,0,0,0,0,
0,0,0,0,0,0,0,0,0,0,0,0,0,0,0,0,0,0,0,0,0,0,0,0,0,0,0,0,0,0,
0,0,0,0,0,0,0,0,0,0,0,0,0,0,0,0,0,0,0,0,0,0,0,0,0,0,0,0,0,0,
0,0,0,0,0,0,0,0,0,0,0,0,0,0,0,0,0,0,0,0,0,0,0,0,0,0,0,0,0,0,
0,0,0,0,0,0,0,0,0,0,0,0,0,0,0,0,0,0,0,0,0,0,0,0,0,0,0,0,0,0,
0,0,0,0,0,0,0,0,0,0,0,0,0,0,0,0,0,0,0,0,0,0,0,0,0,0,0,0,0,0,
0,0,0,0,0,0,0,0,0,0,0,0,0,0,0,0,0,0,0,0,0,0,0,0,0,0,0,0,0,0,
0,0,0,0,0,0,0,0,0,0,0,0,0,0,0,0,0,0,0,0,0,0,0,0,0,0,0,0,0,0,
0,0,0,0,0,0,0,0,0,0,0,0,0,0,0,0,0,0,0,0,0,0,0,0,0,0,0,0,0,0,
0,0,0,0,0,0,0,0,0,0,0,0,0,0,0,0,0,0,0,0,0,0,0,0,0,0,0,0,0,0,
0,0,0,0,0,0,0,0,0,0,0,0,0,0,0,0,0,0,0,0,0,0,0,0,0,0,0,0,0,0,
0,0,0,0,0,0,0,0,0,0,0,0,0,0,0,0,0,0,0,0,0,0,0,0,0,0,0,0,0,0,
0,0,0,0,0,0,0,0,0,0,0,0,0,0,0,0,0,0,0,0,0,0,0,0,0,0,0,0,0,0,
0,0,0,0,0,0,0,0,0,0,0,0,0,0,0,0,0,0,0,0,0,0,0,0,0,0,0,0,0,0,
0,0,0,0,0,0,0,0,0,0,0,0,0,0,0,0,0,0,0,0,0,0,0,0,0,0,0,0,0,0,
0,0,0,0,0,0,0,0,0,0,0,0,0,0,0,0,0,0,0,0,0,0,0,0,0,0,0,0,0,0,
0,0,0,0,0,0,0,0,0,0,0,0,0,0,0,0,0,0,0,0,0,0,0,0,0,0,0,0,0,0,
0,0,0,0,0,0,0,0,0,0,0,0,0,0,0,0,0,0,0,0,0,0,0,0,0,0,0,0,0,0,
0,0,0,0,0,0,0,0,0,0,0,0,0,0,0,0,0,0,0,0,0,0,0,0,0,0,0,0,0,0,
0,0,0,0,0,0,0,0,0,0,0,0,0,0,0,0,0,0,0,0,0,0,0,0,0,0,0,0,0,0,
0,0,0,0,0,0,0,0,0,0,0,0,0,0,0,0,0,0,0,0,0,0,0,0,0,0,0,0,0,0,
0,0,0,0,0,0,0,0,0,0,0,0,0,0,0,0,0,0,0,0,0,0,0,0,0,0,0,0,0,0,
0,0,0,0,0,0,0,0,0,0,0,0,0,0,0,0,0,0,0,0,0,0,0,0,0,0,0,0,0,0,
0,0,0,0,0,0,0,0,0,0,0,0,0,0,0,0,0,0,0,0,0,0,0,0,0,0,0,0,0,0,
0,0,0,0,0,0,0,0,0,0,0,0,0,0,0,0,0,0,0,0,0,0,0,0,0,0,0,0,0,0,
0,0,0,0,0,0,0,0,0,0,0,0,0,0,0,0,0,0,0,0,0,0,0,0,0,0,0,0,0,0,
0,0,0,0,0,0,0,0,0,0,0,0,0,0,0,0,0,0,0,0,0,0,0,0,0,0,0,0,0,0,
0,0,0,0,0,0,0,0,0,0,0,0,0,0,0,0,0,0,0,0,0,0,0,0,0,0,0,0,0,0,
0,0,0,0,0,0,0,0,0,0,0,0,0,0,0,0,0,0,0,0,0,0,0,0,0,0,0,0,0,0,
0,0,0,0,0,0,0,0,0,0,0,0,0,0,0,0,0,0,0,0,0,0,0,0,0,0,0,0,0,0,
0,0,0,0,0,0,0,0,0,0,0,0,0,0,0,0,0,0,0,0,0,0,0,0,0,0,0,0,0,0,
0,0,0,0,0,0,0,0,0,0,0,0,0,0,0,0,0,0,0,0,0,0,0,0,0,0,0,0,0,0,
0,0,0,0,0,0,0,0,0,0,0,0,0,0,0,0,0,0,0,0,0,0,0,0,0,0,0,0,0,0,
0,0,0,0,0,0,0,0,0,0,0,0,0,0,0,0,0,0,0,0,0,0,0,0,0,0,0,0,0,0,
0,0,0,0,0,0,0,0,0,0,0,0,0,0,0,0,0,0,0,0,0,0,0,0,0,0,0,0,0,0,
0,0,0,0,0,0,0,0,0,0,0,0,0,0,0,0,0,0,0,0,0,0,0,0,0,0,0,0,0,0,
0,0,0,0,0,0,0,0,0,0,0,0,0,0,0,0,0,0,0,0,0,0,0,0,0,0,0,0,0,0,
0,0,0,0,0,0,0,0,0,0,0,0,0,0,0,0,0,0,0,0,0,0,0,0,0,0,0,0,0,0,
0,0,0,0,0,0,0,0,0,0,0,0,0,0,0,0,0,0,0,0,0,0,0,0,0,0,0,0,0,0,
0,0,0,0,0,0,0,0,0,0,0,0,0,0,0,0,0,0,0,0,0,0,0,0,0,0,0,0,0,0,
0,0,0,0,0,0,0,0,0,0,0,0,0,0,0,0,0,0,0,0,0,0,0,0,0,0,0,0,0,0,
0,0,0,0,0,0,0,0,0,0,0,0,0,0,0,0,0,0,0,0,0,0,0,0,0,0,0,0,0,0,
0,0,0,0,0,0,0,0,0,0,0,0,0,0,0,0,0,0,0,0,0,0,0,0,0,0,0,0,0,0,
0,0,0,0,0,0,0,0,0,0,0,0,0,0,0,0,0,0,0,0,0,0,0,0,0,0,0,0,0,0,
0,0,0,0,0,0,0,0,0,0,0,0,0,0,0,0,0,0,0,0,0,0,0,0,0,0,0,0,0,0,
0,0,0,0,0,0,0,0,0,0,0,0,0,0,0,0,0,0,0,0,0,0,0,0,0,0,0,0,0,0,
0,0,0,0,0,0,0,0,0,0,0,0,0,0,0,0,0,0,0,0,0,0,0,0,0,0,0,0,0,0,
0,0,0,0,0,0,0,0,0,0,0,0,0,0,0,0,0,0,0,0,0,0,0,0,0,0,0,0,0,0,
0,0,0,0,0,0,0,0,0,0,0,0,0,0,0,0,0,0,0,0,0,0,0,0,0,0,0,0,0,0,
0,0,0,0,0,0,0,0,0,0,0,0,0,0,0,0,0,0,0,0,0,0,0,0,0,0,0,0,0,0,
0,0,0,0,0,0,0,0,0,0,0,0,0,0,0,0,0,0,0,0,0,0,0,0,0,0,0,0,0,0,
0,0,0,0,0,0,0,0,0,0,0,0,0,0,0,0,0,0,0,0,0,0,0,0,0,0,0,0,0,0,
0,0,0,0,0,0,0,0,0,0,0,0,0,0,0,0,0,0,0,0,0,0,0,0,0,0,0,0,0,0,
0,0,0,0,0,0,0,0,0,0,0,0,0,0,0,0,0,0,0,0,0,0,0,0,0,0,0,0,0,0,
0,0,0,0,0,0,0,0,0,0,0,0,0,0,0,0,0,0,0,0,0,0,0,0,0,0,0,0,0,0,
0,0,0,0,0,0,0,0,0,0,0,0,0,0,0,0,0,0,0,0,0,0,0,0,0,0,0,0,0,0,
0,0,0,0,0,0,0,0,0,0,0,0,0,0,0,0,0,0,0,0,0,0,0,0,0,0,0,0,0,0,
0,0,0,0,0,0,0,0,0,0,0,0,0,0,0,0,0,0,0,0,0,0,0,0,0,0,0,0,0,0,
0,0,0,0,0,0,0,0,0,0,0,0,0,0,0,0,0,0,0,0,0,0,0,0,0,0,0,0,0,0,
0,0,0,0,0,0,0,0,0,0,0,0,0,0,0,0,0,0,0,0,0,0,0,0,0,0,0,0,0,0,
0,0,0,0,0,0,0,0,0,0,0,0,0,0,0,0,0,0,0,0,0,0,0,0,0,0,0,0,0,0,
0,0,0,0,0,0,0,0,0,0,0,0,0,0,0,0,0,0,0,0,0,0,0,0,0,0,0,0,0,0,
0,0,0,0,0,0,0,0,0,0,0,0,0,0,0,0,0,0,0,0,0,0,0,0,0,0,0,0,0,0,
0,0,0,0,0,0,298,0,0,0,0,0,0,0,0,0,0,0,0,0,0,0,0,0,0,0,0,0,0,0,
0,0,0,0,0,0,298,0,0,0,0,0,0,0,0,0,0,0,0,0,0,0,0,0,0,0,0,0,0,0,
0,0,0,0,0,0,298,298,298,298,298,298,298,0,0,0,0,0,0,298,298,298,298,298,298,298,298,298,0,0,
0,0,0,0,0,0,0,0,0,0,0,0,0,0,0,0,0,0,0,0,0,0,0,0,0,0,0,0,0,0,
0,0,0,0,0,0,0,0,0,0,0,0,0,0,0,0,0,0,0,0,0,0,0,0,0,0,0,0,0,0,
0,0,0,0,0,0,0,0,0,0,0,0,0,0,0,0,0,0,0,0,0,0,0,0,0,0,0,0,0,0,
0,0,0,0,0,0,0,0,0,0,0,0,0,0,0,0,0,0,0,0,0,0,0,0,0,0,0,0,0,0,
0,0,0,0,0,0,0,0,0,0,0,0,0,0,0,0,0,0,0,0,0,0,0,0,0,0,0,0,0,0,
0,0,0,0,0,0,0,0,0,0,0,0,0,0,0,0,0,0,0,0,0,0,0,0,0,0,0,0,0,0,
0,0,0,0,0,0,0,0,0,0,0,0,0,0,0,0,0,0,0,0,0,0,0,0,0,0,0,0,0,0,
0,0,0,0,0,0,0,0,0,0,0,0,0,0,0,0,0,0,0,0,0,0,0,0,0,0,0,0,0,0,
0,0,0,0,0,0,0,0,0,0,0,0,0,0,0,0,0,0,0,0,0,0,0,0,0,0,0,0,0,0,
0,0,0,0,0,0,0,0,0,0,0,0,0,0,0,0,0,0,0,0,0,0,0,0,0,0,0,0,0,0,
0,0,0,0,0,0,0,0,0,0,0,0,0,0,0,0,0,0,0,0,0,0,0,0,0,0,0,0,0,0,
0,0,0,0,0,0,0,0,0,0,0,0,0,0,0,0,0,0,0,0,0,0,0,0,0,0,0,0,0,0,
0,0,0,0,0,0,0,0,0,0,0,0,0,0,0,0,0,0,0,0,0,0,0,0,0,0,0,0,0,0,
0,0,0,0,0,0,0,0,0,0,0,0,0,0,0,0,0,0,0,0,0,0,0,0,0,0,0,0,0,0,
0,0,0,0,0,0,0,0,0,0,0,0,0,0,0,0,0,0,0,0,0,0,0,0,0,0,0,0,0,0
</data>
 </layer>
 <layer id="1" name="TileLayer1" width="30" height="90">
  <data encoding="csv">
0,0,0,0,0,0,0,0,0,0,0,0,0,0,0,0,0,0,0,0,0,0,0,0,0,0,0,0,0,0,
0,0,0,0,0,0,0,0,0,0,0,0,0,0,0,0,0,0,0,0,0,0,0,0,0,0,0,0,0,0,
0,0,0,0,0,0,0,0,0,0,0,0,0,0,0,0,0,0,0,0,0,0,0,0,0,0,0,0,0,0,
0,0,0,0,0,0,0,0,0,0,0,0,0,0,0,0,0,0,0,0,0,0,0,0,0,0,0,0,0,0,
0,0,0,0,0,0,0,0,0,0,0,0,0,0,0,0,0,0,0,0,0,0,0,0,0,0,0,0,0,0,
0,0,0,0,0,0,0,0,0,0,0,0,0,0,0,0,0,0,0,0,0,0,0,0,0,0,0,0,0,0,
0,0,0,0,0,0,0,0,0,0,0,0,0,0,0,0,0,0,0,0,0,0,0,0,0,0,0,0,0,0,
0,0,0,0,0,0,0,0,0,0,0,0,0,0,0,0,0,0,0,0,0,0,0,0,0,0,0,0,0,0,
0,0,0,0,0,0,0,0,0,0,0,0,0,0,0,0,0,0,0,0,0,0,0,0,0,0,0,0,0,0,
0,0,0,0,0,0,0,0,0,0,0,0,0,0,0,0,0,0,0,0,0,0,0,0,0,0,0,0,0,0,
0,0,0,0,0,0,0,0,0,0,0,0,0,0,0,0,0,0,0,0,0,0,0,0,0,0,0,0,0,0,
0,0,0,0,0,0,0,0,0,0,0,0,0,0,0,0,0,0,0,0,0,0,0,0,0,0,0,0,0,0,
0,0,0,0,0,0,0,2684354916,2684354900,1610612859,1610612859,1610612859,1610612859,1610612859,1610612859,1610612859,1610612859,0,0,0,0,0,0,0,0,0,0,0,0,0,
0,0,0,0,0,0,0,2684354917,2684354901,1610613055,1610613055,1610613055,1610613055,1610613055,1610613055,1610613055,1610613055,123,0,0,0,0,0,0,0,0,0,0,0,0,
0,0,0,0,0,0,0,2684354919,2684354903,2684354858,2684354858,2684354858,298,298,298,298,122,123,0,0,0,0,0,0,0,0,0,0,0,0,
0,0,0,0,0,0,0,2684354920,2684354904,2684354858,2684354858,298,298,298,298,298,122,123,0,0,0,0,0,0,0,0,0,0,0,0,
0,0,0,0,0,0,0,2684354858,2684354858,2684354858,2684354858,298,298,298,298,298,122,123,0,0,0,0,0,0,0,0,0,0,0,0,
0,0,0,0,0,0,0,2684354858,2684354858,2684354858,2684354858,298,298,298,298,298,122,123,0,0,0,0,0,0,0,0,0,0,0,0,
0,0,0,0,0,0,0,2684354922,2684354906,2684354858,2684354858,298,298,298,298,298,122,123,0,0,0,0,0,0,0,0,0,0,0,0,
0,0,0,0,0,0,0,2684354923,2684354907,2684354858,2684354858,298,298,298,298,298,122,123,0,0,0,0,0,0,0,0,0,0,0,0,
0,0,0,0,0,0,0,2684354927,2684354911,2684354895,2684354858,298,298,298,298,298,122,123,0,0,0,0,0,0,0,0,0,0,0,0,
0,0,0,0,0,0,0,2684354928,2684354912,119,120,298,298,298,298,298,122,123,0,0,0,0,0,0,0,0,0,0,0,0,
0,0,0,0,0,0,0,0,0,119,120,298,298,298,298,298,122,123,0,0,0,0,0,0,0,0,0,0,0,0,
0,0,0,0,0,0,0,0,0,119,120,298,298,298,298,298,122,123,0,0,0,0,0,0,0,0,0,0,0,0,
0,0,0,0,0,0,0,0,0,119,120,298,298,298,298,298,122,75,0,0,0,0,0,0,0,0,0,0,0,0,
0,0,0,0,0,0,0,0,0,119,120,298,298,298,298,298,122,91,0,0,0,0,0,0,0,0,0,0,0,0,
0,0,0,0,0,0,0,0,54,135,120,298,298,298,298,298,122,107,0,0,0,0,0,0,0,0,0,0,0,0,
0,0,0,0,0,0,0,0,70,151,72,298,298,298,298,298,122,123,0,0,0,0,0,0,0,0,0,0,0,0,
0,0,0,0,0,0,0,0,86,87,88,298,298,298,298,298,122,123,0,0,0,0,0,0,0,0,0,0,0,0,
0,0,0,0,0,0,0,0,102,103,104,298,298,298,298,298,122,123,0,0,0,0,0,0,0,0,0,0,0,0,
0,0,0,0,0,0,0,0,0,119,120,298,298,298,298,298,122,123,0,0,0,0,0,0,0,0,0,0,0,0,
0,0,0,0,0,0,0,0,0,119,120,298,298,298,298,298,122,123,0,0,0,0,0,0,0,0,0,0,0,0,
0,0,0,0,0,0,0,0,0,119,120,298,298,298,298,298,122,123,0,0,0,0,0,0,0,0,0,0,0,0,
0,0,0,0,0,0,0,0,0,119,120,298,298,298,298,298,122,123,0,0,0,0,0,0,0,0,0,0,0,0,
0,0,0,0,0,0,0,0,0,119,120,298,298,298,298,298,122,123,0,0,0,0,0,0,0,0,0,0,0,0,
0,0,0,0,0,0,0,0,0,119,120,298,298,298,298,298,122,123,0,0,0,0,0,0,0,0,0,0,0,0,
0,0,0,0,0,0,0,0,0,119,120,298,298,298,298,298,122,123,0,0,0,0,0,0,0,0,0,0,0,0,
0,0,0,0,0,0,0,0,0,119,120,298,298,298,298,298,122,75,0,0,0,0,0,0,0,0,0,0,0,0,
0,0,0,0,0,0,0,0,0,119,120,298,298,298,298,298,122,91,0,0,0,0,0,0,0,0,0,0,0,0,
0,0,0,0,0,0,0,0,0,119,120,298,298,298,298,298,122,107,0,0,0,0,0,0,0,0,0,0,0,0,
0,0,0,0,0,0,0,0,0,119,120,298,298,298,298,298,122,123,0,0,0,0,0,0,0,0,0,0,0,0,
0,0,0,0,0,0,0,0,0,119,120,298,298,298,298,298,122,123,0,0,0,0,0,0,0,0,0,0,0,0,
0,0,0,0,0,0,0,0,0,119,120,298,298,298,298,298,122,123,0,0,0,0,0,0,0,0,0,0,0,0,
0,0,0,0,0,0,0,0,0,119,120,298,298,298,298,298,122,123,0,0,0,0,0,0,0,0,0,0,0,0,
0,0,0,0,0,0,0,0,0,119,120,298,298,298,298,298,122,123,0,0,0,0,0,0,0,0,0,0,0,0,
0,0,0,0,0,0,0,0,0,119,120,298,298,298,298,298,122,123,0,0,0,0,0,0,0,0,0,0,0,0,
0,0,0,0,0,0,0,0,0,135,120,298,298,298,298,298,122,123,0,0,0,0,0,0,0,0,0,0,0,0,
0,0,0,0,0,0,0,149,150,151,152,298,298,298,298,298,122,123,0,0,0,0,0,0,0,0,0,0,0,0,
0,0,0,0,0,0,0,165,166,167,168,298,298,298,298,298,202,203,204,205,0,0,0,0,0,0,206,207,208,0,
0,0,0,0,0,0,0,0,0,183,184,298,298,298,298,298,218,219,220,221,222,222,222,222,222,222,222,223,224,0,
0,0,0,0,0,0,0,0,0,199,200,298,298,298,298,298,122,235,236,237,198,198,198,198,198,198,198,239,240,0,
0,0,0,0,0,0,0,0,0,215,216,298,298,298,298,298,122,251,252,253,253,253,253,253,253,253,253,255,256,0,
0,0,0,0,0,0,1610613056,1610613056,1610613056,231,298,298,298,298,298,298,298,298,298,298,298,298,298,298,298,298,298,271,272,0,
0,0,0,0,0,0,2684354918,2684354902,298,298,298,298,298,298,298,298,298,298,298,298,298,298,298,298,298,298,298,287,288,0,
0,0,0,0,0,0,2684354919,2684354903,298,298,298,298,298,298,298,298,298,298,298,298,298,298,298,298,298,298,298,303,304,0,
0,0,0,0,0,2684354937,2684354920,2684354904,298,298,298,298,298,298,298,298,298,298,298,298,298,298,298,298,298,298,298,319,320,0,
0,0,0,0,0,2684354937,2684354858,2684354858,298,298,298,298,298,298,298,298,298,298,298,298,298,298,298,298,298,298,298,319,336,0,
0,0,0,0,0,2684354937,2684354922,2684354906,298,298,298,298,298,298,298,298,298,298,298,298,298,298,298,298,298,298,298,335,336,0,
0,0,0,0,0,2684354937,2684354920,2684354904,298,298,298,298,298,298,298,298,298,298,298,298,298,298,298,298,298,298,298,298,0,0,
0,0,0,0,0,2684354937,298,298,298,298,298,298,298,298,298,298,298,298,298,298,298,298,298,298,298,298,298,298,0,0,
0,0,0,0,0,2684354937,2684354922,2684354906,298,298,298,298,298,298,298,298,298,298,298,298,298,298,298,298,298,298,298,298,0,0,
0,0,0,0,0,2684354937,2684354923,2684354907,298,298,298,298,298,298,298,298,298,298,298,298,298,298,298,298,298,298,298,319,336,0,
0,0,0,0,0,2684354937,2684354919,2684354903,298,298,298,298,298,298,298,298,298,298,298,298,298,298,298,298,298,298,298,298,0,0,
0,0,0,0,0,2684354937,2684354920,2684354904,298,298,298,298,298,298,298,298,298,298,298,298,298,298,298,298,298,298,298,298,0,0,
0,0,0,0,0,2684354937,298,298,298,298,298,298,298,298,298,298,298,298,298,298,298,298,298,298,298,298,298,298,0,0,
0,0,0,0,0,2684354937,298,298,298,298,298,298,298,298,298,298,298,298,298,298,298,298,298,298,298,298,298,335,336,0,
0,0,0,0,0,2684354937,298,298,298,298,298,298,298,298,298,298,298,298,298,298,298,298,298,298,298,298,298,335,336,0,
0,0,0,0,0,2684354937,298,298,298,298,298,298,298,298,298,298,298,298,298,298,298,298,298,298,298,298,298,335,336,0,
0,0,0,0,0,2684354937,298,298,298,298,298,298,298,298,298,298,298,298,298,298,298,298,298,298,298,298,298,335,336,0,
0,0,0,0,0,2684354937,298,298,298,298,298,298,298,298,298,298,298,298,298,298,298,298,298,298,298,298,298,335,320,0,
0,0,0,0,0,2684354937,298,298,298,298,298,298,298,298,298,298,298,298,298,298,298,298,298,298,298,298,298,335,336,0,
0,0,0,0,0,2684354938,2684354922,2684354906,298,298,298,298,298,298,298,298,298,298,298,298,298,298,298,298,298,298,298,335,336,0,
0,0,0,0,0,2684354939,2684354923,2684354907,298,298,298,298,298,298,298,298,298,298,298,298,298,298,298,298,298,298,298,335,336,0,
0,0,0,0,0,0,2684354926,2684354910,298,298,298,298,298,298,298,298,298,298,298,298,298,298,298,298,298,298,298,335,320,0,
0,0,0,0,0,0,2684354926,1610613056,1610613072,1610613072,1610613072,1610613072,298,298,298,298,298,298,298,1610613056,1610613072,1610613056,1610613056,1610613056,1610613056,1610613056,1610613056,1610613072,336,0,
0,0,0,0,0,0,337,338,0,0,0,2147483771,2147483770,298,298,298,298,298,122,123,0,0,0,0,0,0,0,0,0,0,
0,0,0,0,0,0,353,354,355,0,0,2147483771,2147483722,298,298,298,298,298,122,123,0,0,0,0,0,0,0,0,0,0,
0,0,0,0,0,0,0,0,0,0,0,2147483723,2147483754,298,298,298,298,298,74,75,0,0,0,0,0,0,0,0,0,0,
0,0,0,0,0,0,0,0,0,0,0,2147483739,2147483738,298,298,298,298,298,90,91,0,0,0,0,0,0,0,0,0,0,
0,0,0,0,0,0,0,0,0,0,0,2147483755,2147483754,298,298,298,298,298,106,107,0,0,0,0,0,0,0,0,0,0,
0,0,0,0,0,0,0,0,0,0,0,2147483771,3221225807,298,298,298,298,298,319,123,0,0,0,0,0,0,0,0,0,0,
0,0,0,0,0,0,0,0,0,0,0,2147483771,3221225791,298,298,298,298,298,335,123,0,0,0,0,0,0,0,0,0,0,
0,0,0,0,0,0,0,0,0,0,0,2147483771,3221225791,298,298,298,298,298,335,123,0,0,0,0,0,0,0,0,0,0,
0,0,0,0,0,0,0,0,0,0,0,2147483771,3221225791,298,298,298,298,298,319,123,0,0,0,0,0,0,0,0,0,0,
0,0,0,0,0,0,0,0,0,0,0,2147483771,3221225791,298,298,298,298,298,335,123,0,0,0,0,0,0,0,0,0,0,
0,0,0,0,0,0,0,0,0,0,0,2147483771,3221225807,298,298,298,298,298,335,123,0,0,0,0,0,0,0,0,0,0,
0,0,0,0,0,0,0,0,0,0,0,2147483771,3221225791,298,298,298,298,298,319,123,0,0,0,0,0,0,0,0,0,0,
0,0,0,0,0,0,0,0,0,0,0,2147483984,3221225791,298,298,298,298,298,335,336,0,0,0,0,0,0,0,0,0,0,
0,0,0,0,0,0,0,0,0,0,0,2147484000,341,343,344,298,346,347,351,352,0,0,0,0,0,0,0,0,0,0,
0,0,0,0,0,0,0,0,0,0,0,356,357,359,360,298,362,363,367,368,0,0,0,0,0,0,0,0,0,0
</data>
 </layer>
 <objectgroup id="4" name="PlayerSpawns">
  <object id="1" name="PlayerSpawn_from_AB1" x="476" y="4324">
   <point/>
  </object>
  <object id="31" name="PlayerSpawn_from_AB1_Class1" x="1020" y="2494.67">
   <point/>
  </object>
 </objectgroup>
 <objectgroup id="7" name="Collision">
  <object id="4" name="walls" x="374" y="4584" width="88" height="212"/>
  <object id="5" name="walls" x="445" y="4755" width="335" height="69"/>
  <object id="6" name="walls" x="720" y="4824" width="57.3333" height="924"/>
  <object id="7" name="walls" x="762.667" y="5680" width="490.667" height="64"/>
  <object id="8" name="walls" x="1204" y="4757.33" width="57.3333" height="1013.33"/>
  <object id="9" name="walls" x="1252" y="4756" width="582" height="46"/>
  <object id="10" name="walls" x="1770.67" y="3292" width="66.6667" height="1502.67"/>
  <object id="11" name="walls" x="1092" y="3246.67" width="681.333" height="65.3333"/>
  <object id="12" name="walls" x="1082.5" y="830" width="103.5" height="2417.5"/>
  <object id="13" name="walls" x="1077" y="3220" width="24.5" height="29.5"/>
  <object id="14" name="walls" x="562.5" y="817" width="524" height="26"/>
  <object id="15" name="walls" x="519" y="801.667" width="56.3333" height="50.3333"/>
  <object id="16" name="walls" x="488.333" y="834.333" width="29" height="96.6667"/>
  <object id="17" name="walls" x="449" y="927" width="78.6667" height="51.6667"/>
  <object id="19" name="walls" x="448.333" y="1186.67" width="81.6667" height="51.3333"/>
  <object id="20" name="walls" x="497.333" y="1233" width="22.6667" height="96.3333"/>
  <object id="21" name="walls" x="514.667" y="1325" width="45" height="73"/>
  <object id="22" name="walls" x="552" y="1330.67" width="88" height="2061.83"/>
  <object id="23" name="walls" x="442.5" y="3368" width="128.5" height="24"/>
  <object id="24" name="walls" x="427" y="3387.5" width="27" height="101.5"/>
  <object id="25" name="walls" x="377.5" y="3486" width="87.5" height="54"/>
  <object id="26" name="walls" x="327" y="3529" width="53" height="1066"/>
  <object id="27" name="walls" x="382.5" y="3681" width="84" height="51"/>
  <object id="28" name="walls" x="383.5" y="3875" width="82.5" height="177.5"/>
  <object id="33" name="walls" x="416.667" y="926" width="45.3333" height="310"/>
 </objectgroup>
 <objectgroup id="9" name="NPCs"/>
 <objectgroup id="8" name="SceneTransitions" locked="1">
  <object id="30" name="AB1_Lobby_to_AB1_Class1" x="1054" y="2403" width="57" height="138"/>
  <object id="32" name="AB1_Lobby_to_AB1" x="344" y="4030" width="78" height="560"/>
 </objectgroup>
</map>
