<?xml version="1.0" encoding="UTF-8"?>
<map version="1.10" tiledversion="1.12.2" orientation="orthogonal" renderorder="right-down" width="20" height="30" tilewidth="64" tileheight="64" infinite="0" nextlayerid="6" nextobjectid="60">
 <tileset firstgid="1" source="../tilesets/class.tsx"/>
 <layer id="1" name="TileLayer1" width="20" height="30">
  <data encoding="csv">
0,0,0,0,0,0,0,0,0,0,0,0,0,0,0,0,0,0,0,0,
0,0,0,0,0,0,0,0,0,0,0,0,0,0,0,0,0,0,0,0,
0,0,0,0,0,0,0,0,0,0,0,0,0,0,0,0,0,0,0,0,
0,0,0,0,0,0,0,0,0,0,0,0,0,0,0,0,0,0,0,0,
0,0,0,0,0,0,0,0,0,0,0,0,0,0,0,0,0,0,0,0,
0,0,0,0,0,0,0,0,0,0,0,0,0,0,0,0,0,0,0,0,
0,17,17,18,19,20,20,17,18,19,20,0,0,18,18,19,20,19,20,0,
146,28,28,29,30,31,32,31,31,35,36,37,38,39,40,41,41,43,44,287,
146,52,52,53,54,55,56,57,58,59,60,61,62,63,64,65,66,67,68,215,
170,52,76,77,78,79,80,81,82,83,84,85,86,87,88,89,90,91,92,239,
105,105,100,101,102,103,104,105,106,107,108,109,110,111,112,113,114,115,116,263,
105,105,124,125,126,127,128,129,130,131,132,133,134,135,136,137,138,139,140,287,
194,195,148,149,150,151,152,153,154,155,156,157,158,159,160,161,162,163,164,263,
218,219,172,173,174,175,176,177,178,179,180,181,182,183,184,185,186,187,188,287,
242,243,196,197,198,199,200,201,202,203,204,205,206,207,208,209,210,211,212,287,
266,267,220,221,222,223,224,225,226,227,228,229,230,231,232,233,234,235,236,287,
290,291,244,245,246,247,248,249,250,251,252,253,254,255,256,257,258,259,260,287,
242,243,268,269,270,271,272,273,274,275,276,277,278,279,280,281,282,283,284,287,
194,195,292,293,294,295,296,297,298,299,300,301,302,303,304,305,306,307,308,287,
218,219,220,221,222,223,224,225,226,227,228,229,230,231,232,233,234,235,236,287,
194,195,244,245,246,247,248,249,250,251,252,253,254,255,256,257,258,259,260,287,
218,219,268,269,270,271,272,273,274,275,276,277,278,279,280,281,282,283,284,287,
242,243,292,293,294,295,296,297,298,299,300,301,302,303,304,305,306,307,308,287,
266,267,220,221,222,223,224,225,226,227,228,229,230,231,232,233,234,235,236,287,
290,291,244,245,246,247,248,249,250,251,252,253,254,255,256,257,258,259,260,287,
242,243,268,269,270,271,272,273,274,275,276,277,278,279,280,281,282,283,284,287,
266,267,292,293,294,295,296,297,298,299,300,301,302,303,304,305,306,307,308,287,
290,315,316,317,318,319,320,321,322,323,322,322,326,327,328,329,330,331,332,287,
0,341,341,341,342,343,344,345,346,347,343,343,350,351,352,353,354,355,356,0,
0,0,0,0,0,0,0,0,0,0,0,0,0,0,0,0,0,0,0,0
</data>
 </layer>
 <objectgroup id="2" name="PlayerSpawns">
  <object id="1" name="PlayerSpawn_from_AB1_Lobby" x="96.8333" y="728">
   <point/>
  </object>
 </objectgroup>
 <objectgroup id="5" name="NPCs">
  <object id="58" type="NPC" x="425.833" y="650.167" width="35" height="57">
   <properties>
    <property name="model" value="Male01_Forward"/>
    <property name="name" value="MiluSir"/>
    <property name="quest" value="NONE"/>
   </properties>
  </object>
 </objectgroup>
 <objectgroup id="3" name="Collision">
  <object id="2" name="desks" x="185" y="726.5" width="291.5" height="40"/>
  <object id="4" name="desks" x="185.75" y="804" width="291.5" height="40"/>
  <object id="5" name="desks" x="185.75" y="884" width="291.5" height="40"/>
  <object id="6" name="desks" x="185.25" y="967" width="291.5" height="40"/>
  <object id="7" name="desks" x="184.75" y="1046.5" width="291.5" height="40"/>
  <object id="8" name="desks" x="184.25" y="1128.5" width="291.5" height="40"/>
  <object id="9" name="desks" x="186.25" y="1222" width="291.5" height="40"/>
  <object id="10" name="desks" x="185.75" y="1302.5" width="291.5" height="40"/>
  <object id="11" name="desks" x="185.25" y="1385" width="291.5" height="40"/>
  <object id="12" name="desks" x="185.75" y="1478.5" width="291.5" height="40"/>
  <object id="13" name="desks" x="185.25" y="1558.5" width="291.5" height="40"/>
  <object id="14" name="desks" x="185.25" y="1641.5" width="291.5" height="40"/>
  <object id="15" name="desks" x="549.833" y="726.5" width="283.5" height="40"/>
  <object id="16" name="desks" x="550.583" y="804" width="282" height="40"/>
  <object id="17" name="desks" x="550.583" y="884" width="282.5" height="40"/>
  <object id="18" name="desks" x="550.083" y="967" width="282" height="40"/>
  <object id="19" name="desks" x="549.583" y="1046.5" width="282.5" height="40"/>
  <object id="20" name="desks" x="549.083" y="1128.5" width="284.5" height="40"/>
  <object id="21" name="desks" x="551.083" y="1222" width="282" height="40"/>
  <object id="22" name="desks" x="550.583" y="1302.5" width="281.5" height="40"/>
  <object id="23" name="desks" x="550.083" y="1385" width="284" height="40"/>
  <object id="24" name="desks" x="550.583" y="1478.5" width="283.5" height="40"/>
  <object id="25" name="desks" x="550.083" y="1558.5" width="281.5" height="40"/>
  <object id="26" name="desks" x="550.083" y="1641.5" width="283" height="40"/>
  <object id="27" name="desks" x="900" y="726.5" width="273.5" height="40"/>
  <object id="28" name="desks" x="900.75" y="804" width="273.5" height="40"/>
  <object id="29" name="desks" x="901.75" y="884" width="272.5" height="40"/>
  <object id="30" name="desks" x="900.25" y="967" width="273.5" height="40"/>
  <object id="31" name="desks" x="899.75" y="1046.5" width="273.5" height="40"/>
  <object id="32" name="desks" x="901.75" y="1128.5" width="271" height="40"/>
  <object id="33" name="desks" x="901.25" y="1222" width="273.5" height="40"/>
  <object id="34" name="desks" x="901.25" y="1302.5" width="273" height="40"/>
  <object id="35" name="desks" x="899.75" y="1385" width="274" height="40"/>
  <object id="36" name="desks" x="901.75" y="1478.5" width="272.5" height="40"/>
  <object id="37" name="desks" x="901.75" y="1558.5" width="272" height="40"/>
  <object id="38" name="desks" x="901.25" y="1641.5" width="272.5" height="40"/>
  <object id="39" name="walls" x="650" y="637.333" width="149.333" height="42"/>
  <object id="40" name="walls" x="70" y="768.333" width="42.6667" height="1023.67"/>
  <object id="41" name="walls" x="102" y="1756" width="21.6667" height="36"/>
  <object id="42" name="walls" x="121.5" y="1782.5" width="1097.5" height="20.5"/>
  <object id="43" name="walls" x="1216" y="452.5" width="23" height="1337.5"/>
  <object id="44" name="walls" x="1177.67" y="734" width="43.6667" height="32.3333"/>
  <object id="45" name="walls" x="1173.33" y="717.667" width="21.6667" height="19.6667"/>
  <object id="46" name="walls" x="1176.06" y="660.628" width="49.3539" height="23.3333" rotation="68.2647"/>
  <object id="47" name="walls" x="1153" y="628" width="20.6667" height="41"/>
  <object id="48" name="walls" x="22.7879" y="628" width="1131.88" height="11.5"/>
  <object id="49" name="walls" x="185.273" y="627.455" width="52" height="37.2727"/>
  <object id="51" name="walls" x="954.25" y="631.75" width="72" height="63.75"/>
  <object id="52" name="walls" x="1021.63" y="636" width="9" height="49.125"/>
  <object id="53" name="walls" x="541" y="637.25" width="40.75" height="18.5"/>
  <object id="54" name="walls" x="608.75" y="634.25" width="43" height="20.25"/>
  <object id="55" name="walls" x="-23.3333" y="624" width="46" height="166"/>
  <object id="56" name="walls" x="11.5" y="768.5" width="72" height="34.5"/>
 </objectgroup>
 <objectgroup id="4" name="SceneTransitions">
  <object id="57" name="AB1_Class1_to_AB1_Lobby" x="5.33333" y="634.667" width="44" height="140"/>
 </objectgroup>
</map>
