<?xml version="1.0" encoding="UTF-8"?>
<map version="1.10" tiledversion="1.12.2" orientation="orthogonal" renderorder="right-down" width="20" height="30" tilewidth="64" tileheight="64" infinite="0" nextlayerid="2" nextobjectid="1">
 <tileset firstgid="1" source="../tilesets/class.tsx"/>
 <layer id="1" name="Tile Layer 1" width="20" height="30">
  <data encoding="csv">
0,0,0,0,0,0,0,0,0,0,0,0,0,0,0,0,0,0,0,0,
0,0,0,0,0,0,0,0,0,0,0,0,0,0,0,0,0,0,0,0,
0,0,0,0,0,0,0,0,0,0,0,0,0,0,0,0,0,0,0,0,
0,0,0,0,0,0,0,0,0,0,0,0,0,0,0,0,0,0,0,0,
0,0,0,0,0,0,0,0,0,0,0,0,0,0,0,0,0,0,0,0,
0,0,0,0,0,0,0,0,0,0,0,0,0,0,0,0,0,0,0,0,
0,17,17,18,19,20,20,17,18,19,20,0,0,18,18,19,20,19,20,0,
146,28,28,29,30,31,32,31,31,35,36,37,38,39,40,41,41,43,44,287,
146,52,52,53,54,55,56,57,58,59,60,61,62,63,64,65,66,67,68,215,
170,52,76,77,78,79,80,81,82,83,84,85,86,87,88,89,90,91,92,239,
105,105,100,101,102,103,104,105,106,107,108,109,110,111,112,113,114,115,116,263,
105,105,124,125,126,127,128,129,130,131,132,133,134,135,136,137,138,139,140,287,
194,195,148,149,150,151,152,153,154,155,156,157,158,159,160,161,162,163,164,263,
218,219,172,173,174,175,176,177,178,179,180,181,182,183,184,185,186,187,188,287,
242,243,196,197,198,199,200,201,202,203,204,205,206,207,208,209,210,211,212,287,
266,267,220,221,222,223,224,225,226,227,228,229,230,231,232,233,234,235,236,287,
290,291,244,245,246,247,248,249,250,251,252,253,254,255,256,257,258,259,260,287,
242,243,268,269,270,271,272,273,274,275,276,277,278,279,280,281,282,283,284,287,
194,195,292,293,294,295,296,297,298,299,300,301,302,303,304,305,306,307,308,287,
218,219,220,221,222,223,224,225,226,227,228,229,230,231,232,233,234,235,236,287,
194,195,244,245,246,247,248,249,250,251,252,253,254,255,256,257,258,259,260,287,
218,219,268,269,270,271,272,273,274,275,276,277,278,279,280,281,282,283,284,287,
242,243,292,293,294,295,296,297,298,299,300,301,302,303,304,305,306,307,308,287,
266,267,220,221,222,223,224,225,226,227,228,229,230,231,232,233,234,235,236,287,
290,291,244,245,246,247,248,249,250,251,252,253,254,255,256,257,258,259,260,287,
242,243,268,269,270,271,272,273,274,275,276,277,278,279,280,281,282,283,284,287,
266,267,292,293,294,295,296,297,298,299,300,301,302,303,304,305,306,307,308,287,
290,315,316,317,318,319,320,321,322,323,322,322,326,327,328,329,330,331,332,287,
0,341,341,341,342,343,344,345,346,347,343,343,350,351,352,353,354,355,356,0,
0,0,0,0,0,0,0,0,0,0,0,0,0,0,0,0,0,0,0,0
</data>
 </layer>
</map>
