<?xml version="1.0" encoding="UTF-8"?>
<map version="1.10" tiledversion="1.12.2" orientation="orthogonal" renderorder="right-down" width="30" height="90" tilewidth="64" tileheight="64" infinite="0" nextlayerid="9" nextobjectid="26">
 <tileset firstgid="1" source="../tilesets/lobby_2.tsx"/>
 <tileset firstgid="385" source="../tilesets/lobby_1.tsx"/>
 <layer id="3" name="TileLayer2" width="30" height="90">
  <data encoding="csv">
0,0,0,0,0,0,0,0,0,0,0,0,0,0,0,0,0,0,0,0,0,0,0,0,0,0,0,0,0,0,
0,0,0,0,0,0,0,0,0,0,0,0,0,0,0,0,0,0,0,0,0,0,0,0,0,0,0,0,0,0,
0,0,0,0,0,0,0,0,0,0,0,0,0,0,0,0,0,0,0,0,0,0,0,0,0,0,0,0,0,0,
0,0,0,0,0,0,0,0,0,0,0,0,0,0,0,0,0,0,0,0,0,0,0,0,0,0,0,0,0,0,
0,0,0,0,0,0,0,0,0,0,0,0,0,0,0,0,0,0,0,0,0,0,0,0,0,0,0,0,0,0,
0,0,0,0,0,0,0,0,0,0,0,0,0,0,0,0,0,0,0,0,0,0,0,0,0,0,0,0,0,0,
0,0,0,0,0,0,0,0,0,0,0,0,0,0,0,0,0,0,0,0,0,0,0,0,0,0,0,0,0,0,
0,0,0,0,0,0,0,0,0,0,0,0,0,0,0,0,0,0,0,0,0,0,0,0,0,0,0,0,0,0,
0,0,0,0,0,0,0,0,0,0,0,0,0,0,0,0,0,0,0,0,0,0,0,0,0,0,0,0,0,0,
0,0,0,0,0,0,0,0,0,0,0,0,0,0,0,0,0,0,0,0,0,0,0,0,0,0,0,0,0,0,
0,0,0,0,0,0,0,0,0,0,0,0,0,0,0,0,0,0,0,0,0,0,0,0,0,0,0,0,0,0,
0,0,0,0,0,0,0,0,0,0,0,0,0,0,0,0,0,0,0,0,0,0,0,0,0,0,0,0,0,0,
0,0,0,0,0,0,0,0,0,0,0,0,0,0,0,0,0,0,0,0,0,0,0,0,0,0,0,0,0,0,
0,0,0,0,0,0,0,0,0,0,0,0,0,0,0,0,0,0,0,0,0,0,0,0,0,0,0,0,0,0,
0,0,0,0,0,0,0,0,0,0,0,0,0,0,0,0,0,0,0,0,0,0,0,0,0,0,0,0,0,0,
0,0,0,0,0,0,0,0,0,0,0,0,0,0,0,0,0,0,0,0,0,0,0,0,0,0,0,0,0,0,
0,0,0,0,0,0,0,0,0,0,0,0,0,0,0,0,0,0,0,0,0,0,0,0,0,0,0,0,0,0,
0,0,0,0,0,0,0,0,0,0,0,0,0,0,0,0,0,0,0,0,0,0,0,0,0,0,0,0,0,0,
0,0,0,0,0,0,0,0,0,0,0,0,0,0,0,0,0,0,0,0,0,0,0,0,0,0,0,0,0,0,
0,0,0,0,0,0,0,0,0,0,0,0,0,0,0,0,0,0,0,0,0,0,0,0,0,0,0,0,0,0,
0,0,0,0,0,0,0,0,0,0,0,0,0,0,0,0,0,0,0,0,0,0,0,0,0,0,0,0,0,0,
0,0,0,0,0,0,0,0,0,0,0,0,0,0,0,0,0,0,0,0,0,0,0,0,0,0,0,0,0,0,
0,0,0,0,0,0,0,0,0,0,0,0,0,0,0,0,0,0,0,0,0,0,0,0,0,0,0,0,0,0,
0,0,0,0,0,0,0,0,0,0,0,0,0,0,0,0,0,0,0,0,0,0,0,0,0,0,0,0,0,0,
0,0,0,0,0,0,0,0,0,0,0,0,0,0,0,0,0,0,0,0,0,0,0,0,0,0,0,0,0,0,
0,0,0,0,0,0,0,0,0,0,0,0,0,0,0,0,0,0,0,0,0,0,0,0,0,0,0,0,0,0,
0,0,0,0,0,0,0,0,0,0,0,0,0,0,0,0,0,0,0,0,0,0,0,0,0,0,0,0,0,0,
0,0,0,0,0,0,0,0,0,0,0,0,0,0,0,0,0,0,0,0,0,0,0,0,0,0,0,0,0,0,
0,0,0,0,0,0,0,0,0,0,0,0,0,0,0,0,0,0,0,0,0,0,0,0,0,0,0,0,0,0,
0,0,0,0,0,0,0,0,0,0,0,0,0,0,0,0,0,0,0,0,0,0,0,0,0,0,0,0,0,0,
0,0,0,0,0,0,0,0,0,0,0,0,0,0,0,0,0,0,0,0,0,0,0,0,0,0,0,0,0,0,
0,0,0,0,0,0,0,0,0,0,0,0,0,0,0,0,0,0,0,0,0,0,0,0,0,0,0,0,0,0,
0,0,0,0,0,0,0,0,0,0,0,0,0,0,0,0,0,0,0,0,0,0,0,0,0,0,0,0,0,0,
0,0,0,0,0,0,0,0,0,0,0,0,0,0,0,0,0,0,0,0,0,0,0,0,0,0,0,0,0,0,
0,0,0,0,0,0,0,0,0,0,0,0,0,0,0,0,0,0,0,0,0,0,0,0,0,0,0,0,0,0,
0,0,0,0,0,0,0,0,0,0,0,0,0,0,0,0,0,0,0,0,0,0,0,0,0,0,0,0,0,0,
0,0,0,0,0,0,0,0,0,0,0,0,0,0,0,0,0,0,0,0,0,0,0,0,0,0,0,0,0,0,
0,0,0,0,0,0,0,0,0,0,0,0,0,0,0,0,0,0,0,0,0,0,0,0,0,0,0,0,0,0,
0,0,0,0,0,0,0,0,0,0,0,0,0,0,0,0,0,0,0,0,0,0,0,0,0,0,0,0,0,0,
0,0,0,0,0,0,0,0,0,0,0,0,0,0,0,0,0,0,0,0,0,0,0,0,0,0,0,0,0,0,
0,0,0,0,0,0,0,0,0,0,0,0,0,0,0,0,0,0,0,0,0,0,0,0,0,0,0,0,0,0,
0,0,0,0,0,0,0,0,0,0,0,0,0,0,0,0,0,0,0,0,0,0,0,0,0,0,0,0,0,0,
0,0,0,0,0,0,0,0,0,0,0,0,0,0,0,0,0,0,0,0,0,0,0,0,0,0,0,0,0,0,
0,0,0,0,0,0,0,0,0,0,0,0,0,0,0,0,0,0,0,0,0,0,0,0,0,0,0,0,0,0,
0,0,0,0,0,0,0,0,0,0,0,0,0,0,0,0,0,0,0,0,0,0,0,0,0,0,0,0,0,0,
0,0,0,0,0,0,0,0,0,0,0,0,0,0,0,0,0,0,0,0,0,0,0,0,0,0,0,0,0,0,
0,0,0,0,0,0,0,0,0,0,0,0,0,0,0,0,0,0,0,0,0,0,0,0,0,0,0,0,0,0,
0,0,0,0,0,0,0,0,0,0,0,0,0,0,0,0,0,0,0,0,0,0,0,0,0,0,0,0,0,0,
0,0,0,0,0,0,0,0,0,0,0,0,0,0,0,0,0,0,0,0,0,0,0,0,0,0,0,0,0,0,
0,0,0,0,0,0,0,0,0,0,0,0,0,0,0,0,0,0,0,0,0,0,0,0,0,0,0,0,0,0,
0,0,0,0,0,0,0,0,0,0,0,0,0,0,0,0,0,0,0,0,0,0,0,0,0,0,0,0,0,0,
0,0,0,0,0,0,0,0,0,0,0,0,0,0,0,0,0,0,0,0,0,0,0,0,0,0,0,0,0,0,
0,0,0,0,0,0,0,0,0,0,0,0,0,0,0,0,0,0,0,0,0,0,0,0,0,0,0,0,0,0,
0,0,0,0,0,0,0,0,0,0,0,0,0,0,0,0,0,0,0,0,0,0,0,0,0,0,0,0,0,0,
0,0,0,0,0,0,0,0,0,0,0,0,0,0,0,0,0,0,0,0,0,0,0,0,0,0,0,0,0,0,
0,0,0,0,0,0,0,0,0,0,0,0,0,0,0,0,0,0,0,0,0,0,0,0,0,0,0,0,0,0,
0,0,0,0,0,0,0,0,0,0,0,0,0,0,0,0,0,0,0,0,0,0,0,0,0,0,0,0,0,0,
0,0,0,0,0,0,0,0,0,0,0,0,0,0,0,0,0,0,0,0,0,0,0,0,0,0,0,0,0,0,
0,0,0,0,0,0,0,0,0,0,0,0,0,0,0,0,0,0,0,0,0,0,0,0,0,0,0,0,0,0,
0,0,0,0,0,0,0,0,0,0,0,0,0,0,0,0,0,0,0,0,0,0,0,0,0,0,0,0,0,0,
0,0,0,0,0,0,0,0,0,0,0,0,0,0,0,0,0,0,0,0,0,0,0,0,0,0,0,0,0,0,
0,0,0,0,0,0,0,0,0,0,0,0,0,0,0,0,0,0,0,0,0,0,0,0,0,0,0,0,0,0,
0,0,0,0,0,0,0,0,0,0,0,0,0,0,0,0,0,0,0,0,0,0,0,0,0,0,0,0,0,0,
0,0,0,0,0,0,0,0,0,0,0,0,0,0,0,0,0,0,0,0,0,0,0,0,0,0,0,0,0,0,
0,0,0,0,0,0,0,0,0,0,0,0,0,0,0,0,0,0,0,0,0,0,0,0,0,0,0,0,0,0,
0,0,0,0,0,0,0,0,0,0,0,0,0,0,0,0,0,0,0,0,0,0,0,0,0,0,0,0,0,0,
0,0,0,0,0,0,0,0,0,0,0,0,0,0,0,0,0,0,0,0,0,0,0,0,0,0,0,0,0,0,
0,0,0,0,0,0,0,0,0,0,0,0,0,0,0,0,0,0,0,0,0,0,0,0,0,0,0,0,0,0,
0,0,0,0,0,0,0,0,0,0,0,0,0,0,0,0,0,0,0,0,0,0,0,0,0,0,0,0,0,0,
0,0,0,0,0,0,0,0,0,0,0,0,0,0,0,0,0,0,0,0,0,0,0,0,0,0,0,0,0,0,
0,0,0,0,0,0,0,0,0,0,0,0,0,0,0,0,0,0,0,0,0,0,0,0,0,0,0,0,0,0,
0,0,0,0,0,0,0,0,0,0,0,0,0,0,0,0,0,0,0,0,0,0,0,0,0,0,0,0,0,0,
0,0,0,0,0,0,298,0,0,0,0,0,0,0,0,0,0,0,0,0,0,0,0,0,0,0,0,0,0,0,
0,0,0,0,0,0,298,0,0,0,0,0,0,0,0,0,0,0,0,0,0,0,0,0,0,0,0,0,0,0,
0,0,0,0,0,0,298,298,298,298,298,298,298,0,0,0,0,0,0,298,298,298,298,298,298,298,298,298,0,0,
0,0,0,0,0,0,0,0,0,0,0,0,0,0,0,0,0,0,0,0,0,0,0,0,0,0,0,0,0,0,
0,0,0,0,0,0,0,0,0,0,0,0,0,0,0,0,0,0,0,0,0,0,0,0,0,0,0,0,0,0,
0,0,0,0,0,0,0,0,0,0,0,0,0,0,0,0,0,0,0,0,0,0,0,0,0,0,0,0,0,0,
0,0,0,0,0,0,0,0,0,0,0,0,0,0,0,0,0,0,0,0,0,0,0,0,0,0,0,0,0,0,
0,0,0,0,0,0,0,0,0,0,0,0,0,0,0,0,0,0,0,0,0,0,0,0,0,0,0,0,0,0,
0,0,0,0,0,0,0,0,0,0,0,0,0,0,0,0,0,0,0,0,0,0,0,0,0,0,0,0,0,0,
0,0,0,0,0,0,0,0,0,0,0,0,0,0,0,0,0,0,0,0,0,0,0,0,0,0,0,0,0,0,
0,0,0,0,0,0,0,0,0,0,0,0,0,0,0,0,0,0,0,0,0,0,0,0,0,0,0,0,0,0,
0,0,0,0,0,0,0,0,0,0,0,0,0,0,0,0,0,0,0,0,0,0,0,0,0,0,0,0,0,0,
0,0,0,0,0,0,0,0,0,0,0,0,0,0,0,0,0,0,0,0,0,0,0,0,0,0,0,0,0,0,
0,0,0,0,0,0,0,0,0,0,0,0,0,0,0,0,0,0,0,0,0,0,0,0,0,0,0,0,0,0,
0,0,0,0,0,0,0,0,0,0,0,0,0,0,0,0,0,0,0,0,0,0,0,0,0,0,0,0,0,0,
0,0,0,0,0,0,0,0,0,0,0,0,0,0,0,0,0,0,0,0,0,0,0,0,0,0,0,0,0,0,
0,0,0,0,0,0,0,0,0,0,0,0,0,0,0,0,0,0,0,0,0,0,0,0,0,0,0,0,0,0,
0,0,0,0,0,0,0,0,0,0,0,0,0,0,0,0,0,0,0,0,0,0,0,0,0,0,0,0,0,0
</data>
 </layer>
 <layer id="1" name="TileLayer1" width="30" height="90">
  <data encoding="csv">
0,0,0,0,0,0,0,0,0,0,0,0,0,0,0,0,0,0,0,0,0,0,0,0,0,0,0,0,0,0,
0,0,0,0,0,0,0,0,0,0,0,0,0,0,0,0,0,0,0,0,0,0,0,0,0,0,0,0,0,0,
0,0,0,0,0,0,0,0,0,0,0,0,0,0,0,0,0,0,0,0,0,0,0,0,0,0,0,0,0,0,
0,0,0,0,0,0,0,0,0,0,0,0,0,0,0,0,0,0,0,0,0,0,0,0,0,0,0,0,0,0,
0,0,0,0,0,0,0,0,0,0,0,0,0,0,0,0,0,0,0,0,0,0,0,0,0,0,0,0,0,0,
0,0,0,0,0,0,0,0,0,0,0,0,0,0,0,0,0,0,0,0,0,0,0,0,0,0,0,0,0,0,
0,0,0,0,0,0,0,0,0,0,0,0,0,0,0,0,0,0,0,0,0,0,0,0,0,0,0,0,0,0,
0,0,0,0,0,0,0,0,0,0,0,0,0,0,0,0,0,0,0,0,0,0,0,0,0,0,0,0,0,0,
0,0,0,0,0,0,0,0,0,0,0,0,0,0,0,0,0,0,0,0,0,0,0,0,0,0,0,0,0,0,
0,0,0,0,0,0,0,0,0,0,0,0,0,0,0,0,0,0,0,0,0,0,0,0,0,0,0,0,0,0,
0,0,0,0,0,0,0,0,0,0,0,0,0,0,0,0,0,0,0,0,0,0,0,0,0,0,0,0,0,0,
0,0,0,0,0,0,0,0,0,0,0,0,0,0,0,0,0,0,0,0,0,0,0,0,0,0,0,0,0,0,
0,0,0,0,0,0,0,2684354916,2684354900,1610613056,1610612859,1610612859,1610612859,1610612859,1610612859,1610612859,1610612859,0,0,0,0,0,0,0,0,0,0,0,0,0,
0,0,0,0,0,0,0,2684354917,2684354901,1610613055,1610613055,1610613055,1610613055,1610613055,1610613055,1610613055,1610613055,123,0,0,0,0,0,0,0,0,0,0,0,0,
0,0,0,0,0,0,0,2684354919,2684354903,2684354858,2684354858,2684354858,298,298,298,298,122,123,0,0,0,0,0,0,0,0,0,0,0,0,
0,0,0,0,0,0,0,2684354920,2684354904,2684354858,2684354858,298,298,298,298,298,122,123,0,0,0,0,0,0,0,0,0,0,0,0,
0,0,0,0,0,0,0,2684354858,2684354858,2684354858,2684354858,298,298,298,298,298,122,123,0,0,0,0,0,0,0,0,0,0,0,0,
0,0,0,0,0,0,0,2684354858,2684354858,2684354858,2684354858,298,298,298,298,298,122,123,0,0,0,0,0,0,0,0,0,0,0,0,
0,0,0,0,0,0,0,2684354922,2684354906,2684354858,2684354858,298,298,298,298,298,122,123,0,0,0,0,0,0,0,0,0,0,0,0,
0,0,0,0,0,0,0,2684354923,2684354907,2684354858,2684354858,298,298,298,298,298,122,123,0,0,0,0,0,0,0,0,0,0,0,0,
0,0,0,0,0,0,0,2684354927,2684354911,2684354895,2684354858,298,298,298,298,298,122,123,0,0,0,0,0,0,0,0,0,0,0,0,
0,0,0,0,0,0,0,2684354928,2684354912,119,120,298,298,298,298,298,122,123,0,0,0,0,0,0,0,0,0,0,0,0,
0,0,0,0,0,0,0,0,0,119,120,298,298,298,298,298,122,123,0,0,0,0,0,0,0,0,0,0,0,0,
0,0,0,0,0,0,0,0,0,119,120,298,298,298,298,298,122,123,0,0,0,0,0,0,0,0,0,0,0,0,
0,0,0,0,0,0,0,0,0,119,120,298,298,298,298,298,122,75,0,0,0,0,0,0,0,0,0,0,0,0,
0,0,0,0,0,0,0,0,0,119,120,298,298,298,298,298,122,91,0,0,0,0,0,0,0,0,0,0,0,0,
0,0,0,0,0,0,0,0,54,55,56,298,298,298,298,298,122,107,0,0,0,0,0,0,0,0,0,0,0,0,
0,0,0,0,0,0,0,0,70,71,72,298,298,298,298,298,122,123,0,0,0,0,0,0,0,0,0,0,0,0,
0,0,0,0,0,0,0,0,86,87,88,298,298,298,298,298,122,123,0,0,0,0,0,0,0,0,0,0,0,0,
0,0,0,0,0,0,0,0,102,103,104,298,298,298,298,298,122,123,0,0,0,0,0,0,0,0,0,0,0,0,
0,0,0,0,0,0,0,0,0,119,120,298,298,298,298,298,122,123,0,0,0,0,0,0,0,0,0,0,0,0,
0,0,0,0,0,0,0,0,0,119,120,298,298,298,298,298,122,123,0,0,0,0,0,0,0,0,0,0,0,0,
0,0,0,0,0,0,0,0,0,119,120,298,298,298,298,298,122,123,0,0,0,0,0,0,0,0,0,0,0,0,
0,0,0,0,0,0,0,0,0,119,120,298,298,298,298,298,122,123,0,0,0,0,0,0,0,0,0,0,0,0,
0,0,0,0,0,0,0,0,0,119,120,298,298,298,298,298,122,123,0,0,0,0,0,0,0,0,0,0,0,0,
0,0,0,0,0,0,0,0,0,119,120,298,298,298,298,298,122,123,0,0,0,0,0,0,0,0,0,0,0,0,
0,0,0,0,0,0,0,0,0,119,120,298,298,298,298,298,122,123,0,0,0,0,0,0,0,0,0,0,0,0,
0,0,0,0,0,0,0,0,0,119,120,298,298,298,298,298,122,75,0,0,0,0,0,0,0,0,0,0,0,0,
0,0,0,0,0,0,0,0,0,119,120,298,298,298,298,298,122,91,0,0,0,0,0,0,0,0,0,0,0,0,
0,0,0,0,0,0,0,0,0,119,120,298,298,298,298,298,122,107,0,0,0,0,0,0,0,0,0,0,0,0,
0,0,0,0,0,0,0,0,0,119,120,298,298,298,298,298,122,123,0,0,0,0,0,0,0,0,0,0,0,0,
0,0,0,0,0,0,0,0,0,119,120,298,298,298,298,298,122,123,0,0,0,0,0,0,0,0,0,0,0,0,
0,0,0,0,0,0,0,0,0,119,120,298,298,298,298,298,122,123,0,0,0,0,0,0,0,0,0,0,0,0,
0,0,0,0,0,0,0,0,0,119,120,298,298,298,298,298,122,123,0,0,0,0,0,0,0,0,0,0,0,0,
0,0,0,0,0,0,0,0,0,119,120,298,298,298,298,298,122,123,0,0,0,0,0,0,0,0,0,0,0,0,
0,0,0,0,0,0,0,0,0,119,120,298,298,298,298,298,122,123,0,0,0,0,0,0,0,0,0,0,0,0,
0,0,0,0,0,0,0,0,0,119,120,298,298,298,298,298,122,123,0,0,0,0,0,0,0,0,0,0,0,0,
0,0,0,0,0,0,0,149,150,151,152,298,298,298,298,298,122,123,0,0,0,0,0,0,0,0,0,0,0,0,
0,0,0,0,0,0,0,165,166,167,168,298,298,298,298,298,202,203,204,205,0,0,0,0,0,0,206,207,208,0,
0,0,0,0,0,0,0,0,0,183,184,298,298,298,298,298,218,219,220,221,222,222,222,222,222,222,222,223,224,0,
0,0,0,0,0,0,0,0,0,199,200,298,298,298,298,298,122,235,236,237,198,198,198,198,198,198,198,239,240,0,
0,0,0,0,0,0,0,0,0,215,216,298,298,298,298,298,298,251,252,253,253,253,253,253,253,253,253,255,256,0,
0,0,0,0,0,0,1610613056,1610613056,1610613056,231,200,298,298,298,298,298,298,298,298,298,298,298,298,298,298,298,298,271,272,0,
0,0,0,0,0,0,2684354918,2684354902,298,298,298,298,298,298,298,298,298,298,298,298,298,298,298,298,298,298,298,287,288,0,
0,0,0,0,0,0,2684354919,2684354903,298,298,298,298,298,298,298,298,298,298,298,298,298,298,298,298,298,298,298,303,304,0,
0,0,0,0,0,2684354937,2684354920,2684354904,298,298,298,298,298,298,298,298,298,298,298,298,298,298,298,298,298,298,298,319,320,0,
0,0,0,0,0,2684354937,2684354858,2684354858,298,298,298,298,298,298,298,298,298,298,298,298,298,298,298,298,298,298,298,319,336,0,
0,0,0,0,0,2684354937,2684354922,2684354906,298,298,298,298,298,298,298,298,298,298,298,298,298,298,298,298,298,298,298,335,336,0,
0,0,0,0,0,2684354937,2684354920,2684354904,298,298,298,298,298,298,298,298,298,298,298,298,298,298,298,298,298,298,298,298,0,0,
0,0,0,0,0,2684354937,298,298,298,298,298,298,298,298,298,298,298,298,298,298,298,298,298,298,298,298,298,298,0,0,
0,0,0,0,0,2684354937,2684354922,2684354906,298,298,298,298,298,298,298,298,298,298,298,298,298,298,298,298,298,298,298,298,0,0,
0,0,0,0,0,2684354937,2684354923,2684354907,298,298,298,298,298,298,298,298,298,298,298,298,298,298,298,298,298,298,298,319,336,0,
0,0,0,0,0,2684354937,2684354919,2684354903,298,298,298,298,298,298,298,298,298,298,298,298,298,298,298,298,298,298,298,298,0,0,
0,0,0,0,0,2684354937,2684354920,2684354904,298,298,298,298,298,298,298,298,298,298,298,298,298,298,298,298,298,298,298,298,0,0,
0,0,0,0,0,2684354937,298,298,298,298,298,298,298,298,298,298,298,298,298,298,298,298,298,298,298,298,298,298,0,0,
0,0,0,0,0,2684354937,298,298,298,298,298,298,298,298,298,298,298,298,298,298,298,298,298,298,298,298,298,335,336,0,
0,0,0,0,0,2684354937,298,298,298,298,298,298,298,298,298,298,298,298,298,298,298,298,298,298,298,298,298,335,336,0,
0,0,0,0,0,2684354937,298,298,298,298,298,298,298,298,298,298,298,298,298,298,298,298,298,298,298,298,298,335,336,0,
0,0,0,0,0,2684354937,298,298,298,298,298,298,298,298,298,298,298,298,298,298,298,298,298,298,298,298,298,335,336,0,
0,0,0,0,0,2684354937,298,298,298,298,298,298,298,298,298,298,298,298,298,298,298,298,298,298,298,298,298,335,320,0,
0,0,0,0,0,2684354937,298,298,298,298,298,298,298,298,298,298,298,298,298,298,298,298,298,298,298,298,298,335,336,0,
0,0,0,0,0,2684354938,2684354922,2684354906,298,298,298,298,298,298,298,298,298,298,298,298,298,298,298,298,298,298,298,335,336,0,
0,0,0,0,0,2684354939,2684354923,2684354907,298,298,298,298,298,298,298,298,298,298,298,298,298,298,298,298,298,298,298,335,336,0,
0,0,0,0,0,0,2684354926,2684354910,298,298,298,298,298,298,298,298,298,298,298,298,298,298,298,298,298,298,298,335,320,0,
0,0,0,0,0,0,2684354926,1610613056,1610613072,1610613072,1610613072,1610613072,298,298,298,298,298,298,298,1610613056,1610613072,1610613056,1610613056,1610613056,1610613056,1610613056,1610613056,1610613072,336,0,
0,0,0,0,0,0,337,338,0,0,0,2147483771,2147483770,298,298,298,298,298,122,123,0,0,0,0,0,0,0,0,0,0,
0,0,0,0,0,0,353,354,355,0,0,2147483771,2147483722,298,298,298,298,298,122,123,0,0,0,0,0,0,0,0,0,0,
0,0,0,0,0,0,0,0,0,0,0,2147483723,2147483754,298,298,298,298,298,74,75,0,0,0,0,0,0,0,0,0,0,
0,0,0,0,0,0,0,0,0,0,0,2147483739,2147483738,298,298,298,298,298,90,91,0,0,0,0,0,0,0,0,0,0,
0,0,0,0,0,0,0,0,0,0,0,2147483755,2147483754,298,298,298,298,298,106,107,0,0,0,0,0,0,0,0,0,0,
0,0,0,0,0,0,0,0,0,0,0,2147483771,3221225807,298,298,298,298,298,319,123,0,0,0,0,0,0,0,0,0,0,
0,0,0,0,0,0,0,0,0,0,0,2147483771,3221225791,298,298,298,298,298,335,123,0,0,0,0,0,0,0,0,0,0,
0,0,0,0,0,0,0,0,0,0,0,2147483771,3221225791,298,298,298,298,298,335,123,0,0,0,0,0,0,0,0,0,0,
0,0,0,0,0,0,0,0,0,0,0,2147483771,3221225791,298,298,298,298,298,319,123,0,0,0,0,0,0,0,0,0,0,
0,0,0,0,0,0,0,0,0,0,0,2147483771,3221225791,298,298,298,298,298,335,123,0,0,0,0,0,0,0,0,0,0,
0,0,0,0,0,0,0,0,0,0,0,2147483771,3221225807,298,298,298,298,298,335,123,0,0,0,0,0,0,0,0,0,0,
0,0,0,0,0,0,0,0,0,0,0,2147483771,3221225791,298,298,298,298,298,319,123,0,0,0,0,0,0,0,0,0,0,
0,0,0,0,0,0,0,0,0,0,0,2147483984,3221225791,298,298,298,298,298,335,336,0,0,0,0,0,0,0,0,0,0,
0,0,0,0,0,0,0,0,0,0,0,2147484000,341,343,344,298,346,347,351,352,0,0,0,0,0,0,0,0,0,0,
0,0,0,0,0,0,0,0,0,0,0,356,357,359,360,298,362,363,367,368,0,0,0,0,0,0,0,0,0,0
</data>
 </layer>
 <objectgroup id="4" name="PlayerSpawns">
  <object id="1" name="PlayerSpawn" x="476" y="4324">
   <point/>
  </object>
 </objectgroup>
 <objectgroup id="8" name="SceneTransitions">
  <object id="25" name="AB2_Lobby_to_AB2" x="345.333" y="4017.33" width="68" height="625.333"/>
 </objectgroup>
 <objectgroup id="7" name="Collision">
  <object id="6" name="walls" x="377" y="3350" width="84" height="188"/>
  <object id="7" name="walls" x="444" y="3362" width="195" height="35"/>
  <object id="8" name="walls" x="576" y="1362" width="62" height="2002"/>
  <object id="9" name="walls" x="1122" y="3266" width="686" height="48"/>
  <object id="10" name="walls" x="1780" y="3298" width="62" height="1500"/>
  <object id="11" name="walls" x="387" y="3682" width="81" height="51"/>
  <object id="12" name="walls" x="379.667" y="3869.85" width="88.8182" height="184.848"/>
  <object id="13" name="walls" x="400" y="4579" width="65" height="225"/>
  <object id="14" name="walls" x="277.636" y="3347.82" width="100" height="1354.55"/>
  <object id="15" name="walls" x="394" y="4755" width="386" height="45"/>
  <object id="16" name="walls" x="1202" y="4746" width="614" height="60"/>
  <object id="18" name="walls" x="1206" y="4800" width="62" height="862"/>
  <object id="19" name="walls" x="736" y="4790" width="54" height="876"/>
  <object id="20" name="walls" x="700" y="5670" width="594" height="60"/>
  <object id="21" name="walls" x="1094" y="838" width="38" height="2466"/>
  <object id="22" name="walls" x="522" y="1326" width="114" height="44"/>
  <object id="23" name="walls" x="484" y="844" width="44" height="566"/>
  <object id="24" name="walls" x="466" y="812" width="638" height="40"/>
 </objectgroup>
</map>
