<?xml version="1.0" encoding="UTF-8"?>
<map version="1.10" tiledversion="1.12.2" orientation="orthogonal" renderorder="right-down" width="30" height="20" tilewidth="64" tileheight="64" infinite="0" nextlayerid="8" nextobjectid="38">
 <tileset firstgid="1" source="../tilesets/cafe.tsx"/>
 <layer id="1" name="Tile Layer 1" width="30" height="20">
  <data encoding="csv">
2684354873,1610612832,1610612856,1610612856,1610612856,1610612856,1610612856,1610612856,1610612856,1610612856,1610612856,1610612856,1610612856,1610612856,1610612856,1610612856,1610612856,1610612856,1610612856,1610612856,1610612856,1610612856,1610612856,1610612880,1610612904,1610612928,1610612952,1610612832,1610612856,3221225785,
2684354892,115,115,115,115,115,115,115,115,115,115,115,115,115,115,115,115,115,115,115,115,115,1610612855,1610612879,1610612903,1610612927,1610612951,1610612975,204,96,
2684354892,2684354868,99,100,101,102,103,104,105,106,107,108,109,110,109,110,111,112,109,110,111,112,113,114,115,115,115,118,204,120,
2684354892,2684354868,123,124,125,126,127,128,129,130,131,132,133,134,133,134,135,136,133,134,135,136,137,138,139,139,139,142,204,120,
2684354892,2684354868,147,148,149,150,151,152,153,154,155,156,157,158,157,158,159,160,157,158,159,160,161,162,163,163,163,166,204,96,
2684354892,2684354868,171,172,173,174,175,176,177,178,179,180,181,182,181,182,183,184,181,182,183,184,185,186,187,187,201,190,204,120,
2684354893,2684354869,99,100,101,102,103,104,105,106,107,108,109,110,109,110,111,112,109,110,111,112,113,114,115,115,201,118,204,120,
2684354893,2684354869,123,124,125,126,127,128,129,130,131,132,133,134,133,134,135,136,133,134,135,136,137,138,139,139,201,142,204,120,
2684354893,2684354869,147,148,149,150,151,152,153,154,155,156,157,158,157,158,159,160,157,158,159,160,161,162,163,163,201,166,204,120,
2684354892,2684354868,171,172,173,174,175,176,177,178,179,180,181,182,181,182,183,184,181,182,183,184,185,186,187,187,201,190,204,120,
2684354893,2684354869,99,100,101,102,103,104,105,106,107,108,109,110,109,110,111,112,109,110,111,112,113,114,115,115,201,118,204,120,
2684354893,2684354869,123,124,125,126,127,128,129,130,131,132,133,134,133,134,135,136,133,134,135,136,137,138,139,139,201,142,204,120,
2684354893,2684354869,147,148,149,150,151,152,153,154,155,156,157,158,157,158,159,160,157,158,159,160,161,162,163,163,201,166,204,120,
2684354892,2684354868,171,172,173,174,175,176,177,178,179,180,181,182,181,182,183,184,181,182,183,184,185,186,187,187,201,190,204,120,
2684354892,2684354868,195,196,197,198,199,200,201,202,203,204,205,206,205,206,207,208,205,206,207,208,209,210,211,211,201,214,204,96,
2684354892,2684354868,219,220,221,222,223,224,225,226,227,228,229,230,229,230,231,232,229,230,231,232,233,234,235,235,225,238,204,120,
2684354892,2684354868,243,244,245,246,247,248,249,250,251,252,253,254,253,254,255,256,253,254,255,256,257,258,259,259,259,262,263,264,
2684354892,2684354868,267,268,269,270,271,272,204,274,275,276,277,278,277,278,204,204,277,278,204,204,281,282,283,283,283,286,287,288,
2684354893,118,118,118,118,118,118,118,118,118,118,118,118,118,118,118,118,118,118,118,118,118,536871031,536871055,536871079,536871103,536871127,536871151,1073742028,1073741920,
313,2684354680,2684354656,2684354656,2684354656,2684354656,2684354656,2684354656,2684354656,2684354656,2684354656,2684354656,2684354656,2684354656,2684354656,2684354656,2684354656,2684354656,2684354656,2684354656,2684354656,2684354656,536871032,536871056,536871080,536871104,536871128,536871008,536871032,2147483961
</data>
 </layer>
 <objectgroup id="2" name="PlayerSpawns">
  <object id="1" name="PlayerSpawn_from_CafeRight" x="1596" y="156.333">
   <point/>
  </object>
  <object id="2" name="PlayerSpawn_from_CafeLeft" x="1589.88" y="1120.39">
   <point/>
  </object>
 </objectgroup>
 <objectgroup id="4" name="Collision">
  <object id="5" name="walls" x="1857" y="41" width="70" height="1221"/>
  <object id="7" name="walls" x="1462" y="1181.33" width="101.667" height="65.3333"/>
  <object id="9" name="walls" x="17.3333" y="1214.67" width="1879" height="52.6667"/>
  <object id="10" name="walls" x="9.09091" y="9.09091" width="69.8182" height="1257.58"/>
  <object id="11" name="walls" x="57.3333" y="2.66667" width="1833.33" height="62.6667"/>
  <object id="12" name="walls" x="1623.33" y="65.6667" width="129.667" height="34"/>
  <object id="13" name="walls" x="1457.33" y="65.3333" width="106.667" height="31"/>
  <object id="14" name="walls" x="1624" y="1182.5" width="129" height="37"/>
  <object id="17" name="walls" x="1668" y="313" width="42" height="664"/>
  <object id="18" name="walls" x="1328" y="156" width="46" height="98"/>
  <object id="19" name="walls" x="1328" y="411" width="46" height="98"/>
  <object id="20" name="walls" x="1329" y="667" width="46" height="98"/>
  <object id="21" name="walls" x="1329" y="881" width="46" height="98"/>
  <object id="22" name="walls" x="1071" y="887" width="46" height="98"/>
  <object id="23" name="walls" x="1073" y="665" width="46" height="98"/>
  <object id="24" name="walls" x="1074" y="408" width="46" height="98"/>
  <object id="25" name="walls" x="1075" y="153" width="46" height="98"/>
  <object id="26" name="walls" x="511" y="157" width="46" height="98"/>
  <object id="27" name="walls" x="510" y="410" width="46" height="98"/>
  <object id="28" name="walls" x="514" y="665" width="46" height="98"/>
  <object id="29" name="walls" x="510" y="888" width="46" height="98"/>
 </objectgroup>
 <objectgroup id="7" name="NPCs">
  <object id="30" type="NPC" x="1312.67" y="266.667" width="49.6667" height="42.6667">
   <properties>
    <property name="model" value="Male10_Forward"/>
   </properties>
  </object>
  <object id="32" type="NPC" x="1343.17" y="296" width="49.6667" height="42.6667">
   <properties>
    <property name="model" value="Male03_Left"/>
   </properties>
  </object>
  <object id="33" type="NPC" x="1293.17" y="300.667" width="49.6667" height="42.6667">
   <properties>
    <property name="model" value="Male12_Right"/>
   </properties>
  </object>
  <object id="34" type="NPC" x="1585.33" y="328.667" width="69" height="55">
   <properties>
    <property name="model" value="Male11_Forward"/>
   </properties>
  </object>
  <object id="35" type="NPC" x="1540" y="905.333" width="64" height="40">
   <properties>
    <property name="model" value="Male06_Backward"/>
   </properties>
  </object>
  <object id="37" type="NPC" x="1539.33" y="348.667" width="56" height="57.3333">
   <properties>
    <property name="model" value="Male07_Forward"/>
   </properties>
  </object>
 </objectgroup>
 <objectgroup id="3" name="SceneTransitions">
  <object id="3" name="CafeInsideRight_to_CafeRight" x="1512.83" y="59" width="214.833" height="60.3333"/>
  <object id="4" name="CafeInsideLeft_to_CafeLeft" x="1487.33" y="1146.33" width="202.333" height="62.3333"/>
 </objectgroup>
</map>
