<?xml version="1.0" encoding="UTF-8"?>
<map version="1.10" tiledversion="1.12.2" orientation="orthogonal" renderorder="right-down" width="60" height="60" tilewidth="64" tileheight="64" infinite="0" nextlayerid="8" nextobjectid="55">
 <tileset firstgid="1" source="../tilesets/cds.tsx"/>
 <layer id="2" name="Tile Layer 2" width="60" height="60">
  <data encoding="csv">
0,0,0,0,0,0,0,0,0,0,0,0,0,0,0,0,0,0,0,0,0,0,0,0,0,0,0,0,0,0,0,0,0,0,0,0,0,0,0,0,0,0,0,0,0,0,0,0,0,0,0,0,0,0,0,0,0,0,0,0,
0,0,0,0,0,0,0,0,0,0,0,0,0,0,0,0,0,0,0,0,0,0,0,0,0,0,0,0,0,0,0,0,0,0,0,0,0,0,0,0,0,0,0,0,0,0,0,0,0,0,0,0,0,0,0,0,0,0,0,0,
0,0,0,0,0,0,0,0,0,0,0,0,0,0,0,0,0,0,0,0,0,0,0,0,0,0,0,0,0,0,0,0,0,0,0,0,0,0,0,0,0,0,0,0,0,0,0,0,0,0,0,0,0,0,0,0,0,0,0,0,
0,0,0,0,0,0,0,0,0,0,0,0,0,0,0,0,0,0,0,0,0,0,0,0,0,0,0,0,0,0,0,0,0,0,0,0,0,0,0,0,0,0,0,0,0,0,0,0,0,0,0,0,0,0,0,0,0,0,0,0,
0,0,0,0,0,0,0,0,0,0,0,0,0,0,0,0,0,0,0,0,0,0,0,0,0,0,0,0,0,0,0,0,0,0,0,0,0,0,0,0,0,0,0,0,0,0,0,0,0,0,0,0,0,0,0,0,0,0,0,0,
0,0,0,0,0,0,0,0,0,0,0,0,0,0,0,0,0,0,0,0,0,0,0,0,0,0,0,0,0,0,0,0,0,0,0,0,0,0,0,0,0,0,0,0,0,0,0,0,0,0,0,0,0,0,0,0,0,0,0,0,
0,0,0,0,0,0,0,0,0,0,0,0,0,0,0,0,0,0,0,0,0,0,0,0,0,0,0,0,0,0,0,0,0,0,0,0,0,0,0,0,0,0,0,0,0,0,0,0,0,0,0,0,0,0,0,0,0,0,0,0,
0,0,0,0,0,0,0,0,0,0,0,0,0,0,0,0,0,0,0,0,0,0,0,0,0,0,0,0,0,0,0,0,0,0,0,0,0,0,0,0,0,0,0,0,0,0,0,0,0,0,0,0,0,0,0,0,0,0,0,0,
0,0,0,0,0,0,0,0,0,0,0,0,0,0,0,0,0,0,0,0,0,0,0,0,0,0,0,0,0,0,0,0,0,0,0,0,0,0,0,0,0,0,0,0,0,0,0,0,0,0,0,0,0,0,0,0,0,0,0,0,
0,0,0,0,0,0,0,0,0,0,0,0,0,0,0,0,0,0,0,0,0,0,0,0,0,0,0,0,0,0,0,0,0,0,0,0,0,0,0,0,0,0,0,0,0,0,0,0,0,0,0,0,0,0,0,0,0,0,0,0,
0,0,0,0,0,0,0,0,0,0,0,0,0,0,0,0,0,0,0,0,0,0,0,0,0,0,0,0,0,0,0,0,0,0,0,0,0,0,0,0,0,0,0,0,0,0,0,0,0,0,0,0,0,0,0,0,0,0,0,0,
0,0,0,0,0,0,0,0,0,0,0,0,0,0,0,0,0,0,0,0,0,0,0,0,0,0,0,0,0,0,0,0,0,0,0,0,0,0,0,0,0,0,0,0,0,0,0,0,0,0,0,0,0,0,0,0,0,0,0,0,
0,0,0,0,0,0,0,0,0,0,0,0,0,0,0,0,0,0,0,0,0,0,0,0,0,0,0,0,0,0,0,0,0,0,0,0,0,0,0,0,0,0,0,0,0,0,0,0,0,0,0,0,0,0,0,0,0,0,0,0,
0,0,0,0,0,0,0,0,0,0,0,0,0,0,0,0,0,0,0,0,0,0,0,0,0,0,0,0,0,0,0,0,0,0,0,0,0,0,0,0,0,0,0,0,0,0,0,0,0,0,0,0,0,0,0,0,0,0,0,0,
0,0,0,0,0,0,0,0,0,0,0,0,0,0,0,0,0,0,0,0,0,0,0,0,0,0,0,0,0,0,0,0,0,0,0,0,0,0,0,0,0,0,0,0,0,0,0,0,0,0,0,0,0,0,0,0,0,0,0,0,
0,0,0,0,0,0,0,0,0,0,0,0,0,0,0,0,0,0,0,0,0,0,0,0,0,0,0,0,0,0,0,0,0,0,0,0,0,0,0,0,0,0,0,0,0,0,0,0,0,0,0,0,0,0,0,0,0,0,0,0,
0,0,0,0,0,0,0,0,0,0,0,0,0,0,0,0,0,0,0,0,0,0,0,0,0,0,0,0,0,0,0,0,0,0,0,0,0,0,0,0,0,0,0,0,0,0,0,0,0,0,0,0,0,0,0,0,0,0,0,0,
0,0,0,0,0,0,0,0,0,0,0,0,0,0,0,0,0,0,0,0,0,0,0,0,0,0,0,0,0,0,0,0,0,0,0,0,0,0,0,0,0,0,0,0,0,0,0,0,0,0,0,0,0,0,0,0,0,0,0,0,
0,0,0,0,0,0,0,0,0,0,0,0,0,0,0,0,0,0,0,0,0,0,0,0,0,0,0,0,0,0,0,0,0,0,0,0,0,0,0,0,0,0,0,0,0,0,0,0,0,0,0,0,0,0,0,0,0,0,0,0,
0,0,0,0,0,0,0,0,0,0,0,0,0,0,0,0,0,0,0,0,0,0,0,0,0,0,0,0,0,0,0,0,0,0,0,0,0,0,0,0,0,0,0,0,0,0,0,0,0,0,0,0,0,0,0,0,0,0,0,0,
0,0,0,0,0,0,0,0,0,0,0,0,0,0,0,0,0,0,0,0,0,0,0,0,0,0,0,0,0,0,0,0,0,0,0,0,0,0,0,0,0,0,0,0,0,0,0,0,0,0,0,0,0,0,0,0,0,0,0,0,
0,0,0,0,0,0,0,0,0,0,0,0,0,0,0,0,0,0,0,0,0,0,0,0,0,0,0,0,0,0,0,0,0,0,0,0,0,0,0,0,0,0,0,0,0,0,0,0,0,0,0,0,0,0,0,0,0,0,0,0,
0,0,0,0,0,0,0,0,0,0,0,0,0,0,0,0,0,0,0,0,0,0,0,0,0,0,0,0,0,0,0,0,0,0,0,0,0,0,0,0,0,0,0,0,0,0,0,0,0,0,0,0,0,0,0,0,0,0,0,0,
0,0,0,0,0,0,0,0,0,0,0,0,0,0,0,0,0,0,0,0,0,0,0,0,0,0,0,0,0,0,0,0,0,0,0,0,0,0,0,0,0,0,0,0,0,0,0,0,0,0,0,0,0,0,0,0,0,0,0,0,
0,0,0,0,0,0,0,0,0,0,0,0,0,0,0,0,0,0,0,0,0,0,0,0,0,0,0,0,0,0,0,0,0,0,0,0,0,0,0,0,0,0,0,0,0,0,0,0,0,0,0,0,0,0,0,0,0,0,0,0,
0,0,0,0,0,0,0,0,0,0,0,0,0,0,0,0,0,0,0,0,0,0,0,0,0,0,0,0,0,0,0,0,0,0,0,0,0,0,0,0,0,0,0,0,0,0,0,0,0,0,0,0,0,0,0,0,0,0,0,0,
0,0,0,0,0,0,0,0,0,0,0,0,0,0,0,0,0,0,0,0,0,0,0,0,0,0,0,0,0,0,0,0,0,0,0,0,0,0,0,0,0,0,0,0,0,0,0,0,0,0,0,0,0,0,0,0,0,0,0,0,
0,0,0,0,0,0,0,0,0,0,0,0,0,0,0,0,0,0,0,0,0,0,0,0,0,0,0,0,0,0,0,0,0,0,0,0,0,0,0,0,0,0,0,0,0,0,0,0,0,0,0,0,0,0,0,0,0,0,0,0,
0,0,0,0,0,0,0,0,0,0,0,0,0,0,0,0,0,0,0,0,0,0,0,0,0,0,0,0,0,0,0,0,0,0,0,0,0,0,0,0,0,0,0,0,0,0,0,0,0,0,0,0,0,0,0,0,0,0,0,0,
0,0,0,0,0,0,0,0,0,0,0,0,0,0,0,0,0,0,0,0,0,0,0,0,0,0,0,0,0,0,0,0,0,0,0,0,0,0,0,0,0,0,0,0,0,0,0,0,0,0,0,0,0,0,0,0,0,0,0,0,
0,0,0,0,0,0,0,0,0,0,0,0,0,0,0,0,0,0,0,0,0,0,0,0,0,0,0,0,0,0,0,0,0,0,0,0,0,0,0,0,0,0,0,0,0,0,0,0,0,0,0,0,0,0,0,0,0,0,0,0,
0,0,0,0,0,0,0,0,0,0,0,0,0,0,0,0,0,0,0,0,0,0,0,0,0,0,0,0,0,0,0,0,0,0,0,0,0,0,0,0,0,0,0,0,0,0,0,0,0,0,0,0,0,0,0,0,0,0,0,0,
0,0,0,0,0,0,0,0,0,0,0,0,0,0,0,0,0,0,0,0,0,0,0,0,0,0,0,0,0,0,0,0,0,0,0,0,0,0,0,0,0,0,0,0,0,0,0,0,0,0,0,0,0,0,0,0,0,0,0,0,
0,0,0,0,0,0,0,0,0,0,0,0,0,0,0,0,0,0,0,0,0,0,0,0,0,0,0,0,0,0,0,0,0,0,0,0,0,0,0,0,0,0,0,0,0,0,0,0,0,0,0,0,0,0,0,0,0,0,0,0,
0,0,0,0,0,0,0,0,0,0,0,0,0,0,0,0,0,0,0,0,0,0,173,0,0,0,0,0,0,0,0,0,0,0,0,0,0,0,0,0,0,0,0,0,0,0,0,173,173,173,173,173,173,173,0,0,0,0,0,0,
0,0,0,0,0,0,0,0,0,0,0,0,0,0,0,0,0,0,0,0,0,0,173,0,0,0,0,0,0,0,0,0,0,0,0,0,0,0,0,0,0,0,0,0,0,0,0,0,0,0,0,0,0,0,0,0,0,0,0,0,
0,0,0,0,0,0,0,0,0,0,0,0,0,0,0,0,0,0,0,0,0,0,173,0,0,0,0,0,0,0,0,0,0,0,0,0,0,0,0,0,0,0,0,0,0,0,0,0,0,0,0,0,0,0,0,0,0,0,0,0,
0,0,0,0,0,0,0,0,0,0,0,0,0,0,0,0,0,0,0,0,0,0,173,0,0,0,0,0,0,0,0,0,0,0,0,0,0,0,0,0,0,0,0,0,0,0,0,0,0,0,0,0,0,0,0,0,0,0,0,0,
0,0,0,0,0,0,0,0,0,0,0,0,0,0,0,0,0,0,0,0,0,0,173,0,0,0,0,0,0,0,0,0,0,0,0,0,0,0,0,0,0,0,0,0,0,0,0,0,0,0,0,0,0,0,0,0,0,0,0,0,
0,0,0,0,0,0,0,0,0,0,0,0,0,0,0,0,0,0,0,0,0,0,173,0,0,0,0,0,0,0,0,0,0,0,0,0,0,0,0,0,0,0,0,0,0,0,0,0,0,0,0,0,0,0,0,0,0,0,0,0,
0,0,0,0,0,0,0,0,0,0,0,0,0,0,0,0,0,0,0,0,0,0,173,0,0,0,0,0,0,0,0,105,0,0,0,0,0,0,0,0,0,0,0,0,0,0,0,0,0,0,0,0,0,0,0,0,0,0,0,0,
0,0,0,0,0,0,0,0,0,0,0,0,0,0,0,0,0,0,0,0,0,0,173,0,0,0,0,0,0,0,0,129,0,0,0,0,0,0,0,0,0,0,0,0,0,0,0,0,0,0,0,0,0,0,0,0,0,0,0,0,
0,0,0,0,0,0,0,0,0,0,0,0,0,0,0,0,0,0,0,0,0,0,173,0,0,0,0,0,0,0,0,0,0,0,0,0,0,0,0,0,0,0,0,0,0,0,0,0,0,0,0,0,0,0,0,0,0,0,0,0,
0,0,0,0,0,0,0,0,0,0,0,0,0,0,0,0,0,0,0,0,0,0,173,0,0,0,0,0,0,0,0,0,0,0,0,0,0,0,0,0,0,0,0,0,0,0,0,0,0,0,0,0,0,0,0,0,0,0,0,0,
0,0,0,0,0,0,0,0,0,0,0,0,0,0,0,0,0,0,0,0,0,0,173,173,0,0,0,0,0,0,0,0,0,0,0,0,0,0,0,0,0,0,0,0,0,0,0,0,0,0,0,0,0,0,0,0,0,0,0,0,
0,0,0,0,0,0,0,0,0,0,0,0,0,0,0,0,0,0,0,0,0,0,173,173,0,0,0,0,0,0,0,0,0,0,0,0,0,0,0,0,0,0,0,0,0,0,0,0,0,0,0,0,0,0,0,0,0,0,0,0,
0,0,0,0,0,0,0,0,0,0,0,0,0,0,0,0,0,0,0,0,0,0,173,173,0,0,0,0,0,0,0,0,0,0,0,0,0,0,0,0,0,0,0,0,0,0,0,0,0,0,0,0,0,0,0,0,0,0,0,0,
0,0,0,0,0,0,0,0,0,0,0,0,0,0,0,0,0,0,0,0,0,0,173,173,0,0,0,0,0,0,0,0,0,0,0,0,0,0,0,0,0,0,0,0,0,0,0,0,0,0,0,0,0,0,0,0,0,0,0,0,
0,0,0,0,0,0,0,0,0,0,0,0,0,0,0,0,0,0,0,0,0,0,173,173,0,0,0,0,0,0,0,0,0,0,0,0,0,0,0,0,0,0,0,0,0,0,0,0,0,0,0,0,0,0,0,0,0,0,0,0,
0,0,0,0,0,0,0,0,0,0,0,0,0,0,0,0,0,0,0,0,0,0,173,173,0,0,0,0,0,0,0,0,0,0,0,0,0,0,0,0,0,0,0,0,0,0,0,0,0,0,0,0,0,0,0,0,0,0,0,0,
0,0,0,0,0,0,0,0,0,0,0,0,0,0,0,0,0,0,0,0,0,0,173,0,0,0,0,0,0,0,0,0,0,0,0,0,0,0,0,0,0,0,0,0,0,0,0,0,0,0,0,0,0,0,0,0,0,0,0,0,
0,0,0,0,0,0,0,0,0,0,0,0,0,0,0,0,0,0,0,0,0,0,173,0,0,0,0,0,0,0,0,0,0,0,0,0,0,0,0,0,0,0,0,0,0,0,0,0,0,0,0,0,0,0,0,0,0,0,0,0,
0,0,0,0,0,0,0,0,0,0,0,0,0,0,0,0,0,0,0,0,0,0,173,0,0,0,0,173,173,173,173,0,0,0,0,0,0,0,0,0,173,173,173,173,173,0,0,0,0,0,0,0,0,0,0,0,0,0,0,0,
0,0,0,0,0,0,0,0,0,0,0,0,0,0,0,0,0,0,0,0,0,0,173,173,173,173,173,173,173,173,173,173,173,173,173,173,173,173,173,173,173,173,173,173,173,173,173,0,0,0,0,0,0,0,0,0,0,0,0,0,
0,0,0,0,0,0,0,0,0,0,0,0,0,0,0,0,0,0,0,0,0,0,0,0,0,0,0,0,0,0,0,0,0,0,0,0,0,0,0,0,0,0,0,0,0,0,0,0,0,0,0,0,0,0,0,0,0,0,0,0,
0,0,0,0,0,0,0,0,0,0,0,0,0,0,0,0,0,0,0,0,0,0,0,0,0,0,0,0,0,0,0,0,0,0,0,0,0,0,0,0,0,0,0,0,0,0,0,0,0,0,0,0,0,0,0,0,0,0,0,0,
0,0,0,0,0,0,0,0,0,0,0,0,0,0,0,0,0,0,0,0,0,0,0,0,0,0,0,0,0,0,0,0,0,0,0,0,0,0,0,0,0,0,0,0,0,0,0,0,0,0,0,0,0,0,0,0,0,0,0,0,
0,0,0,0,0,0,0,0,0,0,0,0,0,0,0,0,0,0,0,0,0,0,0,0,0,0,0,0,0,0,0,0,0,0,0,0,0,0,0,0,0,0,0,0,0,0,0,0,0,0,0,0,0,0,0,0,0,0,0,0,
0,0,0,0,0,0,0,0,0,0,0,0,0,0,0,0,0,0,0,0,0,0,0,0,0,0,0,0,0,0,0,0,0,0,0,0,0,0,0,0,0,0,0,0,0,0,0,0,0,0,0,0,0,0,0,0,0,0,0,0,
0,0,0,0,0,0,0,0,0,0,0,0,0,0,0,0,0,0,0,0,0,0,0,0,0,0,0,0,0,0,0,0,0,0,0,0,0,0,0,0,0,0,0,0,0,0,0,0,0,0,0,0,0,0,0,0,0,0,0,0
</data>
 </layer>
 <layer id="1" name="Tile Layer 1" width="60" height="60">
  <data encoding="csv">
0,0,0,0,0,0,0,0,0,0,0,0,0,0,0,0,0,0,0,0,0,0,0,0,0,0,0,0,0,0,0,0,0,0,0,0,0,0,0,0,0,0,0,0,0,0,0,0,0,0,0,0,0,0,0,0,0,0,0,0,
0,0,0,0,0,0,0,0,0,0,0,0,0,0,0,0,0,0,0,0,0,0,0,0,0,0,0,0,0,0,0,0,0,0,0,0,0,0,0,0,0,0,0,0,0,0,0,0,0,0,0,0,0,0,0,0,0,0,0,0,
0,0,0,0,0,0,0,0,0,0,0,0,0,0,0,0,0,0,0,0,0,0,0,0,0,0,0,0,0,0,0,0,0,0,0,0,0,0,0,0,0,0,0,0,0,0,0,0,0,0,0,0,0,0,0,0,0,0,0,0,
0,0,0,0,0,0,0,0,0,0,0,0,0,0,0,0,0,0,0,0,0,0,0,0,0,0,0,0,0,0,0,0,0,0,0,0,0,0,0,0,0,0,0,0,0,0,0,0,0,0,0,0,0,0,0,0,0,0,0,0,
0,0,0,0,0,0,0,0,0,0,0,0,0,0,0,0,0,0,0,0,0,0,0,0,0,0,0,0,0,0,0,0,0,0,0,0,0,0,0,0,0,0,0,0,0,0,0,0,0,0,0,0,0,0,0,0,0,0,0,0,
0,0,0,0,0,0,0,0,0,0,0,0,0,0,0,0,0,0,0,0,0,0,0,0,0,0,0,0,0,0,0,0,0,0,0,0,0,0,0,0,0,0,0,0,0,0,0,0,0,0,0,0,0,0,0,0,0,0,0,0,
0,0,0,0,0,0,0,0,0,0,0,0,0,0,0,0,0,0,0,0,0,0,0,0,0,0,0,0,0,0,2684354657,2684354777,2684354753,2684354729,2684354777,2684354753,2684354729,2684354705,2684354681,2684354777,2684354753,2684354729,2684354705,2684354777,2684354753,2684354729,2684354777,2684354753,2684354729,2684354705,2684354681,2684354657,2684354705,2684354681,0,0,0,0,0,0,
0,0,0,0,0,0,0,0,0,0,0,0,0,0,0,0,0,0,0,0,0,0,0,0,0,0,0,0,0,97,98,2684354778,2684354754,2684354730,2684354778,2684354754,2684354730,2684354706,2684354682,2684354778,2684354754,2684354730,2684354706,2684354778,2684354754,2684354730,2684354778,2684354754,2684354730,2684354706,2684354682,2684354778,2684354706,2684354682,1610613062,0,0,0,0,0,
0,0,0,0,0,0,0,0,0,0,0,0,0,0,0,0,0,0,0,0,0,0,0,0,0,0,0,0,0,121,122,250,251,173,174,173,250,251,173,174,173,250,251,173,174,173,250,251,173,174,173,250,251,174,1610613061,0,0,0,0,0,
0,0,0,0,0,0,0,0,0,0,0,0,0,0,0,0,0,0,0,0,0,0,0,0,0,0,0,0,0,145,146,274,275,174,174,173,274,275,173,174,197,274,275,174,174,197,274,275,174,174,173,274,275,198,1610613060,0,0,0,0,0,
0,0,0,0,0,0,0,0,0,0,0,0,0,0,0,0,0,0,0,0,0,0,0,0,0,0,0,0,0,169,170,173,174,173,173,173,197,197,173,174,173,173,173,173,173,173,173,173,197,197,173,174,173,174,1610613059,0,0,0,0,0,
0,0,0,0,0,0,0,0,0,0,0,0,0,0,0,0,0,0,0,0,0,0,0,0,0,0,0,0,0,193,194,173,174,173,197,173,197,198,173,174,197,197,197,197,197,197,197,197,197,173,173,174,173,174,1610613059,0,0,0,0,0,
0,0,0,0,0,0,0,0,0,0,0,0,0,0,0,0,0,0,0,0,0,0,0,0,0,0,0,0,0,217,218,173,174,173,197,173,197,198,173,174,173,173,173,173,173,173,173,173,173,174,173,198,173,174,1610613059,0,0,0,0,0,
0,0,0,0,0,0,0,0,0,0,0,0,0,0,0,0,0,0,0,0,0,0,0,0,0,0,0,0,0,121,122,250,251,173,174,197,250,251,174,174,197,250,251,173,174,197,250,251,173,174,173,250,251,174,1610613062,0,0,0,0,0,
0,0,0,0,0,0,0,0,0,0,0,0,0,0,0,0,0,0,0,0,0,0,0,0,0,0,0,0,0,145,146,274,275,174,174,197,274,275,173,174,174,274,275,174,174,174,274,275,174,174,173,274,275,174,1610613061,0,0,0,0,0,
0,0,0,0,0,0,0,0,0,0,0,0,0,0,0,0,0,0,0,0,0,0,0,0,0,0,0,0,0,169,170,197,198,197,198,197,198,197,174,174,174,173,174,174,174,198,198,198,174,174,173,173,173,174,1610613060,0,0,0,0,0,
0,0,0,0,0,0,0,0,0,0,0,0,0,0,0,0,0,0,0,0,0,0,0,0,0,0,0,0,0,193,194,197,198,197,198,197,198,197,198,173,173,174,174,198,198,174,173,173,173,174,173,173,173,174,1610613059,0,0,0,0,0,
0,0,0,0,0,0,0,0,0,0,0,0,0,0,0,0,0,0,0,0,0,0,0,0,0,0,0,0,0,217,218,197,198,197,198,197,198,197,198,173,173,174,198,197,198,198,174,174,174,174,173,173,173,174,1610613059,0,0,0,0,0,
0,0,0,0,0,0,0,0,0,0,0,0,0,0,0,0,0,0,0,0,0,0,0,0,0,0,0,0,0,169,170,250,251,173,174,197,250,251,173,174,197,250,251,173,174,173,250,251,173,174,173,250,251,174,1610613059,0,0,0,0,0,
0,0,0,0,0,0,0,0,0,0,0,0,0,0,0,0,0,0,0,0,0,0,0,0,0,0,0,0,0,193,194,274,275,174,174,174,274,275,174,174,197,274,275,174,174,197,274,275,174,174,173,274,275,174,1610613059,0,0,0,0,0,
0,0,0,0,0,0,0,0,0,0,0,0,0,0,0,0,0,0,0,0,0,0,0,0,0,0,0,0,0,217,218,197,198,197,198,174,173,197,198,197,173,173,197,197,173,173,174,174,198,173,173,198,173,174,1610613059,0,0,0,0,0,
0,0,0,0,0,0,0,0,0,0,0,0,0,0,0,0,0,0,0,0,0,0,0,0,0,0,0,0,0,169,170,197,198,197,198,174,173,197,198,197,173,197,197,173,174,173,174,198,173,174,173,174,173,174,1610613059,0,0,0,0,0,
0,0,0,0,0,0,0,0,0,0,0,0,0,0,0,0,0,0,0,0,0,0,0,0,0,0,0,0,0,193,194,197,198,197,198,174,173,197,198,197,173,197,198,173,174,173,174,173,173,174,173,174,173,174,1610613062,0,0,0,0,0,
0,0,0,0,0,0,0,0,0,0,0,0,0,0,0,0,0,0,0,0,0,0,0,0,0,0,0,0,0,217,218,250,251,173,174,174,250,251,173,174,197,250,251,173,174,173,250,251,173,174,173,250,251,174,1610613061,0,0,0,0,0,
0,0,0,0,0,0,0,0,0,0,0,0,0,0,0,0,0,0,0,0,0,0,0,0,0,0,0,0,0,97,218,274,275,174,174,174,274,275,174,174,198,274,275,174,174,173,274,275,174,174,173,274,275,174,1610613060,0,0,0,0,0,
0,0,0,0,0,0,0,0,0,0,0,0,0,0,0,0,0,0,0,0,0,0,0,0,0,0,0,0,0,121,122,173,174,174,174,174,173,197,198,174,173,197,173,173,174,174,174,198,198,197,173,174,173,174,1610613059,0,0,0,0,0,
0,0,0,0,0,0,0,0,0,0,0,0,0,0,0,0,0,0,0,0,0,0,0,0,0,0,0,0,0,145,146,173,174,174,174,174,173,197,198,173,197,173,197,197,198,198,198,173,173,197,173,174,173,174,1610613062,0,0,0,0,0,
0,0,0,0,0,0,0,0,0,0,0,0,0,0,0,0,0,0,0,0,0,0,0,0,0,0,0,0,0,169,170,173,174,174,174,174,173,174,173,197,173,197,197,173,173,173,197,173,174,197,173,174,173,174,1610613061,0,0,0,0,0,
0,0,0,0,0,0,0,0,0,0,0,0,0,0,0,0,0,0,0,0,0,0,0,0,0,0,0,0,0,193,194,250,251,174,174,198,250,251,173,174,197,250,251,173,174,197,250,251,173,174,173,250,251,174,1610613060,0,0,0,0,0,
0,0,0,0,0,0,0,0,0,0,0,0,0,0,0,0,0,0,0,0,0,0,0,0,0,0,0,0,0,217,218,274,275,174,174,198,274,275,174,174,197,274,275,174,174,174,274,275,174,174,173,274,275,174,1610613059,0,0,0,0,0,
0,0,0,0,0,0,0,0,0,0,0,0,0,0,0,0,0,0,0,0,0,0,0,0,0,0,0,0,0,0,173,197,173,173,173,197,173,173,173,197,198,174,197,173,173,173,173,173,173,197,198,174,173,174,1610613059,0,0,0,0,0,
0,0,0,0,0,0,0,0,0,0,0,0,0,0,0,0,0,0,0,0,0,0,0,0,0,0,0,0,0,0,197,198,197,197,197,173,197,173,197,197,198,198,173,173,173,173,173,173,173,173,173,173,173,174,1610613059,0,0,0,0,0,
0,0,0,0,0,0,0,0,0,0,0,0,0,0,0,0,0,0,0,0,0,0,0,0,0,0,0,0,0,0,197,198,173,173,174,174,197,197,197,198,197,198,173,174,174,174,250,251,174,174,173,250,251,174,1610613059,0,0,0,0,0,
0,0,0,0,0,0,0,0,0,0,0,0,0,0,0,0,0,0,0,0,0,0,3221225795,0,0,0,3221225798,3221225797,3221225796,3221225795,173,197,197,173,173,173,197,197,198,197,197,198,173,173,174,198,274,275,198,198,198,274,275,198,1610613059,0,0,0,0,0,
0,0,0,0,0,0,0,0,0,0,0,0,0,0,0,0,0,0,0,0,0,0,1610613062,173,173,174,86,83,86,83,197,197,198,197,197,197,197,198,198,173,174,198,197,173,173,173,174,3221225798,3221225797,3221225796,3221225795,3221225797,3221225796,3221225795,1610613059,0,0,0,0,0,
0,0,0,0,0,0,0,0,0,0,0,0,0,0,0,0,0,0,0,0,0,0,1610613062,197,173,174,173,174,173,174,197,198,174,174,174,174,174,174,174,174,174,197,197,197,197,173,174,1610613062,0,0,0,0,0,0,0,0,0,0,0,0,
0,0,0,0,0,0,0,0,0,0,0,0,0,0,0,0,0,0,0,0,0,0,1610613062,173,173,174,197,198,173,174,197,198,198,198,198,198,198,198,198,198,198,174,197,198,198,173,174,1610613061,0,0,0,0,0,0,0,0,0,0,0,0,
0,0,0,0,0,0,0,0,0,0,0,0,0,0,0,0,0,0,0,0,0,0,0,173,173,174,197,198,173,174,197,197,197,197,197,197,197,197,197,197,198,198,198,197,198,173,174,0,0,0,0,0,0,0,0,0,0,0,0,0,
0,0,0,0,0,0,0,0,0,0,0,0,0,0,0,0,0,0,0,0,0,0,0,173,173,174,197,198,173,174,197,105,198,198,173,173,173,197,198,198,198,197,198,197,198,173,174,0,0,0,0,0,0,0,0,0,0,0,0,0,
0,0,0,0,0,0,0,0,0,0,0,0,0,0,0,0,0,0,0,0,0,0,0,197,173,174,197,198,173,173,173,129,197,197,250,251,197,197,197,250,251,174,198,197,198,173,174,0,0,0,0,0,0,0,0,0,0,0,0,0,
0,0,0,0,0,0,0,0,0,0,0,0,0,0,0,0,0,0,0,0,0,0,1610613062,197,173,174,197,198,173,197,197,197,198,174,274,275,174,198,198,274,275,198,198,173,173,174,174,1610613061,0,0,0,0,0,0,0,0,0,0,0,0,
0,0,0,0,0,0,0,0,0,0,0,0,0,0,0,0,0,0,0,0,0,0,1610613062,197,173,174,197,198,173,197,198,198,198,198,198,198,198,173,197,197,197,198,198,197,197,198,198,1610613060,0,0,0,0,0,0,0,0,0,0,0,0,
0,0,0,0,0,0,0,0,0,0,0,0,0,0,0,0,0,0,0,0,0,0,1610613062,197,173,174,197,173,197,197,197,197,197,173,173,173,197,197,197,198,198,197,198,197,198,173,174,1610613059,0,0,0,0,0,0,0,0,0,0,0,0,
0,0,0,0,0,0,0,0,0,0,0,0,0,0,0,0,0,0,0,0,0,0,0,197,173,174,197,197,198,174,174,174,174,197,250,251,198,198,198,250,251,174,198,197,198,173,174,0,0,0,0,0,0,0,0,0,0,0,0,0,
0,0,0,0,0,0,0,0,0,0,0,0,0,0,0,0,0,0,0,0,0,0,0,197,173,174,197,197,198,198,198,105,198,198,274,275,173,173,173,274,275,198,198,197,198,173,174,0,0,0,0,0,0,0,0,0,0,0,0,0,
0,0,0,0,0,0,0,0,0,0,0,0,0,0,0,0,0,0,0,0,0,0,0,197,173,174,197,198,173,174,197,129,197,197,173,173,197,197,197,173,197,198,198,197,198,173,174,0,0,0,0,0,0,0,0,0,0,0,0,0,
0,0,0,0,0,0,0,0,0,0,0,0,0,0,0,0,0,0,0,0,0,0,0,197,173,174,197,198,173,173,173,173,173,173,173,173,173,173,173,173,173,197,198,197,198,197,198,0,0,0,0,0,0,0,0,0,0,0,0,0,
0,0,0,0,0,0,0,0,0,0,0,0,0,0,0,0,0,0,0,0,0,0,0,197,173,174,197,198,197,197,197,197,197,197,250,251,197,197,197,250,251,197,198,197,198,198,198,0,0,0,0,0,0,0,0,0,0,0,0,0,
0,0,0,0,0,0,0,0,0,0,0,0,0,0,0,0,0,0,0,0,0,0,1610613062,197,173,174,197,198,198,174,174,174,174,174,274,275,174,174,174,274,275,197,198,197,198,197,198,1610613059,0,0,0,0,0,0,0,0,0,0,0,0,
0,0,0,0,0,0,0,0,0,0,0,0,0,0,0,0,0,0,0,0,0,0,1610613062,197,173,174,173,197,198,198,198,198,198,198,197,197,197,197,197,197,197,197,173,197,198,174,198,1610613059,0,0,0,0,0,0,0,0,0,0,0,0,
0,0,0,0,0,0,0,0,0,0,0,0,0,0,0,0,0,0,0,0,0,0,173,197,173,174,197,197,197,197,197,173,197,173,173,173,173,173,173,173,197,197,197,197,197,198,198,1610613062,0,0,0,0,0,0,0,0,0,0,0,0,
0,0,0,0,0,0,0,0,0,0,0,0,0,0,0,0,0,0,0,0,0,0,173,173,173,173,173,173,173,197,197,197,197,197,173,197,197,197,197,197,198,173,173,173,173,197,198,1610613061,0,0,0,0,0,0,0,0,0,0,0,0,
0,0,0,0,0,0,0,0,0,0,0,0,0,0,0,0,0,0,0,0,0,0,197,197,197,197,197,197,197,197,198,197,197,197,197,197,198,197,197,197,197,197,197,197,197,197,198,1610613060,0,0,0,0,0,0,0,0,0,0,0,0,
0,0,0,0,0,0,0,0,0,0,0,0,0,0,0,0,0,0,0,0,0,0,3221225796,3221225795,0,0,3221225798,3221225798,3221225798,3221225798,3221225797,3221225796,3221225795,3221225797,3221225796,3221225795,3221225795,3221225795,3221225795,3221225795,3221225795,3221225795,3221225795,3221225795,3221225795,3221225795,3221225795,1610613059,0,0,0,0,0,0,0,0,0,0,0,0,
0,0,0,0,0,0,0,0,0,0,0,0,0,0,0,0,0,0,0,0,0,0,0,0,0,0,0,0,0,0,0,0,0,0,0,0,0,0,0,0,0,0,0,0,0,0,0,0,0,0,0,0,0,0,0,0,0,0,0,0,
0,0,0,0,0,0,0,0,0,0,0,0,0,0,0,0,0,0,0,0,0,0,0,0,0,0,0,0,0,0,0,0,0,0,0,0,0,0,0,0,0,0,0,0,0,0,0,0,0,0,0,0,0,0,0,0,0,0,0,0,
0,0,0,0,0,0,0,0,0,0,0,0,0,0,0,0,0,0,0,0,0,0,0,0,0,0,0,0,0,0,0,0,0,0,0,0,0,0,0,0,0,0,0,0,0,0,0,0,0,0,0,0,0,0,0,0,0,0,0,0,
0,0,0,0,0,0,0,0,0,0,0,0,0,0,0,0,0,0,0,0,0,0,0,0,0,0,0,0,0,0,0,0,0,0,0,0,0,0,0,0,0,0,0,0,0,0,0,0,0,0,0,0,0,0,0,0,0,0,0,0,
0,0,0,0,0,0,0,0,0,0,0,0,0,0,0,0,0,0,0,0,0,0,0,0,0,0,0,0,0,0,0,0,0,0,0,0,0,0,0,0,0,0,0,0,0,0,0,0,0,0,0,0,0,0,0,0,0,0,0,0,
0,0,0,0,0,0,0,0,0,0,0,0,0,0,0,0,0,0,0,0,0,0,0,0,0,0,0,0,0,0,0,0,0,0,0,0,0,0,0,0,0,0,0,0,0,0,0,0,0,0,0,0,0,0,0,0,0,0,0,0
</data>
 </layer>
 <objectgroup id="3" name="PlayerSpawns">
  <object id="1" name="PlayerSpawn_from_CDSFront" x="1592" y="3344">
   <point/>
  </object>
  <object id="2" name="PlayerSpawn_from_CDSBack" x="2048" y="2076">
   <point/>
  </object>
 </objectgroup>
 <objectgroup id="4" name="SceneTransitions">
  <object id="3" name="CDSInsideFront_to_CDSFront" x="1517.33" y="3377.33" width="168" height="88"/>
  <object id="4" name="CDSInsideBack_to_CDSBack" x="1454" y="2152" width="232" height="76"/>
  <object id="5" name="CDSInsideBack_to_CDSBack" x="1870" y="1892" width="94" height="274"/>
 </objectgroup>
 <objectgroup id="5" name="NPCs">
  <object id="6" name="Shopkeeper" type="NPC" x="1445.94" y="2483.52" width="103.03" height="79.9997">
   <properties>
    <property name="dialogue" value="Shopkeeper_intro"/>
    <property name="idleAnimation" type="bool" value="false"/>
    <property name="interactable" type="bool" value="false"/>
    <property name="interactionRange" type="float" value="100"/>
    <property name="model" value="Male13_Right"/>
    <property name="name" value="Shopkeeper"/>
    <property name="quest" value="Quest1"/>
   </properties>
  </object>
  <object id="9" name="Tanvir" type="NPC" x="2394.36" y="2642.85" width="78.6667" height="70">
   <properties>
    <property name="dialogue" value="intruder_npc_124"/>
    <property name="interactionRange" type="float" value="150"/>
    <property name="model" value="Male02_Forward"/>
    <property name="name" value="Tanvir"/>
    <property name="quest" value="Quest3"/>
   </properties>
  </object>
  <object id="10" name="Farhan" type="NPC" x="2455.69" y="2678.15" width="78.6667" height="70">
   <properties>
    <property name="dialogue" value="intruder_npc_208"/>
    <property name="interactionRange" type="float" value="150"/>
    <property name="model" value="Male07_Forward"/>
    <property name="name" value="Farhan"/>
    <property name="quest" value="Quest3"/>
   </properties>
  </object>
  <object id="11" name="Shadman" type="NPC" x="2260.33" y="741.848" width="78.6667" height="70">
   <properties>
    <property name="dialogue" value="intruder_npc_137"/>
    <property name="interactionRange" type="float" value="100"/>
    <property name="model" value="Male09_Left"/>
    <property name="name" value="Shadman"/>
    <property name="quest" value="Quest3"/>
   </properties>
  </object>
  <object id="14" name="Nafis" type="NPC" x="2129.82" y="753.727" width="78.6667" height="70">
   <properties>
    <property name="dialogue" value="intruder_npc_422"/>
    <property name="interactionRange" type="float" value="150"/>
    <property name="model" value="Male12_Right"/>
    <property name="name" value="Nafis"/>
    <property name="quest" value="Quest3"/>
   </properties>
  </object>
  <object id="15" name="Aayan" type="NPC" x="2839.03" y="1926.97" width="78.6667" height="70">
   <properties>
    <property name="dialogue" value="intruder_npc_316"/>
    <property name="interactionRange" type="float" value="150"/>
    <property name="model" value="Male05_Forward"/>
    <property name="name" value="Aayan"/>
    <property name="quest" value="Quest3"/>
   </properties>
  </object>
  <object id="16" name="Sami" type="NPC" x="2876.91" y="1966.45" width="78.6667" height="70">
   <properties>
    <property name="dialogue" value="intruder_npc_276"/>
    <property name="interactionRange" type="float" value="150"/>
    <property name="model" value="Male08_Left"/>
    <property name="name" value="Sami"/>
    <property name="quest" value="Quest3"/>
   </properties>
  </object>
  <object id="17" name="Kazi" type="NPC" x="2193.76" y="702.697" width="78.6667" height="70">
   <properties>
    <property name="dialogue" value="intruder_npc_151"/>
    <property name="interactionRange" type="float" value="100"/>
    <property name="model" value="Male04_Forward"/>
    <property name="name" value="Kazi"/>
    <property name="quest" value="Quest3"/>
   </properties>
  </object>
  <object id="18" name="Adnan" type="NPC" x="2407.91" y="2746.52" width="78.6667" height="70">
   <properties>
    <property name="dialogue" value="intruder_npc_167"/>
    <property name="interactionRange" type="float" value="150"/>
    <property name="model" value="Male03_Backward"/>
    <property name="name" value="Adnan"/>
    <property name="quest" value="Quest3"/>
   </properties>
  </object>
  <object id="19" name="Fahim" type="NPC" x="2201.64" y="806.879" width="78.6667" height="70">
   <properties>
    <property name="dialogue" value="intruder_npc_189"/>
    <property name="interactionRange" type="float" value="150"/>
    <property name="model" value="Male06_Backward"/>
    <property name="name" value="Fahim"/>
    <property name="quest" value="Quest3"/>
   </properties>
  </object>
  <object id="20" name="Tariq" type="NPC" x="2782.82" y="1982.94" width="78.6667" height="70">
   <properties>
    <property name="dialogue" value="intruder_npc_205"/>
    <property name="interactionRange" type="float" value="150"/>
    <property name="model" value="Male11_Right"/>
    <property name="name" value="Tariq"/>
    <property name="quest" value="Quest3"/>
   </properties>
  </object>
  <object id="31" type="NPC" x="3071.73" y="1310.24" width="62.6667" height="77.3333">
   <properties>
    <property name="model" value="Female07_Right"/>
   </properties>
  </object>
  <object id="36" type="NPC" x="3128.06" y="1246.91" width="62.6667" height="77.3333">
   <properties>
    <property name="model" value="Female10_Forward"/>
   </properties>
  </object>
  <object id="37" type="NPC" x="3093.39" y="1382.91" width="62.6667" height="77.3333">
   <properties>
    <property name="model" value="Female09_Backward"/>
   </properties>
  </object>
  <object id="38" type="NPC" x="3160.06" y="1394.24" width="62.6667" height="77.3333">
   <properties>
    <property name="model" value="Female08_Backward"/>
   </properties>
  </object>
  <object id="39" type="NPC" x="3185.73" y="1314.24" width="62.6667" height="77.3333">
   <properties>
    <property name="model" value="Female11_Left"/>
   </properties>
  </object>
  <object id="41" type="NPC" x="2196.67" y="2150" width="62.6667" height="77.3333">
   <properties>
    <property name="model" value="Female03_Right"/>
   </properties>
  </object>
  <object id="42" type="NPC" x="2248" y="2111.67" width="62.6667" height="77.3333">
   <properties>
    <property name="model" value="Female02_Forward"/>
   </properties>
  </object>
  <object id="43" type="NPC" x="2194.33" y="2226.67" width="62.6667" height="77.3333">
   <properties>
    <property name="model" value="Male09_Right"/>
   </properties>
  </object>
  <object id="44" type="NPC" x="2265" y="2248.67" width="62.6667" height="77.3333">
   <properties>
    <property name="model" value="Male06_Backward"/>
   </properties>
  </object>
  <object id="45" type="NPC" x="2303.67" y="2118.01" width="62.6667" height="77.3333">
   <properties>
    <property name="model" value="Male10_Left"/>
   </properties>
  </object>
  <object id="46" type="NPC" x="2328.67" y="2180" width="62.6667" height="77.3333">
   <properties>
    <property name="model" value="Female12_Left"/>
   </properties>
  </object>
  <object id="47" type="NPC" x="2813.33" y="611.333" width="78.6667" height="88">
   <properties>
    <property name="model" value="Male04_Right"/>
   </properties>
  </object>
  <object id="49" type="NPC" x="2882" y="614.667" width="78.6667" height="88">
   <properties>
    <property name="model" value="Female04_Left"/>
   </properties>
  </object>
  <object id="50" type="NPC" x="1627.39" y="3327.76" width="127.273" height="93.9394">
   <properties>
    <property name="model" value="Male03_Backward"/>
   </properties>
  </object>
  <object id="52" type="NPC" x="1820.36" y="3129.03" width="127.273" height="93.9394">
   <properties>
    <property name="model" value="Female11_Right"/>
   </properties>
  </object>
  <object id="53" type="NPC" x="1593.7" y="2245.7" width="127.273" height="93.9394">
   <properties>
    <property name="model" value="Female10_Left"/>
   </properties>
  </object>
  <object id="54" type="NPC" x="1966.36" y="1939.03" width="127.273" height="93.9394">
   <properties>
    <property name="model" value="Male11_Right"/>
   </properties>
  </object>
 </objectgroup>
 <objectgroup id="7" name="Collision">
  <object id="21" x="1412" y="3450" width="1608.06" height="62"/>
  <object id="22" x="3012.12" y="2212.12" width="48.4848" height="1260.61"/>
  <object id="23" x="3016" y="2216" width="466" height="82"/>
  <object id="24" x="3458" y="388" width="62" height="1878"/>
  <object id="25" x="1905.33" y="379.758" width="1558.27" height="74.7273"/>
  <object id="26" x="1854.55" y="433.333" width="76.7273" height="1478.3"/>
  <object id="27" x="1848" y="1885.33" width="70.6667" height="310.667"/>
  <object id="28" x="1385.33" y="2110.67" width="341.333" height="49.3333"/>
  <object id="29" x="1665.33" y="2173.33" width="254.667" height="28"/>
  <object id="30" x="1397.33" y="2161.33" width="33.3333" height="1310.67"/>
 </objectgroup>
</map>
