<?xml version="1.0" encoding="UTF-8"?>
<map version="1.10" tiledversion="1.12.2" orientation="orthogonal" renderorder="right-down" width="30" height="15" tilewidth="64" tileheight="64" infinite="1" nextlayerid="3" nextobjectid="1">
 <tileset firstgid="1" name="roads" tilewidth="64" tileheight="64" tilecount="384" columns="24">
  <image source="../tilesets/roads.png" width="1536" height="1024"/>
 </tileset>
 <tileset firstgid="385" name="grassWaterV1" tilewidth="64" tileheight="64" tilecount="0" columns="24">
  <image source="../grassWaterV1.png" width="1536" height="1024"/>
 </tileset>
 <tileset firstgid="385" name="GrassAgain" tilewidth="64" tileheight="64" tilecount="384" columns="24">
  <image source="../tilesets/grassAgain.jfif" width="1536" height="1024"/>
 </tileset>
 <layer id="2" name="Grass" width="30" height="15">
  <data encoding="csv">
   <chunk x="-1376" y="-32" width="16" height="16">
0,0,0,0,0,0,0,0,0,0,0,0,0,0,0,0,
0,0,0,0,0,0,0,0,0,0,0,0,0,0,0,0,
0,0,0,0,0,0,0,0,0,0,0,0,0,0,0,0,
0,0,0,0,0,0,0,0,0,0,0,0,0,0,0,0,
0,0,0,0,0,0,0,0,0,0,0,0,0,0,0,0,
0,0,0,0,0,0,0,0,0,0,0,0,0,574,578,561,
0,0,0,0,0,0,0,0,0,0,0,0,0,554,578,595,
0,0,0,0,0,0,0,0,0,0,0,0,0,586,562,561,
0,0,0,0,0,0,0,0,0,0,0,0,0,598,572,599,
0,0,0,0,0,0,0,0,0,0,0,0,0,588,592,578,
0,0,0,0,0,0,0,0,0,0,0,0,0,561,564,572,
0,0,0,0,0,0,0,0,0,0,0,0,0,578,582,558,
0,0,0,0,0,0,0,0,0,0,0,0,0,575,581,557,
0,0,0,0,0,0,0,0,0,0,0,0,0,589,588,592,
0,0,0,0,0,0,0,0,0,0,0,0,0,598,565,598,
0,0,0,0,0,0,0,0,0,0,0,0,0,562,589,581
</chunk>
   <chunk x="-1360" y="-32" width="16" height="16">
0,0,0,0,0,0,0,0,0,0,0,0,0,0,0,0,
0,0,0,0,0,0,0,0,0,0,0,0,0,0,0,0,
0,0,0,0,0,0,0,0,0,0,0,0,0,0,0,0,
0,0,0,0,0,0,0,0,0,0,0,0,0,0,0,0,
0,0,0,0,0,0,0,0,0,0,0,0,0,0,0,0,
561,596,558,571,588,571,588,568,571,585,586,554,598,571,568,558,
598,585,565,596,599,585,598,555,564,562,555,574,562,568,562,554,
592,596,586,568,585,554,557,554,599,592,578,564,561,557,561,571,
561,572,555,588,574,564,572,589,598,598,581,564,589,555,586,598,
555,588,581,555,582,574,588,554,585,596,575,555,564,598,579,564,
555,565,585,555,586,561,582,562,565,554,557,588,579,589,599,579,
578,586,588,564,564,588,562,575,579,589,557,568,558,586,589,592,
582,595,565,558,579,558,564,564,578,581,562,595,561,568,574,574,
564,574,579,561,557,575,558,572,571,554,575,588,585,598,572,585,
558,581,572,586,585,571,598,557,575,592,575,585,599,589,572,564,
588,565,564,568,558,557,599,554,558,596,585,558,585,565,582,581
</chunk>
   <chunk x="-1344" y="-32" width="16" height="16">
0,0,0,0,0,0,0,0,0,0,0,0,0,0,0,0,
0,0,0,0,0,0,0,0,0,0,0,0,0,0,0,0,
0,0,0,0,0,0,0,0,0,0,0,0,0,0,0,0,
0,0,0,0,0,0,0,0,0,0,0,0,0,0,0,0,
0,0,0,0,0,0,0,0,0,0,0,0,0,0,0,0,
568,557,561,595,562,579,562,585,595,599,586,554,589,599,574,574,
586,568,558,595,572,579,588,595,592,579,561,598,568,581,589,586,
554,598,586,554,564,589,555,568,579,596,596,589,586,557,557,558,
585,588,599,574,565,565,564,592,592,565,571,565,554,598,578,557,
574,562,562,562,588,599,575,564,582,578,557,595,582,555,558,582,
571,588,586,564,565,579,564,585,588,575,555,562,564,575,582,562,
571,561,582,598,564,581,595,557,592,579,589,568,579,564,592,555,
589,571,578,558,599,586,589,557,571,585,572,572,588,558,575,586,
585,564,572,554,568,588,599,582,571,557,586,578,565,579,554,588,
568,557,561,586,557,557,564,589,585,579,575,572,598,586,592,574,
555,557,575,572,575,565,595,571,571,588,571,579,562,595,557,581
</chunk>
   <chunk x="-1328" y="-32" width="16" height="16">
0,0,0,0,0,0,0,0,0,0,0,0,0,0,0,0,
0,0,0,0,0,0,0,0,0,0,0,0,0,0,0,0,
0,0,0,0,0,0,0,0,0,0,0,0,0,0,0,0,
0,0,0,0,0,0,0,0,0,0,0,0,0,0,0,0,
0,0,0,0,0,0,0,0,0,0,0,0,0,0,0,0,
596,579,578,595,592,568,578,555,558,574,586,575,562,578,571,595,
578,554,558,579,574,581,592,585,558,579,599,558,586,561,582,562,
558,596,586,574,585,564,586,554,565,564,592,599,599,582,557,574,
599,564,574,592,558,562,582,562,592,581,599,561,565,554,581,599,
558,586,596,574,598,574,571,582,589,571,586,592,578,562,579,585,
588,581,586,558,554,595,588,574,585,562,571,571,585,558,598,578,
592,578,564,582,592,585,574,571,582,581,582,554,578,555,595,564,
574,571,585,586,561,579,598,571,579,579,571,555,562,592,555,588,
589,571,581,574,599,596,596,568,565,554,586,592,579,588,581,598,
571,592,555,589,592,598,568,599,596,561,598,555,557,589,555,589,
598,596,558,599,572,581,599,574,585,555,571,592,595,589,575,561
</chunk>
   <chunk x="-1312" y="-32" width="16" height="16">
0,0,0,0,0,0,0,0,0,0,0,0,0,0,0,0,
0,0,0,0,0,0,0,0,0,0,0,0,0,0,0,0,
0,0,0,0,0,0,0,0,0,0,0,0,0,0,0,0,
0,0,0,0,0,0,0,0,0,0,0,0,0,0,0,0,
0,0,0,0,0,0,0,0,0,0,0,0,0,0,0,0,
562,598,578,575,579,596,558,554,579,588,565,574,586,596,581,599,
571,581,555,581,555,572,571,558,578,574,575,561,561,589,571,557,
568,557,578,585,599,586,571,557,589,578,574,578,598,588,565,561,
589,575,592,598,599,598,562,582,561,564,582,595,598,565,579,599,
574,572,599,571,575,599,568,565,581,581,562,585,565,585,575,568,
586,574,571,578,595,598,588,589,568,564,596,558,599,555,572,581,
582,554,561,558,555,586,565,581,585,574,592,555,581,585,568,585,
578,564,572,592,592,572,574,596,562,589,562,585,564,575,565,564,
582,592,557,565,571,592,592,578,571,589,555,554,592,598,598,599,
564,558,554,571,572,596,555,575,574,562,581,561,592,596,564,564,
596,586,561,564,578,592,592,578,585,571,586,595,595,578,564,568
</chunk>
   <chunk x="-1296" y="-32" width="16" height="16">
0,0,0,0,0,0,0,0,0,0,0,0,0,0,0,0,
0,0,0,0,0,0,0,0,0,0,0,0,0,0,0,0,
0,0,0,0,0,0,0,0,0,0,0,0,0,0,0,0,
0,0,0,0,0,0,0,0,0,0,0,0,0,0,0,0,
0,0,0,0,0,0,0,0,0,0,0,0,0,0,0,0,
554,568,592,565,585,558,588,554,595,568,586,575,585,599,568,568,
564,592,562,581,585,575,589,561,586,575,554,571,589,558,589,572,
581,562,571,578,598,561,598,592,595,568,555,564,565,561,581,568,
568,595,589,586,554,588,562,565,599,558,579,575,585,561,581,578,
568,561,572,592,585,579,561,589,588,557,568,575,555,581,596,558,
599,574,558,595,555,592,558,575,561,598,596,598,596,598,581,564,
578,565,592,581,586,554,568,598,579,595,578,588,598,588,558,562,
561,571,572,589,578,554,572,592,562,554,595,557,561,568,585,555,
575,575,558,582,578,582,557,582,578,596,555,557,562,572,588,586,
562,595,562,555,565,585,557,596,599,575,557,557,599,574,575,557,
555,588,558,568,574,571,571,598,596,572,598,585,585,564,599,586
</chunk>
   <chunk x="-1280" y="-32" width="16" height="16">
0,0,0,0,0,0,0,0,0,0,0,0,0,0,0,0,
0,0,0,0,0,0,0,0,0,0,0,0,0,0,0,0,
0,0,0,0,0,0,0,0,0,0,0,0,0,0,0,0,
0,0,0,0,0,0,0,0,0,0,0,0,0,0,0,0,
0,0,0,0,0,0,0,0,0,0,0,0,0,0,0,0,
589,574,562,582,555,588,571,555,586,561,574,555,557,585,582,578,
561,554,592,586,595,578,598,554,598,555,554,581,565,585,592,555,
598,578,571,582,599,558,558,585,596,568,557,589,557,578,599,564,
596,589,568,588,579,589,564,568,585,588,585,554,561,585,568,589,
565,565,562,555,557,572,575,596,598,598,582,562,588,581,558,595,
575,595,558,558,568,578,581,555,554,588,589,596,581,589,585,561,
557,554,575,589,561,598,557,592,595,568,598,595,582,595,586,589,
562,596,588,554,595,561,568,562,578,574,592,582,599,592,585,595,
568,581,572,565,586,586,589,596,568,588,564,574,572,595,596,579,
568,596,554,596,585,554,562,579,585,557,572,598,598,562,599,575,
596,589,581,599,574,574,558,555,564,589,562,554,585,561,586,581
</chunk>
   <chunk x="-1264" y="-32" width="16" height="16">
0,0,0,0,0,0,0,0,0,0,0,0,0,0,0,0,
0,0,0,0,0,0,0,0,0,0,0,0,0,0,0,0,
0,0,0,0,0,0,0,0,0,0,0,0,0,0,0,0,
0,0,0,0,0,0,0,0,0,0,0,0,0,0,0,0,
0,0,0,0,0,0,0,0,0,0,0,0,0,0,0,0,
558,592,557,575,561,578,586,572,554,589,581,596,582,578,578,564,
558,585,582,562,589,565,595,579,578,564,585,599,561,598,558,586,
588,579,557,585,585,598,595,598,565,561,568,564,586,585,581,585,
558,558,578,571,579,564,589,565,575,586,562,565,561,596,558,574,
581,596,599,554,574,571,562,582,596,571,599,598,579,571,561,571,
595,579,564,596,589,596,588,561,585,579,571,555,578,586,561,582,
557,589,554,585,578,554,557,599,558,574,582,579,592,588,579,568,
575,554,557,579,595,599,568,579,595,582,568,555,565,574,557,574,
557,562,579,579,585,588,595,557,579,554,598,568,575,588,592,555,
581,592,562,562,574,581,592,555,592,564,572,571,562,555,596,557,
599,581,575,596,568,564,568,582,568,574,585,578,564,585,578,599
</chunk>
   <chunk x="-1248" y="-32" width="16" height="16">
0,0,0,0,0,0,0,0,0,0,0,0,0,0,0,0,
0,0,0,0,0,0,0,0,0,0,0,0,0,0,0,0,
0,0,0,0,0,0,0,0,0,0,0,0,0,0,0,0,
0,0,0,0,0,0,0,0,0,0,0,0,0,0,0,0,
0,0,0,0,0,0,0,0,0,0,0,0,0,0,0,0,
561,592,562,575,572,596,581,586,575,578,585,586,561,582,589,596,
561,557,555,596,571,592,554,575,592,554,586,564,554,565,574,578,
578,582,572,568,561,599,554,578,589,571,561,578,598,564,596,595,
565,599,588,568,572,574,579,586,592,561,596,596,568,575,579,554,
586,564,575,555,557,595,582,568,568,598,564,586,557,564,578,586,
555,596,589,562,598,564,557,579,595,565,575,598,562,574,592,571,
564,564,557,582,586,568,586,595,562,572,599,558,578,578,575,579,
586,581,568,574,571,586,557,557,554,564,581,565,571,564,575,586,
565,558,558,579,582,598,558,568,598,568,596,558,588,595,578,574,
565,585,579,598,586,572,588,561,555,582,554,564,558,595,585,579,
558,598,555,595,582,599,555,579,588,585,585,557,586,579,565,554
</chunk>
   <chunk x="-1232" y="-32" width="16" height="16">
0,0,0,0,0,0,0,0,0,0,0,0,0,0,0,0,
0,0,0,0,0,0,0,0,0,0,0,0,0,0,0,0,
0,0,0,0,0,0,0,0,0,0,0,0,0,0,0,0,
0,0,0,0,0,0,0,0,0,0,0,0,0,0,0,0,
0,0,0,0,0,0,0,0,0,0,0,0,0,0,0,0,
588,596,595,562,599,565,585,572,598,558,599,599,579,565,596,561,
568,589,564,562,586,582,581,592,558,585,555,582,595,555,599,561,
578,568,596,565,571,578,585,561,558,585,561,555,596,592,581,558,
564,592,565,578,558,572,578,579,585,574,561,568,578,588,586,571,
575,586,571,568,592,588,595,562,586,571,595,568,554,558,598,564,
595,554,562,572,571,562,579,574,581,555,564,555,572,564,558,588,
561,579,565,596,579,592,596,586,596,565,568,582,555,586,598,554,
561,561,571,558,568,589,599,588,578,581,598,568,581,557,571,571,
571,589,568,571,579,558,575,562,586,572,565,571,595,589,557,565,
575,571,586,572,579,586,555,554,578,579,555,555,589,558,575,599,
595,578,581,574,561,562,578,599,561,582,564,588,571,596,562,562
</chunk>
   <chunk x="-1216" y="-32" width="16" height="16">
0,0,0,0,0,0,0,0,0,0,0,0,0,0,0,0,
0,0,0,0,0,0,0,0,0,0,0,0,0,0,0,0,
0,0,0,0,0,0,0,0,0,0,0,0,0,0,0,0,
0,0,0,0,0,0,0,0,0,0,0,0,0,0,0,0,
0,0,0,0,0,0,0,0,0,0,0,0,0,0,0,0,
595,595,554,571,574,586,558,582,578,578,568,596,568,586,598,555,
568,586,574,561,592,586,554,565,579,599,599,581,574,592,578,564,
588,581,592,585,561,585,572,588,554,558,599,572,572,564,575,562,
599,571,586,555,574,575,561,575,599,575,581,599,581,579,592,579,
568,588,586,589,575,578,596,599,581,575,568,578,555,586,557,568,
564,599,557,588,572,592,572,582,595,581,561,561,578,585,575,586,
578,558,586,586,575,557,582,554,557,578,575,575,595,598,568,582,
558,586,555,582,571,572,571,589,586,554,554,565,592,572,558,575,
572,598,589,589,572,568,589,557,568,575,554,599,564,572,589,571,
585,599,585,568,562,562,595,592,571,578,582,586,575,586,596,557,
588,581,575,562,599,562,599,588,581,598,568,555,586,568,598,581
</chunk>
   <chunk x="-1200" y="-32" width="16" height="16">
0,0,0,0,0,0,0,0,0,0,0,0,0,0,0,0,
0,0,0,0,0,0,0,0,0,0,0,0,0,0,0,0,
0,0,0,0,0,0,0,0,0,0,0,0,0,0,0,0,
0,0,0,0,0,0,0,0,0,0,0,0,0,0,0,0,
0,0,0,0,0,0,0,0,0,0,0,0,0,0,0,0,
568,575,585,581,582,561,586,598,564,562,558,596,588,578,582,562,
555,585,565,572,572,599,562,579,589,557,586,558,599,564,568,572,
588,571,554,574,596,574,558,598,571,572,598,585,562,562,557,561,
578,589,582,596,562,558,562,586,568,568,572,592,557,585,574,598,
582,555,579,592,589,557,562,575,596,564,581,571,575,572,596,565,
595,586,555,596,595,586,575,562,586,565,564,592,578,599,558,557,
572,564,572,558,571,581,562,592,565,555,575,561,564,595,599,598,
572,571,598,574,578,557,596,582,586,554,579,578,561,586,574,565,
575,561,572,596,561,595,561,595,574,579,586,565,575,596,557,574,
558,598,589,589,557,599,565,595,579,579,578,578,582,589,586,554,
592,589,555,575,585,562,557,572,598,581,565,572,557,564,574,579
</chunk>
   <chunk x="-1184" y="-32" width="16" height="16">
0,0,0,0,0,0,0,0,0,0,0,0,0,0,0,0,
0,0,0,0,0,0,0,0,0,0,0,0,0,0,0,0,
0,0,0,0,0,0,0,0,0,0,0,0,0,0,0,0,
0,0,0,0,0,0,0,0,0,0,0,0,0,0,0,0,
0,0,0,0,0,0,0,0,0,0,0,0,0,0,0,0,
596,596,579,571,561,581,579,588,598,562,582,595,571,565,575,595,
588,557,578,568,564,574,596,568,562,572,568,599,598,578,554,574,
554,582,555,598,582,564,579,574,599,564,579,561,562,582,588,564,
579,557,596,554,578,585,571,572,582,557,568,564,574,582,572,562,
561,574,557,589,586,562,586,578,561,564,588,561,581,557,585,592,
589,596,581,598,564,554,561,589,589,585,561,555,589,588,562,555,
596,561,554,586,582,599,589,575,558,595,562,557,561,562,592,582,
586,575,592,571,589,572,565,557,599,562,588,572,557,565,565,599,
564,596,575,585,596,575,562,558,588,558,562,595,578,586,599,555,
588,558,572,572,561,598,555,589,585,592,555,598,579,581,565,595,
589,596,568,561,565,599,564,555,558,598,555,557,557,596,565,582
</chunk>
   <chunk x="-1168" y="-32" width="16" height="16">
0,0,0,0,0,0,0,0,0,0,0,0,0,0,0,0,
0,0,0,0,0,0,0,0,0,0,0,0,0,0,0,0,
0,0,0,0,0,0,0,0,0,0,0,0,0,0,0,0,
0,0,0,0,0,0,0,0,0,0,0,0,0,0,0,0,
0,0,0,0,0,0,0,0,0,0,0,0,0,0,0,0,
581,579,564,562,588,598,574,599,557,588,562,575,561,598,596,579,
598,585,572,557,565,562,578,575,595,561,574,558,561,572,558,558,
555,578,582,585,554,554,568,579,595,558,555,588,565,598,557,554,
599,595,562,581,561,554,574,595,565,575,579,562,564,565,578,585,
578,561,558,588,588,585,585,558,585,599,596,592,554,572,575,586,
599,568,589,561,596,578,585,562,578,574,571,595,589,596,582,598,
575,575,582,572,599,562,598,592,581,578,596,578,581,585,575,561,
575,586,599,554,596,558,574,574,582,572,557,599,574,586,585,599,
554,592,596,572,575,585,598,558,589,574,575,596,557,568,554,555,
554,582,574,586,554,565,586,557,572,599,565,575,595,592,568,564,
572,588,579,579,564,558,575,581,579,558,579,581,595,599,599,557
</chunk>
   <chunk x="-1152" y="-32" width="16" height="16">
0,0,0,0,0,0,0,0,0,0,0,0,0,0,0,0,
0,0,0,0,0,0,0,0,0,0,0,0,0,0,0,0,
0,0,0,0,0,0,0,0,0,0,0,0,0,0,0,0,
0,0,0,0,0,0,0,0,0,0,0,0,0,0,0,0,
0,0,0,0,0,0,0,0,0,0,0,0,0,0,0,0,
554,585,561,554,575,571,595,562,596,596,586,578,586,596,596,582,
595,595,568,599,582,575,561,588,578,568,579,558,572,586,554,588,
572,585,558,589,592,558,561,579,599,598,579,598,564,571,586,582,
586,588,589,555,557,574,561,572,572,574,572,564,585,565,589,581,
565,581,561,562,581,575,578,579,589,598,558,555,574,555,586,562,
568,565,568,565,585,595,557,571,581,571,579,558,562,589,598,554,
588,596,554,555,579,592,565,592,558,568,578,557,592,558,578,588,
557,581,564,579,554,588,554,574,561,586,599,561,564,555,574,557,
592,561,595,564,571,564,568,561,592,595,581,596,596,558,578,574,
574,581,589,558,595,565,592,554,586,575,565,575,585,575,588,564,
558,564,565,574,554,595,561,575,598,579,588,575,568,592,562,588
</chunk>
   <chunk x="-1136" y="-32" width="16" height="16">
0,0,0,0,0,0,0,0,0,0,0,0,0,0,0,0,
0,0,0,0,0,0,0,0,0,0,0,0,0,0,0,0,
0,0,0,0,0,0,0,0,0,0,0,0,0,0,0,0,
0,0,0,0,0,0,0,0,0,0,0,0,0,0,0,0,
0,0,0,0,0,0,0,0,0,0,0,0,0,0,0,0,
571,596,565,558,564,571,596,564,565,561,586,572,596,561,581,572,
585,574,596,588,588,596,596,598,554,585,581,558,589,582,561,554,
558,557,596,586,568,595,588,578,578,561,592,564,575,575,574,588,
555,561,579,558,575,582,592,599,596,568,582,562,564,582,574,574,
568,579,565,579,596,599,578,571,554,564,586,561,554,561,575,589,
571,598,572,565,572,596,572,581,596,572,581,578,572,572,554,555,
565,562,571,564,588,562,557,596,599,568,555,555,588,578,586,554,
554,581,588,564,564,581,599,557,589,572,557,581,578,578,598,579,
579,598,582,568,562,585,581,578,565,555,572,581,562,571,568,598,
555,588,595,599,586,588,572,592,561,561,575,562,564,557,579,581,
565,578,575,564,581,568,599,575,578,598,595,581,585,568,554,562
</chunk>
   <chunk x="-1120" y="-32" width="16" height="16">
0,0,0,0,0,0,0,0,0,0,0,0,0,0,0,0,
0,0,0,0,0,0,0,0,0,0,0,0,0,0,0,0,
0,0,0,0,0,0,0,0,0,0,0,0,0,0,0,0,
0,0,0,0,0,0,0,0,0,0,0,0,0,0,0,0,
0,0,0,0,0,0,0,0,0,0,0,0,0,0,0,0,
561,588,588,592,595,598,598,599,596,557,558,588,572,592,561,585,
579,578,596,565,595,554,586,579,554,562,581,592,596,558,565,568,
581,595,561,562,565,578,586,595,565,581,557,564,581,568,574,558,
589,595,564,578,565,585,555,581,592,595,581,599,562,558,592,592,
562,554,572,596,564,571,557,555,557,578,586,596,592,575,572,562,
557,596,582,574,572,568,557,586,568,579,598,557,561,596,568,598,
557,557,574,596,565,592,578,582,554,562,572,572,595,581,586,592,
575,595,579,589,589,558,575,571,575,596,579,561,562,579,557,561,
582,572,581,564,588,572,574,558,582,581,588,557,561,572,564,586,
585,554,555,571,557,557,565,572,562,564,575,599,558,599,568,554,
585,568,581,557,578,582,571,586,562,599,571,595,571,599,596,595
</chunk>
   <chunk x="-1104" y="-32" width="16" height="16">
0,0,0,0,0,0,0,0,0,0,0,0,0,0,0,0,
0,0,0,0,0,0,0,0,0,0,0,0,0,0,0,0,
0,0,0,0,0,0,0,0,0,0,0,0,0,0,0,0,
0,0,0,0,0,0,0,0,0,0,0,0,0,0,0,0,
0,0,0,0,0,0,0,0,0,0,0,0,0,0,0,0,
558,554,564,599,588,568,554,595,585,582,592,581,586,561,596,582,
565,595,565,564,586,568,588,598,596,558,568,598,557,558,595,574,
596,578,579,585,595,565,557,564,581,555,595,557,578,592,555,571,
582,574,581,592,595,557,598,596,565,588,564,599,588,555,562,585,
558,565,579,588,588,572,561,558,586,575,555,599,589,598,575,565,
574,557,575,572,572,572,575,572,598,571,586,555,575,588,574,598,
564,598,558,575,586,572,575,578,599,588,558,564,586,599,565,571,
568,598,572,599,585,586,589,578,565,578,561,582,598,599,582,596,
579,575,572,586,565,578,579,554,562,561,581,588,557,572,588,572,
595,599,561,557,581,557,554,599,595,579,564,588,575,564,557,558,
555,568,561,582,599,554,558,586,579,574,579,572,562,598,595,598
</chunk>
   <chunk x="-1088" y="-32" width="16" height="16">
0,0,0,0,0,0,0,0,0,0,0,0,0,0,0,0,
0,0,0,0,0,0,0,0,0,0,0,0,0,0,0,0,
0,0,0,0,0,0,0,0,0,0,0,0,0,0,0,0,
0,0,0,0,0,0,0,0,0,0,0,0,0,0,0,0,
0,0,0,0,0,0,0,0,0,0,0,0,0,0,0,0,
595,554,592,562,565,579,565,564,578,595,555,579,588,589,589,582,
582,568,589,555,596,599,582,589,555,581,562,568,589,575,596,554,
554,568,581,572,586,596,586,595,565,575,562,595,595,582,598,585,
589,595,599,598,595,578,561,588,554,558,581,598,565,572,592,588,
572,561,588,572,585,555,564,564,596,581,598,574,598,565,598,572,
554,554,585,581,599,557,598,598,564,565,562,565,578,557,574,568,
561,598,564,564,574,585,575,588,557,572,585,557,575,562,596,579,
565,557,565,579,579,595,588,564,574,579,578,572,572,572,596,557,
565,592,586,596,589,589,582,581,572,588,565,568,564,599,589,588,
555,572,564,558,595,589,565,596,568,599,581,596,595,557,571,596,
564,571,564,575,571,561,554,586,574,595,562,572,592,589,579,557
</chunk>
   <chunk x="-1072" y="-32" width="16" height="16">
0,0,0,0,0,0,0,0,0,0,0,0,0,0,0,0,
0,0,0,0,0,0,0,0,0,0,0,0,0,0,0,0,
0,0,0,0,0,0,0,0,0,0,0,0,0,0,0,0,
0,0,0,0,0,0,0,0,0,0,0,0,0,0,0,0,
0,0,0,0,0,0,0,0,0,0,0,0,0,0,0,0,
575,582,589,568,588,572,585,568,581,589,574,585,574,562,558,574,
589,558,564,561,586,571,592,589,592,579,586,555,581,596,554,568,
581,565,588,565,598,557,598,565,596,561,598,574,582,555,562,557,
575,571,558,588,565,557,596,599,555,592,572,558,564,585,589,555,
582,561,588,562,596,571,582,572,579,598,578,574,579,595,599,554,
592,596,558,557,581,557,579,599,586,554,592,585,582,561,598,579,
581,565,592,561,586,579,588,588,568,582,575,586,598,558,561,588,
554,564,568,579,575,574,564,571,558,574,581,575,588,586,571,585,
578,592,582,565,578,561,582,595,582,578,588,582,589,568,595,595,
599,571,575,592,561,595,571,595,564,579,585,565,586,555,586,571,
589,571,557,585,571,555,554,585,562,579,562,578,555,561,558,565
</chunk>
   <chunk x="-1056" y="-32" width="16" height="16">
0,0,0,0,0,0,0,0,0,0,0,0,0,0,0,0,
0,0,0,0,0,0,0,0,0,0,0,0,0,0,0,0,
0,0,0,0,0,0,0,0,0,0,0,0,0,0,0,0,
0,0,0,0,0,0,0,0,0,0,0,0,0,0,0,0,
0,0,0,0,0,0,0,0,0,0,0,0,0,0,0,0,
564,578,598,582,585,579,561,592,562,588,598,565,581,582,565,562,
561,555,579,585,579,595,571,562,575,581,575,586,582,581,575,598,
586,568,572,579,588,588,598,588,575,562,572,571,554,596,581,599,
596,561,575,596,562,562,579,582,582,555,586,561,554,582,588,562,
579,565,579,586,579,598,586,579,555,582,554,564,598,575,578,599,
571,564,557,558,595,579,562,555,581,571,571,588,598,588,599,585,
561,565,575,572,565,557,565,575,564,582,595,572,578,586,564,565,
562,592,589,586,572,557,574,562,572,574,565,592,585,579,579,554,
575,574,562,598,571,586,557,579,578,575,564,568,558,582,568,581,
561,575,557,599,557,574,588,572,558,592,562,561,595,596,596,582,
571,574,558,575,557,562,592,588,572,564,575,582,554,562,589,581
</chunk>
   <chunk x="-1040" y="-32" width="16" height="16">
0,0,0,0,0,0,0,0,0,0,0,0,0,0,0,0,
0,0,0,0,0,0,0,0,0,0,0,0,0,0,0,0,
0,0,0,0,0,0,0,0,0,0,0,0,0,0,0,0,
0,0,0,0,0,0,0,0,0,0,0,0,0,0,0,0,
0,0,0,0,0,0,0,0,0,0,0,0,0,0,0,0,
585,578,599,557,588,574,581,571,579,578,574,592,568,571,561,588,
579,564,565,558,589,599,598,588,564,595,589,574,575,582,554,592,
572,596,579,557,589,557,589,561,596,586,564,581,557,592,575,558,
592,589,564,561,562,572,579,586,575,599,565,599,562,574,592,572,
586,585,586,581,588,565,568,557,558,595,575,585,572,585,586,565,
575,571,596,574,578,555,565,592,588,589,568,586,596,555,595,599,
592,582,555,554,557,598,578,592,564,578,592,585,592,555,589,586,
572,579,582,586,571,585,561,586,582,595,555,564,588,589,589,557,
589,574,568,598,557,557,589,565,571,592,554,557,599,585,588,561,
571,574,588,589,596,575,561,582,586,568,572,579,598,596,561,581,
558,588,572,598,555,575,562,581,598,572,571,592,585,599,586,564
</chunk>
   <chunk x="-1024" y="-32" width="16" height="16">
0,0,0,0,0,0,0,0,0,0,0,0,0,0,0,0,
0,0,0,0,0,0,0,0,0,0,0,0,0,0,0,0,
0,0,0,0,0,0,0,0,0,0,0,0,0,0,0,0,
0,0,0,0,0,0,0,0,0,0,0,0,0,0,0,0,
0,0,0,0,0,0,0,0,0,0,0,0,0,0,0,0,
596,568,582,564,564,586,0,0,0,0,0,0,0,0,0,0,
599,555,581,574,581,588,0,0,0,0,0,0,0,0,0,0,
575,565,557,599,579,589,0,0,0,0,0,0,0,0,0,0,
574,571,554,565,578,592,0,0,0,0,0,0,0,0,0,0,
582,598,598,599,564,557,0,0,0,0,0,0,0,0,0,0,
598,555,557,557,564,558,0,0,0,0,0,0,0,0,0,0,
579,565,592,555,561,582,0,0,0,0,0,0,0,0,0,0,
568,572,588,571,581,592,0,0,0,0,0,0,0,0,0,0,
574,564,582,582,555,557,0,0,0,0,0,0,0,0,0,0,
596,579,586,562,558,589,0,0,0,0,0,0,0,0,0,0,
596,581,557,596,586,575,0,0,0,0,0,0,0,0,0,0
</chunk>
   <chunk x="-1376" y="-16" width="16" height="16">
0,0,0,0,0,0,0,0,0,0,0,0,0,575,589,599,
0,0,0,0,0,0,0,0,0,0,0,0,0,595,557,581,
0,0,0,0,0,0,0,0,0,0,0,0,0,595,592,572,
0,0,0,0,0,0,0,0,0,0,0,0,0,575,598,582,
0,0,0,0,0,0,0,0,0,0,0,0,0,589,558,555,
0,0,0,0,0,0,0,0,0,0,0,0,0,555,571,585,
0,0,0,0,0,0,0,0,0,0,0,0,0,558,599,572,
0,0,0,0,0,0,0,0,0,0,0,0,0,557,578,568,
0,0,0,0,0,0,0,0,0,0,0,0,0,557,578,574,
0,0,0,0,0,0,0,0,0,0,0,0,0,558,592,582,
0,0,0,0,0,0,0,0,0,0,0,0,0,596,581,582,
0,0,0,0,0,0,0,0,0,0,0,0,0,579,555,571,
0,0,0,0,0,0,0,0,0,0,0,0,0,565,574,561,
0,0,0,0,0,0,0,0,0,0,0,0,0,565,585,599,
0,0,0,0,0,0,0,0,0,0,0,0,0,562,598,592,
0,0,0,0,0,0,0,0,0,0,0,0,0,561,589,578
</chunk>
   <chunk x="-1360" y="-16" width="16" height="16">
575,561,557,575,595,568,571,571,585,568,596,598,568,557,564,599,
595,586,585,568,589,555,579,561,558,581,592,575,574,598,574,598,
554,588,586,581,582,564,574,596,568,599,599,599,599,555,562,562,
571,588,575,578,557,579,568,555,578,564,579,592,555,561,595,599,
574,598,554,588,561,571,588,575,599,578,568,557,554,592,579,564,
565,557,589,589,592,588,574,588,589,572,578,572,572,581,565,599,
572,588,588,575,595,575,589,595,561,599,555,557,558,579,592,564,
596,564,555,582,578,579,595,564,555,596,579,596,586,588,562,598,
571,586,598,564,574,561,579,596,592,599,574,581,561,596,598,568,
568,562,592,596,598,568,585,585,599,586,571,586,564,578,578,592,
562,585,599,572,588,558,592,579,579,564,581,565,572,595,588,574,
562,554,561,592,578,562,588,586,557,586,578,582,588,554,572,571,
588,571,598,555,579,571,596,554,579,579,595,598,579,582,586,564,
592,579,574,572,596,562,562,555,572,596,588,571,585,592,558,581,
558,571,561,572,574,582,558,586,555,564,599,578,586,579,555,554,
561,592,598,557,574,562,596,561,568,595,598,598,554,575,564,581
</chunk>
   <chunk x="-1344" y="-16" width="16" height="16">
586,554,568,568,572,585,555,554,581,586,562,599,599,558,596,555,
565,595,592,579,575,571,592,586,586,596,554,574,558,595,568,579,
578,561,558,585,571,588,588,575,586,568,581,572,561,579,565,586,
554,568,565,571,568,592,564,568,592,568,564,562,595,575,575,554,
589,575,564,579,585,568,555,564,562,554,598,581,571,599,561,564,
561,586,581,596,586,578,581,554,599,571,564,585,564,562,585,595,
579,598,579,596,581,598,595,596,592,555,595,554,578,575,574,561,
599,582,561,598,574,595,595,565,596,555,575,555,599,585,558,586,
596,564,586,589,599,571,579,558,568,598,592,579,572,572,599,599,
572,575,588,555,586,565,596,589,564,588,582,578,554,578,581,564,
586,578,579,592,571,571,562,574,582,589,572,581,575,579,562,564,
562,579,592,586,565,561,557,557,555,575,562,579,582,562,558,578,
592,578,582,565,582,585,592,586,596,588,579,564,598,575,595,561,
585,554,562,571,565,588,596,581,557,599,579,555,585,598,588,586,
574,588,582,554,575,571,554,574,598,592,592,565,574,554,596,565,
585,582,574,579,596,575,557,586,598,558,578,568,596,592,578,575
</chunk>
   <chunk x="-1328" y="-16" width="16" height="16">
568,592,599,572,592,564,564,598,565,578,571,595,575,564,554,561,
581,562,599,599,585,555,558,571,596,596,557,557,586,562,558,589,
568,571,598,554,572,557,582,596,598,579,586,588,555,555,589,558,
571,579,592,565,574,575,598,574,562,564,596,595,574,564,571,555,
581,588,555,568,574,595,572,585,582,575,595,558,599,582,586,578,
571,565,579,592,574,555,596,562,595,568,586,588,574,586,574,598,
555,579,596,562,589,554,581,561,596,564,588,599,554,582,575,578,
592,581,598,575,579,561,589,598,572,599,555,598,598,592,582,571,
568,582,564,565,572,585,562,596,579,562,579,599,598,557,589,586,
595,578,564,555,554,579,582,586,564,586,558,575,586,571,554,599,
596,562,586,568,575,581,578,562,575,588,571,571,589,581,578,564,
554,571,585,588,574,582,572,595,558,574,585,578,599,572,565,572,
595,562,574,557,599,564,599,555,575,598,599,574,579,557,558,575,
595,585,588,558,564,589,558,554,562,589,589,575,561,574,578,588,
562,564,599,585,565,588,575,589,579,574,586,582,562,579,557,589,
579,555,557,599,578,596,598,558,568,588,561,596,585,562,562,581
</chunk>
   <chunk x="-1312" y="-16" width="16" height="16">
595,596,592,555,564,585,561,581,592,564,555,582,579,582,575,564,
581,574,589,595,554,562,586,598,574,596,598,586,572,581,588,598,
557,562,568,558,557,564,555,589,592,592,562,565,595,575,557,564,
575,589,571,586,586,586,581,571,574,592,595,565,585,596,596,598,
572,571,598,554,598,588,562,598,599,557,574,555,585,558,588,571,
586,561,565,565,554,595,578,568,564,582,572,592,598,579,557,599,
589,565,562,578,565,598,564,585,589,589,596,588,595,595,554,582,
585,557,589,564,595,592,579,565,575,586,585,579,565,571,572,588,
561,578,582,575,578,558,555,571,568,575,582,575,579,568,562,562,
582,579,592,574,581,575,571,582,554,585,595,574,564,589,578,557,
595,596,568,574,571,572,575,588,554,562,574,574,582,572,582,571,
574,586,588,575,561,585,575,596,599,572,565,592,585,582,555,558,
578,596,596,557,568,582,558,572,586,564,581,564,561,598,598,575,
561,581,592,596,575,557,582,579,561,581,572,579,575,595,592,565,
565,561,599,558,596,596,599,561,565,581,588,554,574,568,558,574,
568,585,589,585,574,596,592,571,575,588,579,578,586,581,592,572
</chunk>
   <chunk x="-1296" y="-16" width="16" height="16">
565,588,568,599,575,558,589,572,575,598,596,555,557,579,586,574,
557,561,599,581,578,558,598,578,557,565,598,561,595,586,558,585,
581,574,575,589,557,565,558,572,578,565,595,568,557,592,558,599,
557,555,579,579,598,572,585,585,575,562,599,582,599,578,574,578,
564,586,565,554,561,588,571,589,565,572,561,589,592,565,558,562,
581,568,592,568,589,571,574,562,592,589,582,592,598,579,582,595,
585,568,598,565,589,564,599,571,555,558,595,572,568,561,562,558,
565,581,555,558,579,561,557,582,579,589,589,596,595,592,574,582,
572,571,579,598,596,578,564,581,572,561,582,561,557,599,554,554,
585,562,557,596,575,557,555,574,581,599,562,585,565,582,574,582,
585,581,555,588,592,561,599,572,581,596,596,578,568,589,579,565,
558,599,575,599,561,585,592,578,562,586,599,596,598,568,578,589,
555,568,596,568,575,558,581,574,579,592,579,581,579,564,572,582,
592,582,599,595,586,599,575,565,555,575,582,592,574,579,562,599,
571,588,568,575,561,592,557,568,568,571,589,595,561,562,595,589,
579,558,586,592,554,572,586,574,561,595,565,588,578,568,562,572
</chunk>
   <chunk x="-1280" y="-16" width="16" height="16">
596,571,595,572,557,599,598,562,562,588,558,571,579,564,579,558,
582,599,588,562,596,578,564,578,596,589,578,571,564,572,568,568,
596,554,585,564,599,555,585,599,562,575,564,561,557,582,598,574,
557,562,598,585,578,564,561,588,582,568,562,572,562,557,598,554,
589,582,568,586,598,557,596,558,564,598,586,571,586,592,589,598,
596,558,592,574,561,568,574,565,582,571,554,595,575,596,581,598,
598,571,555,558,571,586,562,565,558,554,561,588,572,595,598,598,
572,595,575,555,557,581,568,588,557,598,565,599,572,564,571,565,
572,596,581,571,565,571,599,596,568,578,575,595,589,579,554,598,
554,585,558,555,595,599,568,562,585,574,599,598,595,585,596,582,
562,578,595,565,568,568,557,555,575,579,554,578,588,588,599,596,
598,568,595,555,561,561,586,555,565,578,596,572,582,554,572,568,
589,579,581,564,592,575,562,557,575,557,574,586,599,554,586,581,
579,562,565,595,568,595,585,568,568,579,557,568,564,578,575,574,
572,555,589,598,554,565,558,571,555,595,572,572,561,557,582,595,
561,561,572,585,581,554,598,572,572,565,578,578,588,572,581,557
</chunk>
   <chunk x="-1264" y="-16" width="16" height="16">
596,554,595,575,592,589,596,592,565,586,565,575,599,588,592,574,
592,599,588,596,596,578,595,555,596,568,599,564,565,579,586,558,
555,578,579,592,561,557,568,575,572,568,596,596,562,598,574,596,
572,582,598,572,585,589,598,599,554,592,574,571,588,571,599,574,
565,562,575,557,571,598,586,586,598,595,592,582,564,562,585,588,
578,554,581,595,589,578,586,588,555,564,575,599,574,558,579,596,
568,568,575,571,558,579,592,595,565,586,574,589,592,565,592,585,
598,596,557,571,589,579,574,596,575,582,571,599,564,558,572,572,
581,557,585,565,575,581,561,589,572,568,554,596,598,588,596,557,
558,581,562,568,592,586,595,564,575,579,575,598,595,555,595,574,
599,574,595,585,596,586,571,585,582,572,579,582,554,586,596,562,
588,598,571,555,575,554,571,579,599,564,554,581,578,588,555,596,
599,562,575,568,574,568,595,579,571,581,572,572,557,572,557,579,
581,592,562,558,565,595,575,562,585,574,554,582,585,557,557,574,
596,579,557,557,595,588,592,581,554,598,554,561,575,554,564,578,
592,558,558,582,599,574,588,574,596,599,598,588,575,568,598,574
</chunk>
   <chunk x="-1248" y="-16" width="16" height="16">
589,582,557,554,592,568,558,554,599,598,575,578,572,575,581,562,
585,565,557,592,599,581,565,555,572,581,592,565,585,596,555,572,
598,557,574,596,586,595,574,581,554,555,596,558,555,579,571,564,
579,588,596,588,578,581,582,564,595,598,571,579,588,581,568,557,
581,585,598,572,582,578,568,585,581,557,582,558,571,565,562,558,
595,562,572,558,595,588,557,598,592,572,562,585,571,571,579,575,
562,564,561,554,586,596,595,588,595,578,571,588,574,585,582,565,
582,589,565,572,588,555,562,558,586,578,565,598,564,564,592,555,
599,595,599,572,592,588,571,592,589,588,595,568,598,578,564,581,
554,562,557,592,565,595,596,579,596,585,578,561,595,574,596,571,
581,574,572,571,564,586,565,561,564,582,579,579,568,561,574,579,
558,598,571,589,592,595,561,562,586,557,595,578,561,578,598,578,
596,562,585,557,598,571,557,582,599,564,575,582,589,599,598,565,
564,586,561,581,555,592,578,564,596,554,554,558,592,592,564,571,
582,579,555,558,596,579,588,579,574,595,581,596,575,596,599,571,
557,562,585,589,557,575,561,582,557,558,564,586,571,557,555,578
</chunk>
   <chunk x="-1232" y="-16" width="16" height="16">
575,564,565,581,572,585,581,561,578,572,596,574,592,589,585,568,
578,562,564,578,581,562,557,581,568,565,595,595,571,595,554,578,
599,592,565,586,585,599,592,592,578,595,579,554,598,585,554,586,
561,561,588,589,592,568,598,561,557,586,582,586,592,585,581,589,
582,558,579,599,574,554,589,564,554,564,599,582,586,578,568,598,
588,579,595,596,595,596,592,588,579,554,575,581,582,555,599,572,
598,561,555,599,561,588,578,596,595,592,599,581,574,586,562,585,
582,568,572,554,596,574,595,582,585,588,568,588,596,588,596,565,
565,574,564,574,586,568,599,579,585,561,599,598,578,574,571,554,
565,588,596,558,596,555,578,581,572,579,579,586,572,568,572,557,
555,568,564,579,557,554,562,562,598,586,579,574,574,599,599,574,
555,586,574,558,554,554,581,578,589,554,582,564,586,592,582,565,
596,574,554,589,588,578,578,568,585,565,565,589,578,579,557,596,
565,574,558,562,557,574,558,586,586,596,588,572,598,596,554,554,
564,596,574,558,565,581,578,585,574,555,574,568,588,578,581,564,
595,558,596,564,557,568,582,596,574,557,558,564,571,575,586,592
</chunk>
   <chunk x="-1216" y="-16" width="16" height="16">
554,557,558,568,562,568,578,582,579,572,589,578,575,596,564,578,
568,555,558,599,585,555,589,581,579,557,592,578,554,575,581,588,
596,585,568,571,579,574,595,596,581,575,589,557,564,589,571,562,
586,557,561,557,589,555,575,582,579,596,598,599,582,558,565,562,
561,592,581,575,592,585,555,565,589,562,598,598,555,592,562,564,
571,581,586,588,568,555,554,565,595,561,562,564,558,557,595,564,
568,571,557,595,592,598,565,565,596,571,588,574,557,588,598,564,
572,575,574,595,596,599,579,564,574,589,581,586,564,571,574,575,
562,558,558,599,592,579,588,582,571,592,586,578,555,565,561,557,
565,588,582,586,598,581,568,574,579,589,589,558,586,582,599,558,
571,558,571,561,596,555,598,575,592,557,596,571,555,575,557,592,
571,595,588,572,554,571,555,592,598,557,581,581,574,568,558,555,
579,581,575,581,572,574,578,589,558,599,572,588,596,565,568,589,
565,586,571,554,572,557,598,557,565,595,589,564,595,561,592,575,
592,579,565,596,588,589,598,571,586,581,599,565,586,596,565,575,
571,598,581,564,572,575,581,598,564,574,554,555,592,586,581,578
</chunk>
   <chunk x="-1200" y="-16" width="16" height="16">
575,596,568,598,568,578,554,579,568,557,598,596,568,554,554,598,
571,592,599,599,595,562,575,579,578,558,568,588,585,579,598,555,
562,568,554,586,578,575,589,558,575,585,557,575,575,596,579,592,
588,596,579,592,564,588,564,578,582,599,554,574,598,599,565,582,
558,589,575,598,596,575,578,574,578,586,598,589,598,554,581,595,
575,596,599,562,575,565,596,589,572,581,561,555,555,588,557,582,
568,598,581,586,586,555,586,574,582,598,572,568,554,599,585,571,
572,578,571,598,579,572,585,555,562,561,579,564,588,561,592,558,
561,586,565,595,568,561,595,599,562,595,589,572,555,582,581,589,
581,564,595,581,574,571,558,589,568,565,581,564,595,574,582,578,
571,557,574,586,578,579,599,585,585,588,565,599,589,586,557,585,
575,565,589,568,554,555,562,579,592,575,571,565,585,561,561,592,
585,578,555,596,565,579,557,592,596,589,588,582,581,598,564,578,
561,562,571,574,574,565,557,575,558,554,561,598,596,586,575,568,
579,565,589,582,568,555,575,578,557,588,582,579,564,575,575,554,
574,571,579,575,582,558,581,585,586,571,558,585,599,582,554,589
</chunk>
   <chunk x="-1184" y="-16" width="16" height="16">
596,568,592,555,554,595,596,571,582,557,568,579,581,572,562,579,
586,578,555,561,599,598,562,572,572,585,599,564,588,565,599,572,
557,585,571,585,589,568,574,582,568,592,568,575,592,596,554,578,
562,557,596,572,592,599,578,575,574,575,561,561,557,579,555,582,
554,598,565,575,564,575,585,558,582,554,562,596,568,572,575,571,
568,586,562,572,561,578,585,558,581,572,588,555,598,574,558,578,
574,558,557,555,585,561,554,579,596,575,589,579,572,572,571,575,
575,575,579,572,595,575,574,592,562,564,568,596,592,555,562,568,
562,557,581,554,558,581,562,578,565,561,565,572,555,554,595,572,
596,592,598,572,562,564,555,572,599,578,581,575,588,589,581,558,
581,575,571,562,578,574,574,589,598,595,588,562,554,568,579,599,
558,578,595,568,561,592,568,586,572,571,572,585,572,568,571,555,
575,586,565,561,555,555,578,562,562,595,564,565,568,598,586,585,
557,588,595,599,565,575,561,578,554,599,578,599,579,592,554,595,
571,565,596,586,562,562,592,565,562,596,554,568,564,574,557,572,
561,578,598,582,558,561,568,595,588,589,581,565,592,589,578,582
</chunk>
   <chunk x="-1168" y="-16" width="16" height="16">
555,579,561,598,555,561,592,574,554,572,555,575,589,555,558,574,
564,578,585,565,565,575,568,568,565,581,555,571,595,571,598,568,
599,579,571,571,598,554,574,586,581,596,596,561,564,578,578,592,
572,554,575,572,581,579,561,595,581,598,572,561,588,561,579,564,
555,561,558,561,564,579,588,558,574,568,562,589,598,582,562,581,
579,588,599,592,564,562,599,588,562,557,582,581,562,557,598,565,
568,571,564,598,571,565,589,572,581,599,558,589,586,581,585,581,
578,565,568,595,596,578,554,564,557,562,571,562,585,562,582,555,
564,578,562,568,558,585,596,558,562,571,565,581,557,595,586,595,
588,575,571,588,568,561,574,582,588,554,599,564,568,555,572,554,
596,589,585,572,596,568,557,586,575,589,595,568,592,599,575,554,
588,592,596,561,562,588,555,568,568,598,568,568,579,558,568,564,
557,568,592,554,575,565,581,598,578,574,564,557,562,565,561,596,
568,592,562,581,599,562,572,575,588,581,586,582,561,586,595,585,
565,579,571,561,596,586,571,586,574,561,565,585,596,564,572,568,
596,562,568,592,565,586,582,574,599,599,598,555,598,557,595,565
</chunk>
   <chunk x="-1152" y="-16" width="16" height="16">
598,572,588,579,581,595,596,558,555,599,555,588,582,562,579,574,
571,592,596,588,592,572,595,596,596,568,574,592,574,555,588,578,
558,586,568,592,571,565,562,589,598,578,579,564,578,586,558,582,
562,571,588,579,568,589,586,596,592,564,557,581,568,599,568,555,
581,554,572,596,561,592,564,565,575,582,578,578,568,578,555,588,
582,582,592,595,598,589,585,568,561,557,561,595,572,575,588,596,
581,565,588,565,598,574,564,586,588,561,596,581,574,558,578,588,
561,585,582,572,581,575,574,572,579,582,568,564,586,555,557,554,
585,554,561,582,581,555,557,596,589,574,554,564,571,555,554,589,
598,588,596,571,574,595,598,572,572,557,565,588,554,586,581,595,
564,592,588,574,561,572,578,564,554,564,555,562,561,554,592,562,
562,554,586,564,555,571,568,585,555,595,598,568,565,599,561,581,
562,596,555,588,571,575,554,564,588,572,575,571,571,555,562,599,
592,578,596,595,557,595,555,557,586,574,578,579,596,572,571,592,
588,581,589,561,574,568,589,568,555,572,595,596,599,599,578,558,
565,589,586,554,592,554,598,568,588,574,581,571,575,598,554,585
</chunk>
   <chunk x="-1136" y="-16" width="16" height="16">
596,555,588,588,579,581,599,596,579,582,599,564,585,599,575,554,
572,571,599,581,561,568,586,555,586,562,565,558,572,588,579,599,
579,585,558,586,592,555,558,571,568,579,561,564,598,575,571,588,
565,596,585,599,562,554,555,571,578,598,558,564,575,588,562,585,
596,571,562,571,555,585,581,578,554,557,598,579,588,586,581,568,
565,592,562,581,586,579,558,579,598,599,561,586,562,561,586,554,
571,589,596,578,595,581,585,561,595,571,596,564,574,588,558,581,
575,589,555,554,558,564,588,561,578,595,599,581,562,581,564,565,
558,595,571,571,595,565,564,592,574,557,596,596,564,571,586,574,
564,599,558,595,571,575,582,592,575,588,598,596,592,585,585,586,
562,599,581,588,578,581,585,558,598,558,595,565,596,582,561,581,
564,571,575,592,589,582,588,557,574,564,562,562,596,564,571,598,
572,578,586,579,574,558,588,558,565,589,589,565,586,562,568,595,
561,596,562,558,565,592,589,554,598,595,592,572,564,589,568,554,
592,564,565,555,595,558,575,581,554,572,575,592,588,564,599,585,
579,588,581,568,571,578,575,582,586,592,592,596,555,565,568,588
</chunk>
   <chunk x="-1120" y="-16" width="16" height="16">
595,592,571,599,582,568,555,564,592,598,588,568,555,562,588,568,
565,582,598,599,588,588,586,589,586,595,586,571,554,592,568,572,
595,554,596,555,581,554,592,592,596,589,558,578,562,568,595,557,
589,572,595,582,555,554,554,588,562,581,557,555,574,561,592,582,
595,558,581,571,581,554,572,564,581,571,586,574,588,598,572,562,
596,595,586,557,575,599,557,578,565,596,596,579,598,555,572,578,
586,564,592,562,575,568,575,599,557,586,581,562,581,562,588,598,
586,557,582,579,581,579,562,555,599,579,565,579,554,582,596,596,
581,581,568,572,568,555,555,592,562,554,572,555,565,586,561,561,
564,557,582,589,564,586,554,554,592,561,588,578,579,596,596,586,
572,568,571,592,578,555,588,592,588,598,571,589,568,558,589,561,
564,586,562,568,561,592,588,595,565,592,598,579,586,574,588,581,
565,568,568,558,578,572,554,554,592,592,585,568,588,579,578,562,
558,572,558,564,589,555,572,557,557,575,574,575,554,582,555,578,
558,585,555,558,598,581,571,574,565,578,575,596,596,585,582,589,
578,598,592,571,557,555,598,588,582,599,586,589,589,571,579,562
</chunk>
   <chunk x="-1104" y="-16" width="16" height="16">
592,589,578,586,562,554,592,598,592,581,589,571,598,588,585,557,
572,555,582,572,588,595,561,598,571,578,588,561,578,586,579,585,
562,581,571,571,562,571,599,589,575,588,562,568,555,582,598,579,
572,558,578,586,564,575,574,582,598,585,579,595,596,568,572,574,
558,557,589,581,575,565,565,581,572,554,561,585,555,598,598,581,
572,572,565,575,562,599,581,596,599,592,592,562,554,568,592,582,
579,562,557,592,596,586,571,571,568,579,572,571,572,589,588,581,
568,575,578,571,561,562,572,582,578,561,589,572,562,574,598,565,
564,571,596,589,568,572,596,596,578,574,595,578,596,586,554,595,
588,557,588,574,598,557,572,582,558,592,554,561,599,554,592,561,
568,596,572,588,562,557,554,574,596,575,578,581,588,558,581,592,
599,575,554,598,579,554,557,572,572,574,574,558,579,562,562,572,
568,571,555,581,568,586,561,557,555,598,565,562,589,585,581,579,
574,596,562,578,586,572,562,565,578,582,596,578,572,561,596,598,
571,557,568,596,589,588,575,585,596,575,558,581,596,574,572,562,
586,581,568,589,578,578,565,561,585,578,578,568,585,579,554,575
</chunk>
   <chunk x="-1088" y="-16" width="16" height="16">
565,554,592,582,571,562,555,582,586,571,572,598,596,565,571,554,
578,595,574,589,554,585,592,579,579,598,554,568,554,582,555,555,
568,561,599,586,589,561,588,572,568,562,561,596,579,558,561,554,
565,585,581,596,589,554,565,571,589,572,588,574,564,588,572,562,
571,564,554,558,574,561,565,565,595,585,595,582,568,565,595,588,
592,554,589,575,555,586,592,585,579,561,558,565,557,565,562,588,
592,558,582,578,571,586,562,554,579,564,596,586,599,558,592,575,
564,596,558,582,571,589,555,574,571,586,581,561,554,579,572,598,
585,595,586,596,586,564,599,571,589,592,572,582,575,564,598,599,
568,595,598,555,596,557,562,558,595,564,575,582,555,596,582,575,
578,596,564,571,588,571,596,592,554,575,598,588,565,595,595,579,
568,596,555,554,572,582,558,582,555,554,582,572,598,582,557,598,
579,571,596,585,557,565,562,554,574,574,578,595,589,598,581,596,
555,555,557,575,599,564,564,562,592,588,588,581,599,574,596,571,
554,585,554,589,554,588,596,582,589,582,589,595,581,571,561,586,
555,582,557,579,574,565,586,564,555,588,568,579,592,588,574,585
</chunk>
   <chunk x="-1072" y="-16" width="16" height="16">
562,572,582,595,579,562,555,588,555,598,579,598,555,588,578,572,
562,575,564,555,586,562,575,568,562,575,558,562,575,588,571,568,
598,568,554,568,568,589,555,585,592,568,554,558,561,565,581,571,
592,588,575,555,586,586,578,578,554,592,575,557,588,582,555,568,
565,572,562,599,588,562,561,585,562,574,554,588,599,562,561,586,
555,589,554,557,585,595,564,579,592,571,558,582,579,579,568,564,
561,562,564,564,562,588,588,586,568,561,596,585,585,571,558,582,
599,565,575,574,572,558,586,579,575,582,555,595,579,592,554,561,
575,596,557,582,585,572,564,599,585,564,571,598,571,589,589,574,
595,555,557,596,599,565,558,558,582,582,574,565,581,598,562,588,
596,555,586,557,575,575,595,589,595,588,579,582,592,596,595,586,
592,557,581,585,564,599,592,568,599,555,598,565,574,596,595,596,
589,555,572,595,564,595,575,579,588,571,592,564,574,558,565,598,
561,575,586,578,568,589,554,575,598,572,578,586,562,589,592,568,
599,568,565,578,589,571,565,568,568,581,571,565,599,558,565,599,
575,595,581,596,574,582,554,571,555,565,574,558,558,575,554,557
</chunk>
   <chunk x="-1056" y="-16" width="16" height="16">
589,579,588,586,585,582,574,574,562,598,588,562,588,598,598,555,
561,592,574,558,581,565,558,558,564,572,568,586,571,558,596,598,
555,554,571,582,598,565,575,581,565,568,558,574,585,574,572,564,
574,579,574,582,582,557,578,571,579,574,595,562,578,558,592,565,
558,568,557,565,588,572,562,588,571,571,557,558,589,582,561,586,
558,588,598,575,574,588,558,592,574,554,575,596,589,596,582,558,
578,554,557,558,589,564,581,599,554,588,572,585,568,555,571,558,
557,592,596,575,571,598,579,564,599,581,598,596,598,589,575,588,
598,575,571,558,578,579,555,561,561,596,581,596,589,586,561,596,
554,568,571,595,582,554,579,572,574,599,571,579,565,564,588,578,
564,589,588,589,599,579,565,564,575,589,599,575,582,564,589,582,
599,564,595,562,599,581,579,568,586,562,558,599,575,588,558,586,
564,574,572,561,555,557,564,598,585,579,595,558,596,589,555,574,
558,574,595,557,554,554,596,575,579,568,588,588,562,586,568,578,
565,572,585,579,575,599,568,568,572,575,558,582,572,599,578,574,
574,571,554,555,588,598,582,599,585,571,564,568,579,582,554,554
</chunk>
   <chunk x="-1040" y="-16" width="16" height="16">
561,598,554,586,585,585,582,555,565,592,589,578,575,557,562,557,
592,554,581,596,585,571,578,592,581,578,575,562,554,561,578,558,
571,578,585,564,555,558,585,578,599,564,598,575,585,558,554,578,
589,588,557,554,581,579,589,558,582,588,555,565,574,592,598,595,
572,571,581,564,598,565,571,571,557,586,585,555,571,574,588,582,
554,592,568,592,557,571,562,571,562,595,581,574,565,589,586,596,
588,562,574,562,582,554,599,598,582,572,588,562,578,574,555,596,
561,598,557,578,598,557,595,581,562,588,571,568,596,565,565,568,
575,579,564,568,565,558,596,571,592,596,568,588,595,571,595,572,
581,586,575,582,599,599,575,562,564,557,557,582,595,596,558,562,
571,564,579,581,592,571,568,599,558,575,578,568,565,571,575,558,
592,588,578,592,588,572,588,595,568,596,592,595,564,592,571,554,
561,599,586,595,598,585,578,588,558,588,588,585,554,595,564,579,
579,599,565,554,596,579,565,589,561,561,589,565,579,562,561,579,
558,558,575,558,586,568,557,595,581,571,558,571,581,589,588,586,
558,579,579,592,599,582,599,598,586,558,599,599,568,588,558,598
</chunk>
   <chunk x="-1024" y="-16" width="16" height="16">
589,574,568,557,554,558,0,0,0,0,0,0,0,0,0,0,
582,564,557,578,589,592,0,0,0,0,0,0,0,0,0,0,
589,565,599,574,565,579,0,0,0,0,0,0,0,0,0,0,
596,588,582,598,596,565,0,0,0,0,0,0,0,0,0,0,
579,574,554,561,578,562,0,0,0,0,0,0,0,0,0,0,
581,562,574,555,554,595,0,0,0,0,0,0,0,0,0,0,
586,572,564,571,588,555,0,0,0,0,0,0,0,0,0,0,
581,568,588,571,557,558,0,0,0,0,0,0,0,0,0,0,
558,582,598,568,592,574,0,0,0,0,0,0,0,0,0,0,
585,572,589,571,575,565,0,0,0,0,0,0,0,0,0,0,
596,574,557,579,586,579,0,0,0,0,0,0,0,0,0,0,
561,555,565,565,558,568,0,0,0,0,0,0,0,0,0,0,
598,562,565,557,592,575,0,0,0,0,0,0,0,0,0,0,
562,581,595,557,558,572,0,0,0,0,0,0,0,0,0,0,
571,579,564,581,599,572,0,0,0,0,0,0,0,0,0,0,
582,592,561,586,585,571,0,0,0,0,0,0,0,0,0,0
</chunk>
   <chunk x="-1376" y="0" width="16" height="16">
0,0,0,0,0,0,0,0,0,0,0,0,0,572,575,565,
0,0,0,0,0,0,0,0,0,0,0,0,0,555,568,568,
0,0,0,0,0,0,0,0,0,0,0,0,0,558,562,599,
0,0,0,0,0,0,0,0,0,0,0,0,0,574,557,595,
0,0,0,0,0,0,0,0,0,0,0,0,0,586,598,558,
0,0,0,0,0,0,0,0,0,0,0,0,0,598,575,564,
0,0,0,0,0,0,0,0,0,0,0,0,0,565,586,596,
0,0,0,0,0,0,0,0,0,0,0,0,0,572,588,574,
0,0,0,0,0,0,0,0,0,0,0,0,0,596,578,575,
0,0,0,0,0,0,0,0,0,0,0,0,0,575,564,558,
0,0,0,0,0,0,0,0,0,0,0,0,0,599,588,581,
0,0,0,0,0,0,0,0,0,0,0,0,0,598,554,557,
0,0,0,0,0,0,0,0,0,0,0,0,0,575,596,568,
0,0,0,0,0,0,0,0,0,0,0,0,0,599,588,574,
0,0,0,0,0,0,0,0,0,0,0,0,0,564,572,558,
0,0,0,0,0,0,0,0,0,0,0,0,0,578,585,565
</chunk>
   <chunk x="-1360" y="0" width="16" height="16">
581,571,564,571,561,579,581,588,561,564,555,572,595,568,596,555,
578,578,578,578,586,561,599,565,557,599,555,574,554,592,595,592,
579,558,565,592,585,568,564,579,561,575,596,565,572,571,565,579,
557,588,554,555,572,561,575,598,562,588,578,562,554,582,598,555,
572,564,558,558,586,558,571,579,582,589,572,582,582,575,555,572,
571,558,557,568,595,581,564,579,555,575,582,574,592,598,557,579,
574,581,592,561,588,588,554,579,596,599,581,595,586,578,554,586,
599,557,592,595,562,558,572,564,554,592,555,589,574,557,562,589,
554,555,581,554,592,571,568,565,585,568,592,568,572,575,555,562,
565,582,596,557,579,581,579,579,598,598,596,571,565,588,571,557,
568,586,572,585,592,596,582,581,581,589,581,572,589,586,557,564,
565,582,575,599,562,589,554,557,557,588,568,571,581,575,595,572,
581,589,596,575,568,561,555,595,595,574,599,589,565,581,565,565,
571,558,564,589,555,578,571,578,579,564,574,555,568,578,586,586,
588,578,592,592,581,568,596,581,579,598,564,564,554,558,564,578,
571,565,562,568,558,558,554,589,579,586,575,579,558,586,575,589
</chunk>
   <chunk x="-1344" y="0" width="16" height="16">
562,562,571,582,588,586,585,589,585,561,568,565,574,557,564,555,
598,578,599,588,586,574,561,585,588,568,582,579,589,578,598,568,
592,586,596,571,555,575,581,581,592,562,565,588,561,578,585,589,
558,562,588,578,598,596,572,579,565,568,581,562,555,572,554,592,
554,581,558,586,568,585,596,554,598,561,555,554,574,589,565,581,
595,598,554,579,579,568,582,565,558,589,555,585,564,575,554,572,
598,589,586,554,555,562,595,562,562,562,589,575,565,592,598,598,
571,582,589,575,561,586,555,565,595,565,562,592,555,578,592,596,
579,555,588,579,558,596,592,561,575,568,557,586,582,599,592,599,
581,554,595,575,592,595,582,564,598,582,555,588,564,561,561,564,
554,595,568,588,595,561,598,561,564,564,564,558,579,598,574,572,
581,599,582,585,575,579,582,557,561,564,588,574,588,588,554,574,
599,592,586,581,564,558,595,564,561,554,592,589,581,579,557,571,
554,586,561,561,579,575,588,554,555,599,581,596,572,564,558,585,
572,558,586,578,582,599,588,588,589,598,571,562,568,568,555,588,
589,575,575,561,578,568,558,575,572,558,582,568,574,586,565,574
</chunk>
   <chunk x="-1328" y="0" width="16" height="16">
568,572,574,589,588,582,568,579,565,589,564,589,568,564,562,555,
588,599,585,596,599,571,574,592,568,595,598,589,554,582,574,574,
596,598,554,561,561,586,592,592,588,599,596,574,581,595,588,589,
596,557,572,572,562,582,579,586,582,589,578,572,571,562,581,589,
595,582,557,598,555,557,571,571,568,554,585,574,598,598,589,561,
565,565,557,568,588,571,555,585,598,588,596,575,561,568,595,558,
588,574,592,572,564,599,574,558,586,571,596,596,565,562,572,554,
598,596,561,595,568,564,595,599,592,555,588,579,562,572,561,571,
562,555,592,592,581,588,579,578,588,598,586,555,564,554,572,588,
555,589,579,595,595,575,554,585,574,557,557,568,598,582,564,575,
571,578,555,568,568,571,582,565,589,585,571,578,557,596,596,598,
561,561,564,555,586,592,596,565,588,588,589,575,557,581,592,565,
575,585,599,561,558,555,582,564,555,575,568,589,596,555,571,574,
561,586,598,582,571,585,596,586,598,557,592,564,571,561,564,578,
561,596,581,579,589,592,599,598,554,579,558,555,572,596,571,555,
572,585,575,598,578,561,561,592,557,599,557,564,598,595,586,575
</chunk>
   <chunk x="-1312" y="0" width="16" height="16">
589,565,568,557,595,561,574,554,562,595,554,595,557,564,555,592,
565,561,558,579,572,581,599,595,565,554,579,585,558,579,598,564,
565,596,588,578,589,568,592,585,579,596,558,571,599,595,599,578,
571,598,586,581,581,589,595,574,571,571,557,561,571,586,574,581,
596,579,596,595,599,585,592,595,585,581,589,578,579,572,555,572,
575,596,598,592,585,565,562,579,561,581,557,565,571,561,579,568,
589,588,588,565,579,588,585,588,561,595,557,565,575,589,571,565,
554,588,581,599,599,558,586,598,555,592,571,592,596,565,578,557,
564,558,598,585,561,554,572,598,571,568,555,579,575,564,581,564,
592,596,581,554,565,574,595,588,568,562,579,571,558,561,572,589,
592,565,579,586,568,557,596,565,571,555,575,592,595,595,589,595,
588,568,571,589,572,595,596,589,588,595,561,579,588,585,589,579,
599,575,589,592,596,585,588,557,582,571,562,554,561,555,586,582,
571,579,565,589,555,588,598,562,575,581,565,582,579,582,589,578,
571,592,599,564,596,572,586,555,588,555,561,555,596,554,564,558,
574,579,598,557,574,581,558,555,596,562,596,578,571,595,592,574
</chunk>
   <chunk x="-1296" y="0" width="16" height="16">
582,565,572,562,558,574,572,561,599,575,561,564,572,582,598,578,
571,595,555,564,564,589,568,572,554,598,561,585,562,565,586,572,
574,571,562,565,598,574,595,565,582,561,592,565,555,574,572,564,
558,578,579,596,558,582,572,565,565,586,555,571,579,599,592,575,
564,589,565,586,595,596,575,596,588,596,574,585,595,561,554,554,
585,592,598,598,581,555,589,596,589,586,574,579,595,585,554,568,
571,568,579,585,581,561,588,561,561,592,574,558,565,568,581,555,
596,562,595,575,568,571,557,561,575,578,596,589,588,574,579,596,
581,565,595,565,571,557,561,598,574,585,572,581,557,592,599,596,
588,574,571,562,574,574,571,596,595,599,571,586,562,585,578,564,
578,599,581,582,564,586,568,571,581,571,595,554,572,557,586,554,
565,561,592,571,575,595,582,582,561,571,571,571,585,568,598,589,
588,555,568,582,585,592,582,571,565,561,586,571,579,585,592,592,
586,595,572,596,561,588,582,557,557,554,561,575,598,596,562,592,
579,599,554,588,578,562,598,586,575,575,586,582,596,586,574,572,
588,571,558,578,561,599,596,558,565,578,555,558,598,588,575,598
</chunk>
   <chunk x="-1280" y="0" width="16" height="16">
558,572,568,568,558,595,598,586,578,575,561,585,565,554,578,581,
578,565,596,575,578,579,557,588,564,562,571,571,595,596,575,558,
561,599,578,565,564,582,598,558,568,578,571,564,589,554,572,578,
557,568,581,575,578,572,561,592,565,565,557,572,588,555,557,568,
595,557,558,574,571,562,582,581,586,555,589,588,598,595,554,561,
558,557,562,595,558,592,599,599,578,558,564,568,562,568,561,578,
588,596,585,589,574,561,599,564,564,561,574,568,586,561,586,585,
586,586,586,582,561,599,558,571,555,555,582,581,561,599,557,572,
598,585,598,596,575,578,579,557,571,564,575,592,599,562,589,582,
581,565,562,598,588,579,555,588,555,557,599,564,578,572,555,596,
572,568,558,599,562,588,574,599,554,554,586,571,564,555,568,561,
575,568,578,575,558,585,598,595,599,562,568,558,596,596,588,592,
581,581,579,557,574,596,579,581,565,554,589,586,568,581,579,599,
565,572,599,595,568,558,572,562,592,582,595,596,595,565,568,568,
589,596,554,585,588,589,558,578,574,595,596,571,581,558,565,571,
599,578,565,592,555,592,571,575,582,572,568,558,572,589,564,588
</chunk>
   <chunk x="-1264" y="0" width="16" height="16">
586,565,554,575,561,565,574,565,598,578,599,588,589,588,574,588,
568,575,599,558,585,554,574,562,558,585,595,568,558,557,572,588,
575,568,596,558,565,572,592,575,557,561,568,565,555,558,595,578,
564,572,557,582,579,557,585,575,581,596,561,589,555,574,585,582,
555,586,582,564,564,575,557,592,572,592,598,575,589,586,574,596,
574,595,561,596,595,586,572,564,561,595,579,596,562,562,588,581,
554,565,555,589,588,582,585,598,565,558,586,562,568,582,561,555,
565,554,575,582,581,564,596,562,596,568,554,562,592,564,578,585,
589,599,596,561,585,592,588,579,596,581,582,558,557,568,589,564,
572,557,588,592,562,595,599,592,558,582,568,582,571,564,581,554,
581,558,598,565,578,598,578,571,588,558,562,568,564,562,575,574,
565,589,562,586,572,561,555,595,572,568,572,586,557,572,578,561,
565,554,562,571,595,554,572,595,578,574,581,571,561,598,564,579,
571,562,558,596,572,557,568,578,579,586,565,595,572,581,554,575,
586,582,579,599,579,586,558,596,554,581,595,562,575,578,561,568,
589,574,599,579,586,568,596,581,585,599,571,558,585,589,592,565
</chunk>
   <chunk x="-1248" y="0" width="16" height="16">
568,585,586,564,586,562,565,562,582,565,572,571,565,575,595,574,
578,575,574,557,585,571,586,565,599,562,557,555,588,555,557,578,
599,582,572,562,588,558,589,581,555,582,554,586,574,589,578,562,
589,586,561,555,585,595,571,596,598,557,592,561,596,586,581,592,
578,596,564,568,586,571,586,599,586,592,568,574,564,586,574,568,
586,589,588,558,579,579,578,598,562,572,596,561,557,582,596,561,
557,595,558,557,575,562,592,568,575,557,598,571,558,586,562,596,
579,585,599,599,595,562,574,581,598,596,581,589,582,595,589,561,
561,582,562,555,589,596,582,589,557,572,555,565,588,561,572,588,
568,596,558,582,596,589,558,596,564,557,558,565,562,582,599,572,
571,568,595,565,585,558,575,557,595,589,561,554,571,557,555,555,
581,571,585,578,562,554,586,564,596,561,572,562,564,554,561,568,
598,565,555,581,554,575,599,581,562,555,579,555,588,572,574,596,
555,585,585,571,589,564,599,579,579,595,581,562,558,558,554,554,
561,565,558,564,575,592,565,592,555,588,588,557,581,579,592,554,
599,581,575,575,588,564,582,585,598,554,596,596,592,554,578,571
</chunk>
   <chunk x="-1232" y="0" width="16" height="16">
564,578,555,599,581,574,585,595,599,578,575,595,581,599,572,588,
572,565,554,574,589,565,578,582,578,578,586,557,588,599,565,589,
581,565,578,562,582,554,596,579,581,585,555,578,568,575,564,571,
592,561,571,588,578,562,586,592,558,581,564,598,578,561,596,575,
596,596,572,565,565,592,572,557,571,589,575,581,579,561,585,598,
555,585,564,561,598,582,562,579,571,579,561,555,561,596,595,582,
561,568,598,561,578,554,578,596,558,562,595,578,554,582,582,595,
599,568,582,558,561,568,592,564,595,561,574,558,588,574,571,582,
578,582,571,564,578,572,554,585,571,596,568,582,555,568,564,585,
555,571,585,565,589,588,564,588,581,555,592,599,575,555,578,595,
565,565,588,592,579,578,561,589,599,562,558,572,581,582,564,589,
582,579,558,555,574,574,592,554,585,568,585,575,574,574,581,598,
592,586,585,558,588,581,586,585,575,585,572,596,574,562,598,586,
568,598,572,582,582,581,554,596,598,579,585,562,571,562,585,598,
572,598,579,575,572,581,586,562,562,572,595,585,589,568,568,578,
561,557,565,595,565,564,595,579,582,562,592,592,582,568,596,578
</chunk>
   <chunk x="-1216" y="0" width="16" height="16">
575,589,586,586,564,565,579,595,592,554,555,558,586,592,595,581,
581,565,599,574,578,565,565,599,564,581,596,586,578,568,578,581,
579,596,598,572,562,575,561,589,596,574,565,588,571,586,555,598,
554,582,582,574,554,575,595,596,581,557,589,557,586,599,561,562,
586,598,592,568,578,582,589,595,598,596,571,599,592,589,562,558,
582,585,588,571,578,578,582,595,571,557,599,564,554,564,572,572,
592,589,595,554,579,579,588,557,565,574,565,578,557,582,595,579,
585,557,574,565,586,571,586,565,599,598,582,599,571,578,571,572,
564,571,599,555,598,574,574,585,589,595,595,579,581,555,561,557,
562,578,578,595,579,565,586,582,575,558,557,589,588,571,564,575,
599,585,558,598,571,586,596,555,568,599,588,554,578,582,582,578,
554,598,586,568,568,575,581,588,557,568,557,596,585,555,578,589,
589,578,585,579,565,574,581,598,579,565,555,554,589,568,592,579,
562,565,592,588,561,554,595,557,595,562,565,561,588,565,565,598,
582,586,565,572,582,585,589,589,557,574,579,554,599,564,582,578,
585,568,572,574,581,571,595,562,596,558,568,561,596,572,586,574
</chunk>
   <chunk x="-1200" y="0" width="16" height="16">
557,574,585,596,598,596,572,564,585,585,596,588,589,582,581,558,
564,585,555,565,557,572,595,598,557,564,586,568,557,589,558,562,
554,554,564,572,568,554,585,564,592,592,571,599,592,592,574,562,
568,596,565,555,554,565,588,581,562,588,562,564,598,572,588,574,
574,568,561,575,581,582,564,595,561,575,592,579,579,579,574,592,
555,572,581,575,586,579,579,578,592,589,557,589,564,588,595,578,
561,589,574,565,595,595,588,565,595,582,572,598,581,595,565,574,
585,558,565,589,598,596,599,596,572,572,564,596,561,596,599,598,
565,582,558,562,596,581,581,565,564,582,561,561,565,562,564,557,
595,582,554,585,598,579,568,579,562,565,574,558,572,598,565,558,
558,579,589,592,586,579,592,579,596,565,575,562,596,564,592,598,
581,561,582,555,575,581,557,579,598,586,585,557,599,585,578,595,
582,599,589,554,578,571,582,581,586,595,581,555,581,554,557,579,
579,568,561,582,596,558,595,579,599,592,586,586,592,562,589,598,
568,555,571,565,588,586,564,582,555,561,562,595,555,579,578,595,
565,582,574,578,588,578,554,571,565,585,574,574,564,585,598,588
</chunk>
   <chunk x="-1184" y="0" width="16" height="16">
562,568,557,592,596,598,561,557,558,554,568,592,561,586,572,575,
558,568,589,578,568,598,582,554,595,598,588,595,585,571,589,564,
581,572,558,575,585,595,588,554,581,574,585,565,571,571,599,585,
572,581,588,575,561,596,554,582,579,582,589,564,555,598,579,592,
572,558,592,554,585,586,568,558,557,598,568,565,557,561,564,599,
555,599,589,565,595,598,562,589,562,589,596,589,555,585,557,581,
596,589,572,565,558,561,561,562,596,586,575,564,599,568,582,582,
589,554,585,561,562,575,574,561,558,596,579,554,585,562,561,588,
581,555,568,557,557,589,588,598,599,554,598,595,555,575,564,574,
561,589,574,599,578,596,554,598,571,596,572,586,595,558,561,565,
599,586,582,558,555,558,581,579,592,589,564,572,596,588,565,572,
586,589,565,557,574,589,575,598,578,572,555,571,586,582,578,564,
554,554,568,592,595,595,558,588,582,581,571,592,562,575,578,575,
554,581,595,574,596,589,596,582,585,558,557,575,565,564,586,579,
572,596,557,555,579,558,579,572,598,562,598,564,579,595,558,554,
564,581,565,575,564,592,596,592,581,599,586,558,588,565,565,561
</chunk>
   <chunk x="-1168" y="0" width="16" height="16">
564,596,592,558,582,581,579,578,596,599,588,557,582,598,572,582,
564,592,585,572,572,589,599,595,585,571,575,585,575,558,561,589,
585,558,581,571,582,596,599,582,558,564,564,596,557,595,599,574,
589,562,562,592,592,595,562,571,564,599,568,581,558,578,582,582,
572,578,586,578,586,596,595,586,586,579,558,564,578,589,561,586,
571,564,596,595,588,579,558,599,595,555,592,574,595,598,568,568,
575,586,558,586,582,585,586,595,595,581,578,598,561,555,571,558,
596,582,564,585,589,555,558,574,599,557,581,585,561,596,557,596,
599,568,579,557,555,558,554,588,582,582,554,596,595,565,578,562,
586,598,572,561,578,557,586,585,557,554,599,589,599,555,585,572,
574,578,574,568,571,588,574,557,574,564,582,585,568,599,558,558,
581,571,554,595,568,561,555,554,574,592,558,561,571,571,557,561,
564,589,585,585,554,575,555,585,557,581,571,592,561,564,586,557,
592,575,585,558,582,561,581,592,599,574,568,585,598,574,596,575,
598,558,589,571,588,564,555,561,589,564,568,592,555,582,571,558,
582,581,578,558,592,582,554,571,572,578,595,562,565,598,595,599
</chunk>
   <chunk x="-1152" y="0" width="16" height="16">
579,565,579,581,589,586,561,581,592,571,557,598,598,581,588,599,
557,588,555,586,581,558,574,589,561,555,562,582,579,585,582,592,
586,562,582,561,561,585,581,595,589,595,565,585,585,579,568,585,
554,568,558,582,571,574,558,555,589,581,575,581,554,557,595,579,
565,555,568,562,579,574,578,572,586,562,557,565,557,588,599,586,
589,599,578,561,585,565,554,599,599,557,586,572,599,581,596,599,
575,562,589,557,554,554,588,575,592,578,598,589,571,574,571,558,
599,595,565,578,599,589,585,572,555,562,555,562,592,579,555,565,
564,586,555,579,598,582,578,588,568,564,557,581,599,589,555,558,
588,596,574,578,598,599,561,557,598,561,579,582,558,579,562,588,
599,571,555,565,588,599,585,592,565,579,589,562,586,555,555,586,
562,586,592,557,581,555,562,558,588,554,575,558,572,598,595,588,
575,598,581,572,586,589,579,599,574,557,588,589,578,578,571,586,
558,598,568,554,572,572,599,598,589,565,599,592,598,598,599,595,
557,557,568,555,599,571,598,585,585,557,581,561,572,586,579,568,
581,592,596,599,565,592,582,578,596,586,558,557,562,561,564,589
</chunk>
   <chunk x="-1136" y="0" width="16" height="16">
555,579,588,598,575,578,595,599,598,595,596,571,578,555,592,585,
592,595,596,557,558,592,572,596,564,554,572,581,568,572,571,575,
575,586,572,589,581,554,568,588,588,575,558,598,554,565,592,588,
595,561,585,596,595,568,574,554,572,558,562,561,588,599,568,586,
586,568,589,579,596,596,568,564,564,579,586,592,565,565,574,562,
595,572,582,575,595,579,565,589,581,578,574,572,588,558,555,568,
581,595,555,555,574,579,558,574,598,596,578,564,561,562,565,557,
598,599,596,598,574,564,562,592,592,595,554,562,598,561,578,568,
565,571,564,598,575,586,571,554,582,565,561,562,574,572,575,599,
595,565,595,598,586,557,565,581,586,581,564,596,585,574,579,557,
561,596,557,596,565,568,582,596,599,598,557,558,555,561,578,588,
568,564,565,586,585,554,571,582,572,575,572,575,586,554,589,561,
555,575,574,564,588,561,595,572,555,595,598,557,562,575,558,598,
575,561,564,572,599,578,586,592,572,575,574,599,592,595,568,581,
592,588,574,579,562,588,574,572,595,562,599,599,571,595,579,592,
588,596,557,598,598,588,568,574,562,578,564,568,579,558,598,572
</chunk>
   <chunk x="-1120" y="0" width="16" height="16">
586,596,595,581,586,599,586,575,561,595,578,554,599,562,581,554,
578,568,588,599,589,564,568,561,572,558,574,561,557,578,592,564,
585,572,571,571,585,579,598,561,596,586,595,574,565,589,575,588,
589,586,575,568,568,571,555,596,554,564,574,578,557,585,561,581,
571,575,572,564,596,575,579,574,599,589,586,581,557,588,572,574,
595,588,579,555,585,588,588,598,592,562,596,589,595,582,579,585,
581,565,558,555,557,571,599,572,596,589,574,585,599,572,572,598,
574,581,586,581,599,572,579,582,555,596,565,554,565,578,554,564,
555,595,586,572,592,575,585,561,581,562,578,568,572,574,581,582,
574,595,586,571,558,586,596,586,586,561,561,599,592,582,561,592,
572,586,562,596,599,571,564,568,561,586,554,572,571,568,586,585,
571,581,558,557,554,579,596,554,561,555,586,599,562,599,572,571,
561,592,555,554,572,554,571,558,564,572,555,588,572,582,585,582,
582,585,572,596,575,554,592,571,557,557,585,561,586,554,581,586,
599,589,558,555,557,588,568,586,581,574,575,582,588,568,582,555,
588,568,579,595,586,596,554,564,581,595,568,557,571,558,588,575
</chunk>
   <chunk x="-1104" y="0" width="16" height="16">
585,564,562,582,571,581,592,557,558,558,589,554,562,558,585,554,
575,564,568,562,581,568,557,588,557,595,578,579,599,582,595,558,
558,555,561,555,579,561,588,595,585,561,557,585,596,568,588,578,
571,557,562,579,561,571,557,582,582,565,588,561,555,586,578,568,
554,595,596,578,575,555,599,565,589,555,586,564,582,562,562,582,
575,578,592,599,574,588,554,599,571,596,571,572,578,554,579,582,
575,572,562,561,582,586,589,565,564,581,582,585,586,588,589,554,
565,598,572,596,596,558,572,586,586,585,599,596,582,581,562,564,
592,581,574,598,585,586,599,555,585,558,588,589,595,574,575,579,
575,554,599,571,571,575,555,585,581,555,555,562,585,557,562,568,
555,579,588,568,592,586,585,599,564,581,578,554,574,598,562,598,
582,564,557,578,579,586,582,589,558,574,565,585,579,596,555,561,
598,585,574,586,565,585,554,558,561,555,561,595,554,588,579,599,
574,588,589,588,565,568,575,575,588,592,595,578,582,574,586,562,
561,589,564,562,574,565,565,596,572,572,579,599,554,554,588,589,
557,574,585,572,572,582,579,595,565,581,579,581,595,555,578,557
</chunk>
   <chunk x="-1088" y="0" width="16" height="16">
578,592,579,581,595,585,585,572,571,595,582,595,554,586,564,562,
588,578,555,589,568,582,586,596,582,558,572,599,585,574,588,599,
571,595,586,571,568,586,586,555,562,561,582,592,561,585,574,558,
562,557,568,572,565,582,595,596,572,596,564,582,598,582,564,578,
589,555,575,585,554,572,599,582,557,554,586,561,585,561,565,561,
557,555,562,595,575,555,558,588,575,561,565,598,558,581,579,565,
596,564,562,558,589,581,588,562,568,598,571,596,562,595,588,558,
564,586,558,596,582,565,565,574,555,589,557,592,589,561,592,571,
561,586,582,555,578,558,582,596,585,554,581,571,562,595,555,589,
558,595,596,565,578,561,558,561,571,558,579,579,599,586,574,575,
579,585,588,586,562,592,555,572,595,572,595,589,555,586,565,581,
581,574,592,575,558,554,571,574,562,579,571,575,595,564,581,554,
596,561,571,571,564,574,579,578,562,558,565,557,578,581,557,588,
557,578,579,578,568,575,599,562,574,578,595,585,595,565,586,568,
565,592,578,579,578,574,557,571,592,589,568,598,557,557,565,565,
554,558,589,575,558,554,586,574,565,582,565,561,562,592,579,598
</chunk>
   <chunk x="-1072" y="0" width="16" height="16">
562,561,592,585,585,589,588,579,562,595,564,571,582,592,579,586,
571,561,564,595,589,581,555,589,565,581,579,598,561,555,565,586,
581,571,585,596,557,596,579,565,568,572,554,572,565,558,561,568,
586,555,578,554,599,561,595,558,579,571,575,574,578,575,582,564,
561,585,555,575,592,585,588,588,561,592,579,599,589,598,598,574,
561,562,562,555,554,572,595,592,554,578,564,554,578,578,599,568,
571,589,562,592,579,575,588,558,599,558,598,586,592,586,575,599,
588,558,588,572,554,571,588,599,568,592,585,582,562,586,598,572,
555,561,588,561,588,581,568,599,575,586,596,554,574,575,572,564,
595,595,588,596,592,585,568,586,596,592,562,595,585,588,596,557,
558,581,571,582,558,592,579,555,596,555,564,581,557,555,579,572,
586,586,562,586,555,588,572,595,557,582,595,572,564,592,599,585,
571,571,592,571,571,596,589,557,579,572,599,586,589,557,592,598,
578,595,571,595,565,571,589,585,586,575,562,568,592,557,578,581,
575,596,562,568,578,565,589,599,562,599,595,578,586,555,598,588,
558,561,571,574,575,565,578,578,586,568,568,574,598,564,579,581
</chunk>
   <chunk x="-1056" y="0" width="16" height="16">
589,574,571,598,565,586,568,585,562,558,579,562,586,578,558,585,
586,565,596,586,596,562,586,572,586,598,592,599,561,575,562,578,
561,555,558,598,561,561,554,564,598,599,571,562,598,596,572,585,
578,596,589,558,557,568,581,596,561,562,571,554,595,586,575,571,
561,558,572,564,589,579,599,586,582,585,554,578,579,586,585,585,
586,598,555,595,562,561,562,558,564,579,561,562,595,571,574,592,
578,581,574,568,595,579,578,586,565,582,561,586,565,579,585,557,
586,558,555,589,574,572,586,565,586,574,564,561,574,554,596,588,
585,588,599,558,586,562,585,582,589,555,578,578,588,582,572,561,
586,598,586,565,575,555,554,586,557,564,585,572,561,579,579,586,
554,582,571,561,588,571,585,585,568,586,574,554,568,558,578,581,
554,574,565,588,568,568,557,574,555,568,599,578,582,574,581,578,
585,572,561,578,596,596,555,579,586,568,564,557,579,557,589,595,
554,574,557,562,578,555,578,581,585,575,568,599,592,557,562,561,
586,592,578,565,589,596,562,574,598,562,592,568,575,588,585,585,
568,558,588,582,596,578,578,578,585,579,581,575,578,586,599,571
</chunk>
   <chunk x="-1040" y="0" width="16" height="16">
579,565,558,561,574,595,599,558,574,572,572,579,585,571,555,562,
562,564,579,582,586,561,581,578,582,557,558,595,585,568,564,585,
585,568,588,565,579,558,557,581,558,557,596,595,596,586,572,592,
562,599,555,558,588,574,578,578,599,596,574,562,595,562,582,599,
579,557,581,586,582,558,568,574,599,572,592,595,558,564,578,571,
595,575,568,589,579,582,581,578,564,588,558,578,585,575,581,598,
572,558,592,592,558,588,574,582,555,579,571,555,595,558,598,586,
571,599,585,557,582,589,562,592,571,562,564,554,564,592,555,565,
554,589,555,561,588,599,598,596,579,582,585,596,557,595,579,598,
588,589,571,592,558,596,598,574,557,564,557,564,554,578,596,585,
565,582,579,592,588,578,588,581,564,598,572,565,579,554,585,586,
575,581,595,579,555,595,561,582,554,574,557,588,592,592,598,582,
572,582,554,564,599,575,554,596,581,581,554,578,592,579,599,554,
575,564,589,572,568,586,572,596,582,561,558,571,578,596,589,564,
575,578,562,579,592,561,574,595,599,588,578,568,592,585,582,599,
581,561,558,588,575,582,586,578,555,574,579,557,586,565,598,598
</chunk>
   <chunk x="-1024" y="0" width="16" height="16">
586,575,582,564,598,561,0,0,0,0,0,0,0,0,0,0,
574,575,599,592,598,562,0,0,0,0,0,0,0,0,0,0,
555,578,585,588,565,557,0,0,0,0,0,0,0,0,0,0,
585,578,561,557,582,562,0,0,0,0,0,0,0,0,0,0,
565,598,562,578,588,581,0,0,0,0,0,0,0,0,0,0,
571,558,585,595,582,572,0,0,0,0,0,0,0,0,0,0,
554,571,568,578,568,561,0,0,0,0,0,0,0,0,0,0,
589,555,562,589,575,581,0,0,0,0,0,0,0,0,0,0,
572,564,582,589,579,588,0,0,0,0,0,0,0,0,0,0,
578,599,572,564,579,575,0,0,0,0,0,0,0,0,0,0,
571,571,565,561,561,575,0,0,0,0,0,0,0,0,0,0,
599,598,565,581,572,564,0,0,0,0,0,0,0,0,0,0,
585,575,565,564,558,596,0,0,0,0,0,0,0,0,0,0,
561,585,582,564,581,588,0,0,0,0,0,0,0,0,0,0,
565,575,557,596,586,585,0,0,0,0,0,0,0,0,0,0,
586,596,581,571,574,565,0,0,0,0,0,0,0,0,0,0
</chunk>
   <chunk x="-1376" y="16" width="16" height="16">
0,0,0,0,0,0,0,0,0,0,0,0,0,595,571,586,
0,0,0,0,0,0,0,0,0,0,0,0,0,585,555,572,
0,0,0,0,0,0,0,0,0,0,0,0,0,586,561,564,
0,0,0,0,0,0,0,0,0,0,0,0,0,599,571,571,
0,0,0,0,0,0,0,0,0,0,0,0,0,581,589,598,
0,0,0,0,0,0,0,0,0,0,0,0,0,554,585,585,
0,0,0,0,0,0,0,0,0,0,0,0,0,555,581,562,
0,0,0,0,0,0,0,0,0,0,0,0,0,564,599,596,
0,0,0,0,0,0,0,0,0,0,0,0,0,588,575,598,
0,0,0,0,0,0,0,0,0,0,0,0,0,572,599,589,
0,0,0,0,0,0,0,0,0,0,0,0,0,585,557,572,
0,0,0,0,0,0,0,0,0,0,0,0,0,599,579,571,
0,0,0,0,0,0,0,0,0,0,0,0,0,578,568,575,
0,0,0,0,0,0,0,0,0,0,0,0,0,554,555,562,
0,0,0,0,0,0,0,0,0,0,0,0,0,574,562,561,
0,0,0,0,0,0,0,0,0,0,0,0,0,562,574,582
</chunk>
   <chunk x="-1360" y="16" width="16" height="16">
565,586,578,589,585,595,581,554,578,562,572,582,554,575,562,564,
562,574,585,595,598,561,572,565,599,555,578,574,564,595,589,578,
575,595,565,578,589,599,582,595,565,582,598,595,599,561,555,572,
558,574,568,565,555,586,578,555,557,588,571,557,589,578,554,596,
572,579,571,599,571,557,572,561,568,582,574,581,599,574,588,565,
595,595,596,586,557,565,574,578,564,585,578,581,598,564,585,589,
564,575,582,561,568,571,571,599,557,554,555,578,562,589,578,565,
564,558,558,586,582,571,571,582,554,596,592,581,579,572,589,557,
564,588,562,585,574,561,589,592,574,589,554,592,562,562,592,582,
571,575,572,589,574,575,574,589,554,579,578,554,581,565,568,555,
562,565,574,574,588,572,574,565,599,595,598,586,598,568,561,558,
588,599,585,595,578,555,596,554,589,578,595,561,571,578,586,561,
596,565,565,571,555,589,586,558,561,592,579,581,589,554,555,578,
571,581,557,582,554,572,557,554,564,588,582,589,586,595,599,571,
561,568,568,599,554,598,581,586,562,589,581,558,562,581,574,588,
572,586,557,557,585,561,564,588,586,555,561,554,575,555,572,598
</chunk>
   <chunk x="-1344" y="16" width="16" height="16">
568,574,582,554,561,599,572,582,589,585,574,561,585,581,562,575,
585,562,568,554,557,565,596,554,568,561,554,586,557,571,599,582,
581,562,588,572,564,554,557,579,582,562,582,589,571,564,586,554,
571,572,578,595,557,586,554,586,579,572,568,585,562,596,592,558,
564,562,561,558,596,568,555,596,562,558,572,586,585,561,596,588,
586,596,574,589,557,558,561,562,589,572,562,592,572,564,598,575,
589,599,555,592,555,558,574,582,561,555,562,562,596,554,581,561,
572,555,562,558,579,558,572,574,561,586,588,558,568,578,571,574,
586,578,595,595,582,585,592,572,557,595,562,565,579,562,558,581,
571,565,555,595,579,571,574,589,557,585,599,575,564,585,589,582,
579,554,554,557,557,599,579,595,561,588,595,589,575,578,592,596,
581,582,588,588,575,599,555,564,596,589,585,595,554,557,582,586,
568,596,582,568,561,598,555,596,596,582,586,572,589,596,595,561,
596,586,554,572,554,574,579,555,578,589,585,589,599,558,558,582,
565,581,578,579,575,585,574,555,562,589,598,568,596,555,565,572,
574,564,572,598,575,561,571,599,595,555,557,598,579,568,565,582
</chunk>
   <chunk x="-1328" y="16" width="16" height="16">
557,554,599,588,581,562,575,586,565,575,572,561,558,565,575,575,
592,586,574,592,561,571,555,557,554,585,557,578,558,574,581,595,
561,585,558,572,562,592,585,555,596,572,586,596,585,571,555,586,
579,578,558,554,589,598,568,572,598,572,565,595,578,592,562,578,
564,585,562,578,564,588,564,582,572,562,596,579,599,561,568,579,
585,575,568,595,554,572,595,579,585,554,571,578,588,571,579,589,
568,596,586,589,574,578,574,571,596,588,595,557,592,572,595,588,
574,586,574,565,574,561,596,599,574,571,575,574,554,561,557,564,
585,586,581,571,599,561,588,596,588,561,574,564,575,568,561,582,
565,574,595,555,585,561,586,598,574,571,557,575,575,586,586,586,
596,572,599,554,558,581,565,579,592,586,595,558,564,562,561,561,
579,582,572,598,565,562,595,564,592,595,572,579,558,588,585,582,
554,561,589,575,586,579,558,575,585,585,558,585,596,561,578,586,
599,564,585,588,557,555,595,574,555,575,586,572,588,592,599,588,
557,572,592,561,561,564,574,561,586,575,595,554,582,575,565,578,
561,592,554,565,582,582,565,575,574,554,588,574,588,592,586,562
</chunk>
   <chunk x="-1312" y="16" width="16" height="16">
586,557,598,579,575,558,574,565,555,578,595,579,578,575,574,561,
571,599,592,582,568,581,592,578,562,575,574,571,598,581,571,561,
579,574,592,598,557,578,582,582,592,585,589,595,588,595,561,599,
579,598,558,555,574,595,575,568,589,561,582,572,575,557,565,565,
596,586,579,578,585,554,599,588,582,596,582,574,574,579,589,579,
578,599,589,579,571,574,585,565,571,561,595,582,586,572,592,571,
599,555,588,588,589,557,561,595,562,598,564,575,554,558,592,571,
555,595,561,582,562,599,565,565,572,595,595,572,575,557,588,596,
557,586,596,586,557,599,557,571,579,588,578,575,554,557,578,599,
595,564,589,565,595,595,572,582,568,589,557,555,558,596,588,598,
565,578,572,579,554,558,592,555,574,598,596,578,596,596,579,555,
575,554,558,586,595,581,554,555,558,574,579,585,558,564,592,558,
558,554,598,589,557,565,568,596,596,599,582,574,596,571,585,581,
585,582,586,555,586,585,562,568,596,579,579,581,558,595,596,582,
586,574,578,578,581,599,586,586,595,598,588,572,588,578,578,568,
565,562,564,585,595,561,571,572,558,592,568,574,574,592,581,579
</chunk>
   <chunk x="-1296" y="16" width="16" height="16">
585,592,598,592,596,585,562,571,555,579,572,568,586,568,561,554,
564,561,568,599,599,589,574,585,555,562,554,582,565,585,564,598,
565,554,564,554,557,596,554,562,578,589,574,564,589,581,554,578,
595,578,589,564,571,588,561,557,574,595,562,558,562,557,588,598,
555,562,582,599,598,595,568,575,595,554,589,565,572,565,561,598,
596,555,572,571,578,561,582,596,554,568,592,579,561,574,588,596,
579,572,585,598,565,588,568,565,562,596,588,595,599,561,557,564,
579,592,562,581,592,558,561,581,568,596,554,581,557,557,598,585,
599,596,575,568,598,568,574,582,574,557,557,571,578,599,579,578,
572,558,554,579,598,582,585,565,578,596,572,585,586,571,565,578,
565,595,579,586,586,589,565,599,568,554,562,562,581,592,565,554,
557,596,581,589,592,554,589,558,581,554,578,595,582,599,599,565,
558,574,589,585,574,595,564,586,589,554,561,599,596,581,598,599,
554,578,599,575,582,575,589,574,585,568,582,555,582,599,564,589,
598,595,571,599,588,585,562,555,595,578,589,579,555,596,572,582,
575,568,565,579,595,554,571,599,565,588,581,564,586,586,564,599
</chunk>
   <chunk x="-1280" y="16" width="16" height="16">
588,575,581,568,561,589,561,592,595,574,592,554,555,571,599,571,
581,599,562,579,592,564,564,592,574,598,555,554,592,575,574,562,
562,572,558,561,582,588,596,598,558,585,568,598,581,578,574,579,
596,595,592,579,568,562,555,571,574,562,575,562,572,564,572,557,
585,581,582,585,592,586,579,568,561,579,595,579,585,554,581,579,
554,568,558,588,592,581,571,586,598,578,598,565,598,599,575,555,
565,574,574,565,572,592,579,579,568,578,554,562,592,579,572,599,
564,586,585,575,557,579,571,581,596,596,579,565,561,592,564,589,
555,599,589,578,592,568,579,595,588,554,598,586,589,581,578,592,
555,582,596,598,562,572,599,558,582,595,554,595,558,599,571,589,
586,598,589,568,589,557,565,571,561,592,572,596,598,561,586,565,
578,582,561,568,588,599,564,585,579,565,589,557,562,554,596,582,
586,575,554,578,596,575,596,572,555,575,592,555,586,572,555,599,
575,561,568,596,558,557,579,574,557,598,561,588,561,582,598,565,
581,562,592,588,565,599,575,592,579,558,596,595,585,586,581,554,
564,575,588,564,568,598,581,561,564,585,557,599,588,599,561,557
</chunk>
   <chunk x="-1264" y="16" width="16" height="16">
557,571,582,555,578,598,561,562,585,564,578,586,598,596,571,596,
554,589,581,554,574,555,578,595,581,561,557,598,574,589,571,579,
571,586,599,588,581,595,599,571,571,599,582,557,599,579,571,557,
572,554,589,561,574,555,572,575,586,575,588,561,585,562,554,565,
592,586,595,574,578,582,592,562,571,585,558,554,598,588,598,588,
592,558,592,592,586,581,571,596,592,595,575,578,555,561,585,581,
557,554,564,578,585,558,599,568,578,574,561,575,585,582,572,562,
555,575,558,588,571,561,568,599,572,564,572,579,554,572,592,557,
572,581,572,574,561,555,558,564,578,599,557,578,558,572,589,572,
564,596,571,575,588,575,585,598,599,585,575,554,596,571,561,575,
599,572,598,558,588,555,561,579,557,578,568,557,554,585,581,568,
574,588,564,581,561,599,565,561,581,562,581,571,598,596,555,596,
574,581,598,561,561,554,554,554,596,565,596,562,595,557,555,579,
557,575,558,555,579,578,565,578,557,564,574,595,565,596,598,589,
599,574,595,581,598,588,568,599,555,578,579,572,596,588,572,555,
581,581,599,599,589,595,554,586,588,599,555,555,557,562,589,579
</chunk>
   <chunk x="-1248" y="16" width="16" height="16">
555,595,557,575,554,588,582,572,565,598,575,575,586,585,562,564,
554,588,562,592,599,581,562,564,588,589,598,571,599,572,568,586,
579,585,586,586,557,589,592,585,579,581,557,575,565,568,588,596,
557,581,588,561,581,557,555,557,579,586,554,557,586,599,588,575,
595,599,564,557,599,562,586,555,599,571,574,585,585,555,596,558,
555,595,589,565,568,575,582,561,564,571,589,571,557,564,571,586,
558,565,554,579,555,565,595,554,589,572,561,568,571,598,598,592,
561,572,557,562,596,571,568,561,599,588,592,558,564,564,595,571,
575,596,574,598,568,571,562,558,565,596,598,579,564,579,564,574,
554,588,574,598,582,568,592,565,574,598,586,578,582,554,562,599,
581,564,588,558,582,554,595,571,575,599,572,562,582,558,585,596,
589,598,586,595,586,555,599,598,554,579,579,588,596,598,596,574,
571,586,564,578,575,599,558,572,564,562,564,571,561,571,555,592,
598,598,571,565,562,562,571,586,564,558,599,595,598,592,554,595,
564,595,578,592,572,572,565,578,554,592,568,565,554,561,586,582,
571,565,582,581,579,595,586,592,555,582,586,581,575,554,581,575
</chunk>
   <chunk x="-1232" y="16" width="16" height="16">
572,582,562,572,558,564,582,586,574,572,564,585,572,555,571,554,
582,579,564,561,582,596,554,562,586,595,575,581,581,588,568,599,
581,555,558,596,572,599,579,572,572,585,562,579,588,568,562,568,
558,572,582,558,558,572,598,572,598,568,564,596,588,575,595,565,
558,557,555,565,588,581,562,557,585,588,561,586,572,557,589,599,
599,589,598,558,568,565,571,588,555,581,592,568,561,589,589,574,
574,585,579,598,564,582,592,596,595,585,564,575,595,558,585,598,
564,595,585,568,561,578,582,585,558,568,571,565,589,588,575,581,
579,574,558,564,586,571,592,574,592,554,555,574,586,575,568,578,
595,598,565,596,571,574,564,575,586,592,568,589,589,557,592,571,
572,562,564,595,596,578,571,599,555,558,595,588,596,565,568,564,
581,588,582,581,572,598,575,582,555,565,554,557,579,558,595,558,
589,578,599,562,572,581,582,599,558,562,586,565,599,578,554,579,
571,572,555,575,564,555,579,599,564,589,561,589,564,588,578,575,
554,555,581,595,579,571,562,572,582,557,564,599,564,575,557,599,
564,562,557,562,554,585,596,568,585,574,575,598,592,581,568,554
</chunk>
   <chunk x="-1216" y="16" width="16" height="16">
571,568,568,589,585,558,595,582,565,586,555,598,595,555,564,555,
554,558,574,582,595,558,574,554,592,586,555,561,565,562,581,568,
565,565,554,564,571,561,595,575,599,554,554,572,575,598,565,565,
562,579,575,568,585,592,575,571,565,592,555,579,568,557,568,562,
574,572,562,589,581,582,558,564,575,589,565,571,574,586,571,564,
555,599,588,586,561,574,592,561,564,589,564,588,592,581,586,571,
598,581,578,589,572,598,555,581,582,582,565,574,554,558,585,598,
592,572,555,558,578,586,568,555,557,579,575,564,589,581,558,558,
575,578,554,564,592,599,568,592,564,596,586,558,562,598,581,595,
561,588,562,582,575,554,589,574,574,585,595,592,575,586,571,578,
598,579,562,561,564,592,592,599,562,578,561,596,557,599,562,588,
572,586,586,561,596,561,588,581,588,585,558,572,562,598,562,561,
588,568,571,589,599,575,595,565,595,588,586,561,588,578,582,581,
596,599,589,574,585,562,586,575,554,554,595,595,574,568,579,581,
572,568,557,554,572,554,581,589,565,588,578,592,572,578,554,585,
578,575,582,574,596,589,555,578,564,555,561,555,557,589,561,572
</chunk>
   <chunk x="-1200" y="16" width="16" height="16">
589,598,555,564,568,589,561,562,599,598,592,586,592,582,562,582,
568,596,579,557,579,599,554,564,561,585,586,564,574,575,562,564,
561,574,585,575,598,596,568,592,581,568,564,578,592,586,555,595,
595,589,575,579,596,581,599,565,558,599,589,578,571,565,574,568,
557,572,557,592,588,555,599,585,589,599,574,565,588,578,599,596,
598,562,575,579,581,585,581,554,596,571,572,589,561,581,586,582,
555,574,592,589,554,568,596,592,592,589,581,555,575,581,579,598,
561,574,554,589,568,575,586,582,588,578,592,558,598,571,589,575,
589,592,571,582,599,588,599,579,589,598,554,581,555,575,589,592,
596,581,579,558,592,555,598,595,595,555,581,554,578,564,554,557,
564,592,574,578,557,562,575,558,565,575,561,571,555,579,568,599,
581,554,575,574,575,596,586,589,581,579,589,578,562,574,561,555,
586,575,568,595,598,568,568,589,596,572,565,568,585,592,585,555,
588,558,588,592,589,582,592,598,557,578,582,558,595,554,564,554,
582,598,562,581,575,562,586,588,558,555,562,574,578,599,582,592,
565,562,599,579,592,574,572,582,588,581,599,562,588,557,558,561
</chunk>
   <chunk x="-1184" y="16" width="16" height="16">
562,578,574,561,575,588,572,562,561,581,588,554,561,588,586,589,
561,562,579,595,571,557,572,565,586,571,555,595,588,572,562,595,
592,574,598,564,598,555,561,588,562,585,562,589,565,574,581,592,
599,589,574,589,588,592,595,592,592,581,557,555,582,598,568,599,
596,555,574,581,592,599,568,585,589,599,558,561,565,558,562,564,
561,568,571,579,589,558,581,585,554,578,568,572,585,578,581,554,
574,588,578,557,598,586,578,579,558,554,565,555,558,585,581,557,
555,586,589,572,586,582,558,588,582,575,598,578,586,585,565,572,
586,599,596,586,561,558,588,581,595,558,579,554,598,562,571,578,
585,572,579,575,568,572,561,595,596,554,561,582,561,575,557,581,
555,598,562,555,562,562,565,558,565,558,589,582,589,557,578,574,
564,586,599,555,554,558,581,578,561,575,581,571,589,598,568,565,
565,585,574,592,596,572,558,562,554,592,596,595,557,585,554,555,
592,554,579,585,574,554,568,585,598,558,586,557,582,599,564,582,
595,554,586,561,575,568,581,571,588,565,579,575,596,564,558,554,
575,554,574,572,571,589,575,578,555,571,554,586,599,582,598,589
</chunk>
   <chunk x="-1168" y="16" width="16" height="16">
572,558,555,582,589,571,575,575,565,592,595,554,575,571,554,599,
571,596,568,585,586,571,579,578,592,575,585,558,571,562,599,575,
564,578,562,554,564,557,562,586,564,599,599,586,578,571,585,572,
586,578,592,592,595,589,555,555,568,554,585,582,592,558,589,578,
565,568,589,575,589,572,592,598,575,579,572,557,558,571,565,579,
575,562,579,557,585,588,581,568,579,564,599,596,568,582,585,555,
561,589,565,595,558,554,596,572,562,598,578,588,554,564,561,595,
579,586,571,564,589,599,586,599,562,585,554,557,562,585,588,557,
568,568,589,595,582,558,571,579,561,565,575,589,561,568,599,555,
562,596,555,579,598,555,582,592,562,582,564,558,554,564,586,596,
571,565,564,558,565,595,558,599,578,572,565,578,558,565,599,595,
575,572,586,588,554,588,561,572,575,596,592,579,557,578,554,568,
588,574,574,561,578,598,562,588,557,582,579,589,598,595,595,596,
568,572,595,575,582,592,578,561,598,558,592,599,579,554,578,561,
568,557,558,585,596,572,592,555,571,572,557,599,562,558,557,582,
554,575,561,562,558,592,561,588,579,582,562,574,554,586,557,575
</chunk>
   <chunk x="-1152" y="16" width="16" height="16">
558,596,596,578,592,578,588,588,582,589,557,571,596,554,575,589,
555,592,596,599,564,596,582,585,598,592,572,581,585,589,574,592,
562,572,599,562,555,582,599,579,596,562,574,558,565,574,595,586,
581,579,588,564,571,554,561,574,565,562,574,554,562,557,592,571,
588,555,592,572,582,554,564,572,574,574,595,565,568,595,599,571,
554,598,564,572,575,579,554,554,572,596,592,557,599,596,578,595,
561,574,599,596,578,581,582,564,592,557,554,582,596,562,592,564,
568,565,557,579,585,565,557,586,599,588,568,589,571,555,574,598,
555,596,571,574,554,582,596,572,554,575,555,592,564,571,579,564,
581,575,568,598,579,585,588,555,571,599,598,582,555,561,581,586,
574,595,575,555,578,571,555,598,596,592,579,554,575,598,574,564,
568,574,557,589,564,568,599,572,575,585,574,564,589,588,555,579,
571,599,579,582,599,572,562,575,581,598,558,589,578,579,565,596,
558,565,572,582,568,564,574,578,554,588,565,558,574,579,592,598,
581,575,581,578,555,579,578,565,575,582,571,568,586,595,588,561,
555,586,557,579,579,589,571,562,555,565,599,565,575,582,565,599
</chunk>
   <chunk x="-1136" y="16" width="16" height="16">
565,554,564,599,571,599,568,588,592,579,588,554,575,588,571,564,
554,585,571,562,581,554,572,598,579,578,554,595,554,581,578,572,
588,574,562,588,565,557,561,589,581,592,561,575,595,575,565,599,
565,564,582,568,589,586,578,568,572,558,558,561,575,571,578,599,
585,554,599,578,581,582,582,565,561,588,555,596,592,588,557,596,
572,578,599,586,561,588,568,579,599,572,589,598,571,564,596,599,
562,589,579,574,596,589,588,596,568,598,565,568,582,598,578,555,
571,572,575,564,599,595,568,585,571,592,572,554,599,568,588,581,
568,592,579,572,598,561,585,554,575,568,564,592,582,557,578,564,
568,558,596,572,585,555,585,596,582,555,582,568,595,565,578,572,
575,581,598,561,565,579,581,586,554,555,564,586,578,598,557,565,
562,558,582,595,558,568,581,568,592,565,555,575,564,586,565,582,
575,582,572,555,586,561,557,558,574,574,568,575,585,561,557,574,
585,564,571,598,595,585,585,595,565,595,571,564,588,568,574,589,
564,596,589,588,572,562,596,592,558,588,574,557,595,565,595,561,
575,596,588,568,585,571,585,598,582,575,575,581,588,572,592,579
</chunk>
   <chunk x="-1120" y="16" width="16" height="16">
595,554,571,562,598,586,598,578,595,582,574,599,589,568,598,558,
554,579,574,581,579,555,554,558,572,554,581,555,564,571,579,595,
572,596,589,564,558,596,557,579,592,596,579,581,581,558,589,582,
579,578,571,565,578,557,558,571,565,562,575,586,575,596,555,596,
564,568,585,555,561,558,598,572,578,555,592,557,586,578,595,598,
571,588,586,598,578,575,558,575,581,585,585,574,578,578,578,599,
557,588,571,588,596,595,588,599,555,572,598,562,574,555,598,592,
558,599,596,595,589,588,598,595,561,588,568,581,582,582,592,588,
596,579,555,578,564,588,571,565,596,599,592,582,596,579,558,592,
574,574,582,588,571,571,562,565,588,578,564,568,588,588,588,585,
588,588,579,581,561,595,565,554,585,595,565,582,565,568,579,585,
562,571,572,586,557,589,578,554,561,565,595,589,592,582,572,565,
555,554,595,562,581,561,582,582,557,557,595,574,561,574,592,586,
561,568,575,554,565,595,588,575,585,575,571,565,588,592,558,574,
599,574,554,557,557,592,571,589,598,568,575,579,582,588,557,557,
588,578,562,588,578,589,568,585,579,586,599,575,599,557,598,595
</chunk>
   <chunk x="-1104" y="16" width="16" height="16">
585,574,574,561,598,589,571,581,574,579,568,555,592,598,555,588,
596,575,586,595,585,589,585,578,588,592,561,598,585,586,581,578,
574,557,555,595,598,558,568,565,578,589,574,557,588,561,589,572,
565,578,558,578,568,575,561,578,568,596,575,586,562,599,589,557,
565,572,564,582,586,599,554,572,574,565,586,554,565,574,598,585,
557,582,595,565,558,588,575,558,579,589,572,565,561,558,582,589,
586,555,572,565,586,572,572,585,578,581,561,589,598,588,561,588,
574,562,564,598,585,575,568,558,555,572,588,596,575,558,598,595,
579,588,581,555,599,571,592,562,578,599,558,575,575,555,598,574,
595,565,588,575,572,595,554,598,586,572,598,554,598,557,564,596,
586,554,578,564,579,562,564,592,586,562,574,598,575,562,585,574,
579,571,565,571,578,572,588,582,598,589,579,595,578,562,568,555,
575,568,554,565,582,596,585,564,571,557,579,585,588,574,581,574,
571,598,581,565,586,579,582,564,558,557,554,564,557,589,571,572,
579,578,572,578,555,557,598,582,565,572,572,568,557,565,579,585,
595,555,578,581,571,558,578,564,557,579,557,568,564,599,562,581
</chunk>
   <chunk x="-1088" y="16" width="16" height="16">
581,564,579,557,579,554,581,588,568,578,586,578,571,586,595,585,
565,562,561,571,558,598,578,595,562,572,589,585,568,554,554,561,
581,568,588,554,558,561,565,555,589,588,555,555,595,571,596,575,
589,581,574,578,595,579,598,595,572,589,561,595,581,586,574,557,
571,578,557,588,582,585,561,596,579,581,596,578,565,575,595,571,
568,592,574,589,578,598,574,585,585,575,582,589,581,557,579,575,
578,571,596,572,578,565,596,571,564,568,582,596,562,596,564,581,
554,582,579,571,592,596,562,568,588,568,571,571,564,572,564,555,
596,565,575,575,588,555,588,558,557,598,586,585,557,554,562,565,
574,596,574,595,599,575,554,574,585,561,588,574,592,574,568,578,
588,554,575,572,581,581,568,561,586,554,555,572,598,561,568,561,
588,589,565,586,561,598,555,581,596,568,562,555,588,568,585,581,
599,589,589,568,568,561,562,578,574,581,582,571,557,582,574,558,
574,588,586,595,568,592,599,592,588,592,596,562,558,555,564,568,
582,592,592,557,579,599,561,585,586,558,595,579,568,586,572,579,
599,571,588,582,598,586,558,557,557,598,558,558,592,557,565,588
</chunk>
   <chunk x="-1072" y="16" width="16" height="16">
582,568,554,599,562,596,564,571,571,579,586,581,595,558,561,557,
592,595,585,588,599,574,562,589,564,561,578,592,586,565,572,595,
571,562,565,565,572,579,572,564,578,564,592,589,555,596,585,562,
564,561,561,574,562,581,589,585,557,585,599,571,578,579,578,568,
561,562,581,582,555,595,578,554,554,581,578,581,571,565,581,586,
579,557,574,561,574,564,575,571,568,571,586,555,589,596,581,565,
578,575,568,579,582,562,579,565,561,574,586,571,555,557,599,585,
572,598,571,589,586,599,554,582,596,586,581,565,574,585,562,579,
561,562,561,596,554,596,554,578,578,598,562,599,585,598,586,596,
579,578,571,578,562,558,562,572,575,598,599,582,588,558,574,588,
586,588,561,571,561,562,557,568,554,598,589,572,568,564,585,582,
565,588,571,585,575,579,589,588,564,561,598,565,564,568,571,565,
586,581,585,598,588,562,582,565,557,558,585,589,582,555,568,585,
586,568,557,579,572,592,592,585,585,588,565,557,554,595,579,554,
589,589,596,575,586,582,585,579,592,568,579,554,589,557,564,592,
595,564,572,575,599,557,555,595,571,572,558,592,588,589,598,574
</chunk>
   <chunk x="-1056" y="16" width="16" height="16">
574,588,554,568,588,599,596,588,562,579,596,574,592,598,578,589,
571,596,582,595,558,557,555,596,554,585,572,589,596,581,555,582,
562,585,589,599,575,592,588,575,572,599,595,575,575,557,565,578,
578,554,555,561,592,562,585,561,562,562,572,596,595,571,555,568,
592,589,582,565,565,554,586,568,554,581,595,578,557,586,555,564,
557,574,568,564,575,582,592,585,565,575,568,564,589,571,561,571,
586,596,565,588,568,572,581,582,571,595,564,599,596,562,574,564,
558,599,588,595,585,572,585,558,568,564,598,572,596,585,582,588,
571,555,572,562,561,562,574,586,598,558,586,581,562,592,561,582,
592,564,586,598,585,599,588,582,574,599,599,596,564,585,581,561,
565,575,585,585,588,582,564,579,555,592,592,579,562,588,585,592,
571,598,564,571,592,555,557,558,562,582,558,581,595,565,599,585,
575,558,598,575,568,564,557,557,557,572,588,581,562,582,578,572,
557,599,582,557,578,578,586,554,561,579,574,564,561,554,555,598,
599,554,592,575,558,592,592,598,598,589,589,564,585,592,561,568,
592,579,595,579,589,572,582,574,555,557,581,586,596,599,586,557
</chunk>
   <chunk x="-1040" y="16" width="16" height="16">
558,574,582,574,596,564,558,598,555,599,598,575,557,565,579,589,
578,578,575,599,562,592,588,588,585,565,599,578,595,555,558,562,
561,575,586,595,589,572,555,555,568,579,599,581,555,595,592,562,
579,575,586,586,564,575,596,585,574,558,596,585,595,564,588,582,
596,564,592,586,568,578,568,585,589,599,562,554,572,595,581,589,
585,589,588,586,596,571,557,568,572,558,595,581,565,564,572,561,
571,564,595,598,579,562,564,585,588,589,558,595,562,564,581,558,
588,585,562,586,568,561,599,574,581,592,565,595,586,562,571,579,
596,555,557,598,585,582,588,589,582,582,574,555,592,589,564,572,
581,554,555,588,561,581,598,564,578,562,558,588,598,579,565,568,
596,557,578,596,564,561,598,585,557,562,557,571,589,589,596,564,
598,555,598,589,562,561,579,557,555,574,572,555,561,592,562,572,
581,598,595,565,599,555,557,586,592,558,574,557,558,581,564,592,
568,562,554,554,596,561,568,588,581,586,588,554,599,578,557,588,
599,588,561,568,578,561,596,555,582,565,592,565,561,596,557,572,
598,595,558,579,579,578,595,589,588,575,585,558,562,561,582,598
</chunk>
   <chunk x="-1024" y="16" width="16" height="16">
578,557,598,585,561,574,0,0,0,0,0,0,0,0,0,0,
592,585,582,554,586,598,0,0,0,0,0,0,0,0,0,0,
554,564,557,581,557,562,0,0,0,0,0,0,0,0,0,0,
564,568,572,562,588,579,0,0,0,0,0,0,0,0,0,0,
554,562,599,589,555,565,0,0,0,0,0,0,0,0,0,0,
585,561,578,592,564,581,0,0,0,0,0,0,0,0,0,0,
564,585,558,595,588,586,0,0,0,0,0,0,0,0,0,0,
586,571,598,574,592,586,0,0,0,0,0,0,0,0,0,0,
557,568,572,555,579,581,0,0,0,0,0,0,0,0,0,0,
568,586,558,575,558,572,0,0,0,0,0,0,0,0,0,0,
581,557,564,595,585,565,0,0,0,0,0,0,0,0,0,0,
582,588,588,581,568,557,0,0,0,0,0,0,0,0,0,0,
557,582,562,579,585,575,0,0,0,0,0,0,0,0,0,0,
579,571,598,596,568,557,0,0,0,0,0,0,0,0,0,0,
598,599,582,582,555,599,0,0,0,0,0,0,0,0,0,0,
571,568,572,564,574,554,0,0,0,0,0,0,0,0,0,0
</chunk>
   <chunk x="-1376" y="32" width="16" height="16">
0,0,0,0,0,0,0,0,0,0,0,0,0,564,554,586,
0,0,0,0,0,0,0,0,0,0,0,0,0,565,599,586,
0,0,0,0,0,0,0,0,0,0,0,0,0,555,596,592,
0,0,0,0,0,0,0,0,0,0,0,0,0,575,579,582,
0,0,0,0,0,0,0,0,0,0,0,0,0,564,568,599,
0,0,0,0,0,0,0,0,0,0,0,0,0,575,568,596,
0,0,0,0,0,0,0,0,0,0,0,0,0,599,581,598,
0,0,0,0,0,0,0,0,0,0,0,0,0,581,598,596,
0,0,0,0,0,0,0,0,0,0,0,0,0,571,574,574,
0,0,0,0,0,0,0,0,0,0,0,0,0,561,572,596,
0,0,0,0,0,0,0,0,0,0,0,0,0,0,0,0,
0,0,0,0,0,0,0,0,0,0,0,0,0,0,0,0,
0,0,0,0,0,0,0,0,0,0,0,0,0,0,0,0,
0,0,0,0,0,0,0,0,0,0,0,0,0,0,0,0,
0,0,0,0,0,0,0,0,0,0,0,0,0,0,0,0,
0,0,0,0,0,0,0,0,0,0,0,0,0,0,0,0
</chunk>
   <chunk x="-1360" y="32" width="16" height="16">
572,564,571,561,572,581,565,579,581,562,579,568,571,579,596,574,
592,561,589,599,592,568,592,592,568,565,561,575,562,595,561,574,
585,588,596,586,599,554,558,598,588,565,598,589,562,575,574,554,
562,592,599,589,595,568,571,571,598,554,558,565,578,574,555,596,
554,582,582,571,588,598,586,598,585,595,564,574,585,568,588,578,
595,557,581,579,565,599,558,574,585,578,555,568,586,599,595,561,
571,586,578,571,562,562,589,585,565,572,557,568,578,574,588,575,
599,558,564,599,554,572,571,595,562,575,571,581,568,565,595,579,
582,572,589,557,562,588,561,589,589,581,565,595,565,592,572,592,
572,588,574,575,568,586,581,557,599,585,592,565,579,575,586,557,
585,585,585,585,585,585,585,585,585,585,585,585,585,598,561,568,
0,0,0,0,0,0,0,0,0,0,0,0,0,575,554,568,
0,0,0,0,0,0,0,0,0,0,0,0,0,595,582,592,
0,0,0,0,0,0,0,0,0,0,0,0,0,596,561,565,
0,0,0,0,0,0,0,0,0,0,0,0,0,0,0,0,
0,0,0,0,0,0,0,0,0,0,0,0,0,0,0,0
</chunk>
   <chunk x="-1344" y="32" width="16" height="16">
586,592,582,554,575,564,562,579,581,574,579,572,574,595,568,578,
574,561,578,596,598,572,572,586,579,554,568,585,589,572,564,586,
585,582,562,572,558,557,589,568,589,592,557,595,557,561,572,562,
562,557,572,575,589,598,589,588,571,595,585,565,586,592,592,571,
568,555,589,582,561,596,596,557,562,562,599,565,558,581,558,568,
575,582,575,558,596,568,561,582,554,586,555,585,588,596,596,579,
562,589,557,558,565,568,586,571,592,561,592,585,578,557,579,565,
598,582,592,557,558,562,575,575,579,582,561,599,599,554,599,575,
562,581,578,571,588,586,555,578,579,571,571,598,592,599,589,571,
575,581,571,578,572,572,582,595,588,598,595,585,575,589,588,568,
595,561,581,562,555,586,564,586,585,585,585,585,585,585,585,585,
561,589,564,595,572,558,579,592,0,0,0,0,0,0,0,0,
558,582,581,575,554,579,599,592,0,0,0,0,0,0,0,0,
588,575,561,571,598,582,575,565,599,586,555,572,592,571,595,592,
0,0,0,0,0,561,596,581,558,557,555,568,585,564,564,564,
0,586,596,589,579,568,581,572,579,599,578,599,585,562,586,586
</chunk>
   <chunk x="-1328" y="32" width="16" height="16">
571,562,595,578,585,575,571,579,599,599,582,585,562,588,599,596,
564,571,565,565,575,596,568,595,578,557,562,558,564,578,554,589,
564,575,592,555,575,575,585,574,561,565,598,574,579,588,562,564,
598,578,572,588,565,588,578,562,598,568,568,565,581,599,568,582,
568,592,582,565,561,564,575,562,555,558,561,557,581,599,581,582,
558,578,561,558,586,578,579,589,574,564,561,578,578,596,592,579,
564,574,595,568,595,579,582,571,598,596,582,592,564,589,568,568,
571,586,588,575,595,595,572,581,586,571,596,575,558,561,562,574,
561,562,585,599,575,578,555,571,557,588,589,562,586,586,579,557,
595,564,568,557,578,585,585,585,585,585,592,574,598,561,578,585,
585,585,585,585,585,585,585,585,585,585,585,585,585,585,585,585,
0,0,0,0,0,0,0,0,0,0,0,0,0,0,0,0,
0,0,0,0,0,0,0,0,0,0,0,0,0,0,0,0,
578,596,582,588,564,578,599,598,562,592,585,558,565,571,572,599,
582,575,582,585,564,578,596,579,595,578,595,565,571,579,589,565,
589,562,555,598,568,564,581,579,582,557,568,562,564,589,564,565
</chunk>
   <chunk x="-1312" y="32" width="16" height="16">
579,599,585,555,599,565,582,565,564,571,596,558,578,575,554,568,
561,565,596,596,589,574,557,554,557,596,585,565,554,596,568,585,
595,562,589,582,575,574,564,575,564,586,585,555,579,596,585,595,
599,598,554,574,574,564,572,582,564,575,578,572,571,564,555,581,
561,588,579,586,585,557,572,555,598,565,572,555,595,588,579,595,
599,561,596,585,564,572,575,568,599,586,586,555,586,558,565,585,
586,579,561,579,581,595,572,586,565,589,589,575,562,596,588,558,
555,582,589,598,575,588,561,575,585,554,575,585,568,598,588,578,
558,571,562,586,581,574,571,565,572,575,575,589,571,595,588,571,
571,568,565,554,585,585,585,585,582,555,575,599,554,564,575,578,
585,585,585,585,585,585,585,585,585,585,585,585,585,585,585,585,
0,0,0,0,0,0,0,0,0,0,0,0,0,0,0,0,
0,0,0,0,0,0,0,0,0,0,0,0,0,0,0,0,
596,557,564,578,572,572,574,575,599,588,554,564,598,554,579,582,
564,599,558,588,588,555,571,586,585,582,581,588,581,564,592,557,
598,582,562,598,564,562,589,598,568,557,574,555,592,589,558,586
</chunk>
   <chunk x="-1296" y="32" width="16" height="16">
562,578,565,588,554,596,588,592,582,568,564,565,564,572,571,595,
557,554,578,575,558,596,557,582,598,562,574,599,596,581,599,596,
557,564,557,589,565,581,599,557,572,571,599,595,599,572,555,581,
568,581,554,554,582,582,557,562,578,558,599,557,598,571,598,562,
598,586,588,558,574,572,598,562,575,599,596,571,555,574,565,578,
595,575,565,585,586,558,571,592,588,554,565,582,589,571,575,579,
579,579,574,557,575,578,579,561,581,588,579,589,582,585,564,586,
565,574,554,562,555,575,557,582,595,575,598,558,598,565,571,565,
568,599,585,561,561,585,557,554,574,562,596,562,574,575,598,596,
578,572,585,585,585,585,585,585,585,585,595,572,564,582,581,572,
585,585,585,585,585,585,585,585,585,585,585,585,585,585,585,585,
0,0,0,0,0,0,0,0,0,0,0,0,0,0,0,0,
0,0,0,0,0,0,0,0,0,0,0,0,0,0,0,0,
586,574,589,579,572,578,599,574,558,581,578,557,558,579,554,582,
561,557,582,572,595,558,574,571,574,599,565,572,592,555,568,562,
571,572,571,575,589,568,581,564,586,595,592,571,575,582,557,554
</chunk>
   <chunk x="-1280" y="32" width="16" height="16">
588,581,558,565,585,557,562,555,589,555,588,554,574,557,574,562,
568,564,555,599,578,562,598,555,579,596,561,562,561,564,599,558,
568,555,571,554,572,586,595,596,579,568,568,555,582,582,568,595,
589,564,598,575,557,592,578,568,554,555,578,568,588,586,595,565,
575,592,578,565,598,558,571,579,564,554,592,586,574,578,557,571,
578,574,586,575,557,595,557,564,582,565,558,588,592,564,565,555,
588,561,564,589,586,588,575,588,598,589,598,599,568,574,554,599,
554,592,596,561,571,599,599,572,564,582,596,598,561,575,554,574,
599,578,585,571,581,592,554,557,554,585,589,568,582,558,578,595,
585,585,585,585,585,585,585,585,565,581,589,574,562,579,557,555,
585,585,585,585,585,585,585,585,585,585,585,585,585,585,585,585,
0,0,0,0,0,0,0,0,0,0,0,0,0,0,0,0,
0,0,0,0,0,0,0,0,0,0,0,0,0,0,0,0,
555,595,582,588,574,0,0,0,0,0,0,0,0,0,0,0,
599,595,575,586,565,586,598,581,561,572,586,574,558,565,581,589,
557,565,561,599,555,572,557,598,595,562,572,578,575,558,599,589
</chunk>
   <chunk x="-1264" y="32" width="16" height="16">
592,558,595,598,578,586,561,578,586,561,572,558,574,555,599,588,
574,565,585,586,568,599,595,596,575,558,555,578,581,554,554,581,
578,574,564,564,565,565,582,589,598,585,595,564,589,585,561,564,
571,554,582,598,586,578,568,586,562,598,574,596,555,555,599,562,
568,599,561,592,574,561,578,578,555,565,582,598,599,581,579,595,
598,582,596,581,554,598,555,599,572,596,565,579,578,565,572,558,
588,558,561,575,579,585,592,585,592,582,585,558,579,599,554,592,
554,598,596,578,568,565,586,564,596,574,554,575,586,574,568,595,
596,554,568,574,598,585,589,596,592,599,565,596,571,575,565,596,
574,561,586,554,554,598,574,575,562,575,588,579,578,561,586,598,
585,585,585,585,585,595,565,555,558,571,596,562,562,599,575,599,
0,0,0,0,575,582,564,581,555,555,557,586,562,555,575,582,
0,0,0,0,582,581,557,557,588,555,572,574,585,579,596,555,
0,0,0,0,564,582,598,564,572,592,572,565,579,578,564,598,
582,554,555,582,571,592,554,586,558,596,575,581,589,581,561,579,
582,588,588,565,564,598,568,599,558,599,592,557,568,579,555,575
</chunk>
   <chunk x="-1248" y="32" width="16" height="16">
558,598,582,571,571,579,586,585,581,558,592,578,561,575,586,595,
592,581,578,596,571,558,575,565,588,571,575,579,592,596,555,578,
588,561,572,588,585,586,582,575,562,586,581,571,555,572,555,574,
588,589,588,562,595,579,582,579,562,564,586,564,581,598,589,557,
598,599,562,579,578,555,557,589,557,599,568,572,558,582,579,589,
557,568,565,565,588,588,592,596,574,554,592,568,588,558,581,586,
585,585,554,579,564,599,571,575,564,572,562,596,586,599,581,555,
558,572,565,555,588,595,586,557,554,588,561,558,586,558,571,585,
565,564,598,579,555,589,579,572,598,595,575,572,575,596,574,596,
554,568,578,568,558,571,588,579,561,575,579,572,571,588,554,579,
592,574,595,589,596,585,586,582,599,571,581,575,561,564,599,581,
575,575,564,586,588,581,579,595,596,582,581,565,581,579,555,599,
558,554,562,579,582,555,589,555,595,578,565,598,562,579,554,595,
578,562,554,557,592,561,581,555,561,585,568,564,562,579,575,599,
579,575,596,582,554,578,592,571,585,568,554,585,588,598,579,575,
574,561,582,558,582,585,585,578,581,581,586,585,554,554,571,586
</chunk>
   <chunk x="-1232" y="32" width="16" height="16">
595,554,579,571,558,595,575,555,595,582,581,589,589,582,565,596,
595,568,572,592,592,558,557,574,572,571,571,562,564,574,592,588,
595,558,555,581,579,578,558,555,564,582,599,592,598,592,561,572,
585,575,555,568,582,564,599,598,558,582,595,582,599,574,554,565,
595,588,572,581,574,561,588,558,596,575,574,596,555,579,575,589,
568,581,589,555,586,562,568,558,582,568,595,596,571,561,578,564,
558,596,571,595,557,564,581,575,561,561,554,555,586,582,557,598,
558,578,565,578,557,595,578,555,581,581,585,574,592,578,596,598,
572,561,599,572,558,574,557,575,561,565,568,562,589,564,572,572,
565,564,564,554,582,572,579,592,588,595,599,555,575,592,555,578,
592,568,574,596,582,572,555,595,579,596,565,582,565,578,571,554,
596,589,582,565,586,592,554,562,571,585,561,592,557,596,596,555,
561,555,558,565,589,554,581,554,555,562,565,579,592,592,581,595,
581,596,571,575,581,558,571,558,582,564,585,598,578,555,574,554,
596,574,554,582,582,589,581,555,586,561,592,562,578,599,555,596,
589,598,592,557,575,599,575,588,592,586,596,557,557,581,562,586
</chunk>
   <chunk x="-1216" y="32" width="16" height="16">
565,585,579,596,585,589,562,582,555,598,575,578,557,592,571,582,
589,571,574,568,572,599,572,589,574,582,586,574,592,555,554,557,
562,562,557,557,599,598,585,562,574,554,578,598,588,571,575,565,
575,578,571,589,579,598,579,578,558,558,557,599,585,599,575,581,
554,562,571,592,578,564,572,598,599,565,558,586,585,565,581,598,
599,581,561,564,581,562,558,588,596,574,558,581,598,582,572,574,
561,596,578,575,561,562,588,564,582,555,572,586,564,575,598,557,
557,564,564,588,565,599,589,586,568,562,596,554,564,592,588,596,
588,579,557,554,596,565,562,572,581,555,589,582,592,558,571,557,
588,555,575,565,595,554,592,598,585,581,564,585,555,588,589,574,
558,572,578,588,588,571,579,599,555,596,599,575,557,562,557,562,
564,562,554,557,596,572,574,585,585,596,562,592,565,582,598,579,
571,589,555,598,555,561,589,592,558,555,592,582,578,589,598,586,
589,555,598,582,574,564,598,568,564,595,579,554,562,599,568,592,
555,586,586,592,575,581,578,592,574,579,592,574,562,557,592,585,
558,555,564,562,596,585,586,561,554,595,598,574,558,592,599,572
</chunk>
   <chunk x="-1200" y="32" width="16" height="16">
596,558,572,565,568,579,557,562,574,599,564,571,564,561,558,595,
595,598,588,595,574,581,568,579,557,595,581,581,555,564,564,579,
578,565,571,598,562,562,596,574,555,574,589,588,562,578,592,581,
558,561,599,562,565,568,555,557,575,554,592,582,598,598,595,574,
578,568,585,555,568,578,571,588,598,579,555,568,574,579,565,596,
555,588,598,589,568,568,581,572,565,589,579,555,588,575,595,571,
582,582,568,589,598,554,581,564,581,575,564,562,599,572,564,575,
581,564,588,598,568,557,592,554,561,561,572,581,572,574,558,596,
555,561,568,572,599,561,581,562,565,596,579,557,599,557,585,565,
599,595,564,568,595,595,557,589,581,599,568,586,574,557,596,599,
565,561,572,598,562,585,562,568,588,562,575,581,562,562,554,557,
579,598,578,578,599,599,572,588,588,557,564,589,588,571,575,555,
575,589,562,575,592,561,598,557,562,599,561,568,555,586,578,581,
596,554,578,578,561,565,586,574,575,589,592,598,586,555,599,557,
586,579,598,579,588,588,557,588,598,564,588,592,565,596,554,585,
572,557,558,575,571,565,582,586,561,592,589,565,572,588,565,565
</chunk>
   <chunk x="-1184" y="32" width="16" height="16">
592,596,562,555,575,574,582,564,596,571,588,555,572,575,588,565,
589,578,582,581,581,561,578,558,585,585,575,571,572,588,555,565,
599,579,568,571,578,575,571,568,574,562,592,554,565,578,592,595,
565,579,599,557,571,588,595,561,561,557,558,581,581,574,582,581,
596,561,561,582,572,578,582,564,568,572,571,555,596,579,554,585,
558,574,575,581,598,572,595,588,592,555,575,586,564,585,565,579,
595,585,565,572,574,598,575,579,592,557,586,571,578,589,575,596,
571,555,561,578,589,562,574,568,558,585,595,596,562,561,558,561,
572,595,557,578,562,572,579,586,565,586,598,555,596,557,585,562,
572,598,582,555,595,575,596,564,562,592,581,557,582,595,565,595,
582,565,574,571,562,578,575,599,589,562,561,558,558,565,557,598,
558,585,592,596,561,595,565,589,558,572,589,562,582,572,562,554,
554,596,565,592,581,572,592,561,596,555,585,598,578,598,575,585,
571,557,589,564,554,565,565,582,572,578,558,557,575,586,578,599,
598,564,579,571,581,595,581,582,572,586,574,568,592,564,565,557,
578,581,562,558,586,558,579,581,568,586,574,579,575,554,595,572
</chunk>
   <chunk x="-1168" y="32" width="16" height="16">
589,558,586,596,582,575,578,572,572,592,558,596,554,572,599,599,
555,572,565,562,592,575,561,578,554,568,581,557,558,586,558,581,
572,568,568,592,582,564,579,562,568,572,565,578,565,592,572,596,
581,561,575,562,579,599,571,589,595,572,586,575,588,574,561,586,
599,582,595,565,568,554,571,596,554,589,558,586,579,554,561,572,
568,574,596,561,561,571,598,561,557,571,562,572,595,554,588,598,
592,588,598,588,599,579,578,572,568,568,588,578,578,595,589,562,
579,572,558,564,571,592,554,554,581,564,555,599,589,572,581,581,
562,564,571,568,578,588,596,585,582,571,581,582,589,565,579,579,
588,565,595,585,555,598,582,596,575,582,571,592,557,561,585,585,
589,574,557,598,595,558,589,588,588,561,562,586,575,582,568,555,
565,582,574,554,595,572,589,585,586,558,589,586,581,599,561,575,
565,565,568,558,598,555,575,585,561,564,574,572,589,554,574,561,
554,585,596,565,557,589,579,581,575,574,585,598,595,578,588,565,
572,599,571,582,557,571,582,588,562,588,588,595,558,586,571,579,
581,586,592,598,564,572,596,565,575,581,586,596,585,557,582,555
</chunk>
   <chunk x="-1152" y="32" width="16" height="16">
558,581,564,575,599,582,588,574,558,579,595,588,585,571,589,568,
565,579,582,582,558,588,588,562,564,598,565,562,575,586,596,586,
596,575,578,588,581,585,562,599,575,557,589,582,582,554,588,586,
561,595,585,564,595,562,579,586,575,596,598,572,596,565,596,599,
572,586,592,568,575,565,575,586,568,588,596,582,596,578,586,575,
557,555,575,564,574,574,561,579,598,588,586,555,557,562,554,581,
592,585,592,595,578,579,582,588,564,561,589,572,571,554,579,579,
568,592,574,564,596,595,578,586,581,588,578,571,571,575,588,575,
599,596,579,561,579,562,562,572,579,595,598,578,589,599,555,568,
555,574,565,564,558,579,581,561,558,579,565,571,571,574,574,568,
575,581,585,564,562,599,595,596,558,599,568,557,579,578,558,592,
558,589,557,574,561,574,562,595,558,595,581,595,582,588,558,596,
599,557,586,562,574,562,599,588,585,596,565,595,581,565,568,574,
589,581,557,557,558,574,599,595,598,568,564,579,565,582,595,581,
592,588,572,564,599,572,585,555,555,558,588,592,575,578,571,588,
562,581,571,589,586,554,582,595,599,596,595,564,578,598,575,578
</chunk>
   <chunk x="-1136" y="32" width="16" height="16">
598,586,585,565,555,578,562,598,596,564,588,586,599,564,585,555,
564,574,574,579,599,562,554,572,595,589,599,554,586,589,555,578,
598,598,565,557,574,572,572,589,578,558,582,586,574,558,598,562,
555,598,592,574,596,588,572,589,557,581,589,579,572,592,555,585,
589,585,579,564,561,589,596,555,572,575,562,554,562,595,558,571,
561,582,554,555,589,558,582,595,564,586,574,599,578,558,592,598,
572,565,558,588,596,579,592,581,558,579,592,586,554,599,588,582,
571,582,572,562,596,554,579,579,572,596,588,595,589,588,599,589,
578,596,572,575,555,572,565,562,581,561,562,562,585,555,565,599,
564,595,598,588,557,572,561,561,565,579,588,589,555,557,572,586,
558,574,588,564,574,572,592,562,558,554,585,585,574,595,572,568,
555,561,596,578,585,582,564,558,564,555,558,578,565,572,592,582,
578,558,558,554,599,579,564,555,575,557,592,565,568,574,582,595,
561,574,578,554,599,585,595,568,562,562,572,575,557,565,557,588,
585,595,568,574,589,598,568,564,575,595,585,558,596,579,596,585,
585,578,589,596,599,588,568,596,571,578,575,582,581,557,586,578
</chunk>
   <chunk x="-1120" y="32" width="16" height="16">
561,599,564,555,586,596,564,572,589,572,574,588,589,558,561,586,
571,561,599,582,562,561,592,565,562,565,592,581,595,564,562,574,
598,557,598,581,568,579,555,564,575,589,595,561,572,571,582,571,
557,595,581,565,592,561,561,589,561,578,586,578,592,581,592,589,
575,571,578,581,595,568,582,565,589,558,564,558,557,555,574,598,
555,592,572,565,571,581,572,564,579,596,588,568,579,581,564,589,
599,561,579,578,575,581,595,588,557,578,578,585,572,575,592,558,
574,579,564,557,562,574,589,599,565,574,557,595,588,589,557,554,
557,585,564,575,595,572,592,582,557,598,579,596,589,555,555,586,
561,558,596,599,589,564,595,557,598,579,564,564,595,565,592,586,
588,554,561,558,565,557,596,565,572,588,581,598,562,582,554,561,
555,599,598,574,595,598,598,557,592,571,558,572,568,572,579,568,
562,586,571,561,565,589,554,562,554,578,578,598,578,586,555,558,
561,575,561,572,596,599,585,554,585,565,558,564,574,598,565,586,
586,572,598,598,578,579,592,558,592,558,558,555,575,562,595,598,
596,586,586,574,589,599,554,571,595,558,586,585,595,557,599,598
</chunk>
   <chunk x="-1104" y="32" width="16" height="16">
574,586,595,581,571,571,579,582,572,561,581,565,555,578,581,596,
572,585,557,585,588,562,582,595,579,586,581,592,586,582,586,572,
589,568,588,574,578,581,581,555,596,555,589,599,595,578,564,562,
596,599,554,592,564,562,554,568,562,554,568,555,582,561,562,555,
575,596,564,585,555,571,579,558,554,564,579,571,592,598,599,599,
568,586,586,558,572,568,588,571,589,562,564,572,571,599,588,575,
588,599,599,586,578,561,586,565,565,554,558,588,586,554,596,579,
565,572,592,557,598,599,565,589,565,564,596,572,572,568,571,554,
554,596,554,554,572,572,555,579,579,564,568,582,595,581,596,581,
554,595,585,562,571,554,578,557,595,555,586,558,592,585,581,599,
592,599,592,557,555,585,582,572,595,581,571,596,558,596,598,554,
561,579,592,564,589,598,588,588,595,586,558,571,558,598,585,572,
582,554,565,592,589,589,574,579,579,589,598,555,588,586,555,582,
592,588,585,588,578,578,596,579,592,598,579,596,572,558,595,596,
595,568,588,558,579,599,554,568,575,555,561,572,598,562,555,586,
554,582,599,595,599,579,581,565,581,562,588,562,561,586,598,558
</chunk>
   <chunk x="-1088" y="32" width="16" height="16">
557,568,589,578,571,581,598,599,562,575,574,579,571,565,586,555,
589,555,585,578,571,595,557,557,598,598,557,578,562,554,575,564,
579,562,588,581,595,571,581,565,596,586,555,592,561,565,579,579,
562,561,585,565,554,581,586,565,599,578,582,574,557,571,588,575,
557,555,578,555,585,557,589,588,586,554,581,575,565,599,596,588,
588,575,581,578,586,572,572,592,574,571,562,579,596,581,572,575,
586,582,558,596,557,588,582,561,555,574,562,565,596,586,564,581,
562,562,554,585,557,571,586,565,585,599,578,589,595,581,586,595,
571,595,585,574,585,582,592,575,572,595,586,595,565,572,574,565,
568,575,599,582,557,595,558,554,586,578,565,555,598,585,571,555,
596,571,585,557,598,562,582,585,581,561,578,585,561,568,554,558,
589,564,599,588,554,588,562,599,568,596,595,589,592,565,564,575,
565,582,568,589,562,568,581,589,578,561,554,598,599,572,596,581,
574,555,595,561,557,554,565,564,586,592,581,557,574,595,561,585,
582,589,554,571,598,596,565,568,574,564,579,555,572,578,585,554,
598,598,596,579,596,586,585,575,555,599,595,565,588,585,555,568
</chunk>
   <chunk x="-1072" y="32" width="16" height="16">
585,599,555,557,581,557,575,581,561,598,592,595,579,557,581,596,
579,575,554,581,572,582,565,579,581,571,585,586,562,581,595,579,
579,574,557,565,595,588,558,596,585,574,555,578,572,568,581,571,
598,589,554,581,579,574,557,561,555,568,588,575,562,557,564,588,
554,575,585,555,588,578,598,596,578,554,554,571,554,564,575,564,
561,574,586,554,582,565,554,572,562,579,589,581,564,582,582,562,
589,582,596,588,562,554,575,599,568,592,564,588,578,599,558,599,
575,572,589,558,588,599,579,555,565,592,581,562,555,588,554,588,
585,578,599,596,586,558,581,555,595,582,568,562,578,585,557,561,
565,598,598,564,595,574,558,572,586,581,558,575,586,558,571,595,
586,582,558,582,589,557,585,574,589,558,589,586,557,598,562,572,
582,574,554,589,565,579,565,581,582,554,578,596,555,579,596,561,
561,572,581,575,558,598,568,598,579,561,555,579,596,565,574,589,
585,565,586,568,581,596,574,581,561,588,585,588,568,585,564,599,
598,572,568,588,574,599,565,599,572,554,596,555,596,575,586,557,
568,589,588,561,574,595,557,571,578,568,596,595,588,588,582,564
</chunk>
   <chunk x="-1056" y="32" width="16" height="16">
574,596,595,595,568,561,596,575,596,557,581,554,589,586,586,575,
554,588,565,592,564,598,599,571,582,571,595,585,582,575,571,579,
582,571,557,568,582,575,579,561,578,586,599,589,598,578,581,557,
558,568,599,574,554,558,578,586,599,579,555,554,581,592,562,579,
574,558,582,586,598,585,575,572,562,565,564,578,565,595,554,575,
589,599,555,581,558,565,592,554,588,574,586,555,586,585,564,568,
596,598,596,586,555,589,592,582,558,557,564,571,558,571,562,598,
558,568,565,558,588,579,574,578,585,598,592,557,595,596,582,596,
579,557,562,565,572,586,589,557,574,588,598,572,557,562,571,565,
579,598,557,598,578,574,555,599,581,592,592,586,554,589,554,578,
557,578,565,581,557,564,572,562,562,571,585,586,585,581,596,561,
579,588,589,572,579,571,599,574,599,565,589,589,592,579,575,579,
592,554,565,575,579,579,592,557,582,574,557,595,592,592,592,595,
599,558,582,555,581,568,555,588,568,554,582,554,574,574,562,557,
582,588,581,589,596,554,585,578,571,575,581,568,572,554,578,596,
575,595,572,562,565,599,578,571,598,598,575,578,575,562,565,555
</chunk>
   <chunk x="-1040" y="32" width="16" height="16">
596,555,561,586,572,585,554,574,555,565,596,586,589,588,578,561,
585,557,555,555,562,555,599,571,571,582,571,579,565,557,592,558,
595,599,598,598,598,598,595,561,555,568,581,582,558,578,575,589,
589,565,599,554,568,579,586,589,595,582,565,578,568,582,598,574,
558,581,555,568,561,572,562,586,598,572,596,562,554,575,574,565,
575,564,554,554,554,578,599,557,555,575,571,555,592,557,568,589,
562,565,555,565,592,598,592,564,578,568,588,558,572,572,564,596,
555,572,596,562,581,581,557,585,564,574,558,571,565,588,562,554,
565,589,599,592,598,574,595,558,565,575,596,582,568,599,589,555,
568,561,572,586,571,572,588,554,585,582,598,562,571,562,565,575,
579,557,575,586,555,599,571,572,578,596,565,595,581,582,586,578,
562,592,568,596,592,599,557,586,589,598,561,582,564,585,561,562,
555,579,581,572,586,568,588,596,564,585,581,592,592,589,598,598,
574,592,571,586,592,598,599,575,596,578,572,582,554,581,571,571,
561,586,592,557,578,592,555,579,599,564,575,581,554,585,585,596,
561,592,568,554,582,588,579,574,599,581,596,557,561,571,561,557
</chunk>
   <chunk x="-1024" y="32" width="16" height="16">
558,579,555,581,585,586,0,0,0,0,0,0,0,0,0,0,
598,561,568,574,579,572,0,0,0,0,0,0,0,0,0,0,
554,582,572,585,585,564,0,0,0,0,0,0,0,0,0,0,
579,581,599,565,564,579,0,0,0,0,0,0,0,0,0,0,
574,585,582,596,599,575,0,0,0,0,0,0,0,0,0,0,
596,565,598,564,581,558,0,0,0,0,0,0,0,0,0,0,
581,562,595,568,572,555,0,0,0,0,0,0,0,0,0,0,
592,586,557,588,572,599,0,0,0,0,0,0,0,0,0,0,
588,554,561,598,557,575,0,0,0,0,0,0,0,0,0,0,
554,568,565,578,568,564,0,0,0,0,0,0,0,0,0,0,
555,588,571,564,586,595,0,0,0,0,0,0,0,0,0,0,
558,565,558,585,572,599,0,0,0,0,0,0,0,0,0,0,
585,565,585,575,579,574,0,0,0,0,0,0,0,0,0,0,
554,574,568,562,589,557,0,0,0,0,0,0,0,0,0,0,
595,575,568,588,581,599,0,0,0,0,0,0,0,0,0,0,
595,585,578,592,562,598,0,0,0,0,0,0,0,0,0,0
</chunk>
   <chunk x="-1344" y="48" width="16" height="16">
0,557,561,571,598,595,592,588,558,574,595,571,595,599,599,561,
0,592,575,598,568,561,578,568,585,558,579,572,581,575,586,592,
0,571,588,557,596,575,598,579,598,596,572,571,571,581,555,562,
0,589,589,578,578,564,572,598,555,568,564,588,582,581,592,568,
0,598,592,561,558,578,578,588,582,599,599,571,589,581,589,592,
0,578,565,579,562,581,596,595,555,592,557,557,586,562,585,596,
0,554,557,599,561,598,596,557,572,598,572,588,574,586,557,554,
0,568,589,578,561,557,575,585,572,557,596,579,595,581,581,572,
0,564,595,561,557,596,578,579,578,565,554,564,557,581,572,578,
0,557,564,582,579,564,557,579,596,592,558,595,568,595,589,599,
0,557,595,578,574,599,574,571,564,571,596,571,574,595,592,564,
0,579,572,588,581,564,558,574,595,595,575,571,564,592,571,592,
0,575,595,588,557,595,592,578,578,562,585,571,561,595,586,554,
0,596,599,589,581,575,564,592,558,558,578,578,582,574,599,581,
0,596,589,589,585,574,592,565,589,554,564,592,598,555,575,564,
0,582,581,564,565,595,572,582,581,574,575,588,561,596,574,582
</chunk>
   <chunk x="-1328" y="48" width="16" height="16">
599,592,586,585,561,585,574,565,555,562,598,555,571,561,561,592,
578,582,581,575,578,554,557,589,571,588,596,585,561,586,579,599,
592,558,572,557,578,568,572,554,581,561,555,557,562,562,592,599,
588,589,557,557,585,589,572,595,581,561,588,574,596,558,599,568,
598,571,562,555,574,554,579,581,586,589,564,589,578,589,574,595,
571,585,571,572,574,586,585,562,571,596,568,571,586,555,585,564,
554,586,598,568,589,579,564,564,585,596,572,582,558,596,589,592,
564,581,575,586,599,555,578,572,562,572,562,589,565,595,589,558,
598,586,571,574,557,571,589,565,561,562,555,575,555,592,575,595,
572,582,554,598,592,557,598,575,571,562,588,592,595,562,579,585,
565,592,562,574,554,589,554,585,561,575,574,572,555,557,582,579,
578,561,596,589,558,558,588,588,565,596,562,589,555,585,574,598,
585,554,561,598,555,571,568,582,562,568,572,558,599,558,562,558,
582,572,558,568,595,558,572,596,578,582,588,579,572,574,599,571,
598,582,589,592,581,557,568,574,568,596,564,557,565,582,564,586,
588,575,585,564,598,571,598,574,592,578,585,564,589,581,581,565
</chunk>
   <chunk x="-1312" y="48" width="16" height="16">
571,557,581,574,561,557,582,557,557,599,578,565,589,588,554,589,
589,596,592,588,585,571,558,575,572,557,574,592,558,586,598,588,
579,557,581,571,574,564,596,561,575,581,554,564,572,558,589,562,
565,562,586,574,564,557,598,568,564,589,579,561,585,555,564,557,
582,558,582,595,554,586,557,565,575,568,599,555,596,596,585,561,
596,557,582,586,554,574,598,596,585,582,582,564,589,599,586,596,
558,568,599,564,562,562,585,579,586,562,574,599,568,598,592,595,
571,581,568,589,572,578,575,581,575,581,571,575,592,599,565,588,
586,554,578,574,574,557,564,599,561,574,596,586,588,554,574,596,
554,572,586,581,572,575,572,575,574,585,598,599,592,588,582,599,
564,561,578,557,596,574,557,565,596,562,558,578,588,565,574,557,
588,555,574,595,568,598,588,592,586,562,574,585,596,562,554,571,
564,595,579,589,575,555,564,558,579,585,582,585,572,562,574,586,
574,574,557,598,557,582,598,581,571,558,555,558,582,562,581,598,
571,575,581,596,565,562,565,588,581,592,558,555,575,568,598,575,
562,564,562,589,571,596,575,561,561,562,564,561,572,571,564,598
</chunk>
   <chunk x="-1296" y="48" width="16" height="16">
578,554,585,582,585,565,585,558,588,585,599,574,595,558,595,555,
558,589,592,575,579,592,565,564,568,568,581,598,564,581,568,581,
574,592,582,554,565,578,579,571,588,581,595,558,562,582,562,571,
554,586,582,575,581,557,562,565,558,571,568,575,565,557,562,588,
564,562,592,581,562,554,592,557,554,581,581,564,568,561,562,555,
585,586,598,575,568,562,581,554,585,564,557,568,581,575,557,599,
596,558,554,599,598,599,596,585,564,578,562,571,582,589,581,561,
578,592,564,589,588,598,565,554,572,596,595,599,578,574,586,588,
562,564,596,564,564,592,585,592,578,589,557,582,571,598,554,582,
598,581,598,588,596,557,564,575,555,599,557,572,565,581,574,585,
585,572,581,599,561,554,595,598,572,555,565,595,562,592,562,582,
598,558,595,586,581,598,568,572,578,574,568,578,554,575,555,561,
579,586,578,565,579,572,557,555,574,586,595,562,596,588,555,588,
562,595,571,575,579,564,575,598,588,598,592,572,572,562,574,599,
596,592,589,561,586,554,561,574,564,572,579,554,562,558,568,589,
565,586,572,574,581,564,586,595,588,561,568,599,585,595,585,586
</chunk>
   <chunk x="-1280" y="48" width="16" height="16">
598,588,579,571,585,595,579,585,596,555,586,579,561,579,557,571,
562,558,568,555,565,561,554,595,592,596,589,575,585,582,599,574,
565,564,574,575,599,588,554,562,589,581,568,598,586,554,599,571,
582,592,586,561,582,599,598,574,578,565,592,558,568,588,554,554,
557,554,561,598,592,578,562,579,554,579,565,575,592,562,589,554,
595,558,592,581,561,582,564,582,554,574,581,586,564,572,582,555,
595,571,578,575,561,588,572,568,564,568,596,554,588,562,562,588,
589,554,564,558,596,581,571,586,592,557,596,554,599,564,555,557,
554,579,589,558,572,564,579,571,575,586,598,562,554,579,572,588,
585,555,581,589,596,558,588,568,562,555,568,595,581,571,554,564,
555,557,586,557,555,581,572,568,585,565,571,575,588,558,586,574,
572,598,568,595,588,565,562,571,581,558,557,596,575,579,586,588,
572,562,565,558,555,571,574,589,554,568,579,565,561,579,585,555,
586,592,561,561,586,592,582,565,579,599,572,562,561,592,575,554,
565,585,554,585,589,592,589,562,596,558,596,588,579,568,555,557,
561,588,562,596,599,599,586,585,586,575,561,555,575,586,592,598
</chunk>
   <chunk x="-1264" y="48" width="16" height="16">
565,586,562,568,565,571,568,561,574,582,585,571,589,596,598,581,
574,554,557,575,578,555,558,554,596,579,598,571,599,574,592,575,
574,589,568,555,572,571,575,595,564,582,562,599,574,578,571,565,
598,574,581,557,581,557,574,562,568,568,554,579,592,592,589,564,
568,564,565,561,561,572,555,575,598,565,554,571,554,574,557,588,
558,571,558,557,578,561,592,574,579,561,589,588,598,555,599,575,
585,592,568,592,599,568,588,582,558,596,557,585,568,589,572,599,
565,574,554,561,578,557,565,581,572,586,557,568,582,599,592,582,
598,581,579,579,586,564,558,596,564,589,579,562,595,571,575,598,
568,592,595,557,574,598,599,596,575,582,575,557,592,562,571,598,
574,592,595,578,599,585,599,579,595,596,572,574,558,564,596,572,
572,564,574,586,589,581,575,581,588,599,572,555,582,581,592,598,
579,574,575,578,561,562,574,571,557,578,554,565,596,596,565,574,
562,586,599,572,554,599,564,571,572,562,585,585,592,574,595,588,
557,572,557,575,586,581,574,565,589,589,562,589,592,598,598,568,
562,581,581,555,586,572,596,589,596,557,555,562,564,575,596,599
</chunk>
   <chunk x="-1248" y="48" width="16" height="16">
561,595,596,599,596,561,595,568,571,568,571,558,555,581,579,596,
574,592,574,599,574,574,599,579,557,562,588,595,599,574,582,595,
589,554,574,571,557,555,596,572,579,581,564,554,575,595,554,599,
596,582,568,575,571,571,595,599,586,555,598,598,592,568,595,592,
586,572,565,561,571,574,574,557,571,588,571,565,568,586,555,582,
592,568,579,575,558,575,589,571,574,589,586,592,582,582,572,557,
586,596,574,565,579,598,596,571,578,558,557,572,578,585,589,557,
572,568,565,575,562,564,557,575,582,586,558,575,564,592,592,599,
599,558,578,572,578,595,574,561,596,598,562,582,554,595,588,555,
589,565,581,586,579,562,574,557,562,565,595,557,582,586,588,574,
595,562,575,561,581,592,555,562,586,561,592,565,575,574,595,572,
578,586,595,578,582,582,568,555,586,555,572,581,568,565,557,562,
557,589,565,596,585,585,586,561,589,581,564,562,558,571,589,562,
582,595,582,588,581,582,582,599,565,595,565,574,578,571,582,555,
586,564,596,586,589,575,589,589,589,562,582,579,596,554,579,579,
572,574,571,571,561,562,562,586,582,572,581,581,574,555,574,555
</chunk>
   <chunk x="-1232" y="48" width="16" height="16">
575,596,586,581,555,586,565,599,565,578,575,568,557,592,565,574,
595,564,579,561,572,554,575,588,557,581,572,589,554,572,557,558,
595,571,564,585,554,568,568,579,589,562,565,561,572,586,568,585,
554,574,599,572,582,558,588,595,586,578,574,558,578,572,575,555,
572,561,568,585,579,564,562,555,571,595,574,578,596,571,579,579,
578,578,599,581,586,595,557,561,565,596,558,585,558,578,581,595,
574,561,557,585,564,572,561,588,599,555,568,582,555,589,561,589,
557,586,555,564,592,558,558,599,582,565,575,554,585,595,585,598,
598,568,554,598,595,557,598,572,554,589,578,564,574,558,598,571,
568,588,575,564,561,562,585,564,557,572,554,579,598,586,555,565,
589,598,562,595,564,571,564,562,598,596,589,598,568,581,561,575,
564,592,565,599,588,599,596,589,579,558,589,571,598,595,578,558,
586,596,571,564,574,557,592,564,557,562,596,582,574,592,572,558,
574,554,557,565,592,599,578,571,564,572,581,557,561,571,589,579,
557,599,562,582,581,571,558,589,592,581,595,575,578,595,562,0,
579,589,589,561,575,578,568,574,555,554,579,568,579,557,589,0
</chunk>
   <chunk x="-1216" y="48" width="16" height="16">
592,586,557,571,562,582,585,575,564,565,554,575,596,578,564,599,
581,571,578,575,564,585,574,581,574,575,565,578,561,571,585,561,
598,557,579,565,562,554,598,589,574,572,557,582,592,596,578,586,
579,568,571,586,554,579,599,585,589,565,595,581,572,558,575,599,
578,596,557,557,575,586,565,578,562,557,572,568,578,598,586,574,
579,555,575,558,575,579,592,561,595,592,588,557,571,599,554,599,
564,581,579,575,582,598,595,575,592,595,568,564,557,574,565,554,
598,561,585,554,596,595,561,558,599,595,562,596,588,575,596,558,
575,595,575,579,599,574,579,568,586,592,564,554,582,598,571,582,
557,599,575,588,572,589,599,582,598,582,581,557,579,565,595,571,
588,572,564,574,596,598,596,564,595,574,568,562,555,586,595,555,
557,568,595,579,575,588,568,558,561,564,561,568,571,586,554,564,
554,589,564,579,578,598,589,561,592,572,595,598,568,599,589,554,
555,585,592,586,579,571,562,586,557,554,564,589,581,582,586,564,
0,0,0,0,0,0,0,0,0,0,0,0,0,0,0,0,
0,0,0,0,0,0,0,0,0,0,0,0,0,0,0,0
</chunk>
   <chunk x="-1200" y="48" width="16" height="16">
574,557,582,562,574,555,581,554,578,599,588,585,564,555,598,595,
581,588,581,598,575,598,585,588,565,581,581,572,555,571,599,596,
555,595,592,586,585,562,596,554,598,555,568,586,555,565,598,588,
589,575,562,588,596,595,565,557,588,581,571,574,574,565,575,555,
579,554,581,579,586,598,554,585,589,589,578,595,578,579,568,578,
589,562,578,588,578,578,599,581,572,595,564,561,572,586,571,574,
574,562,572,599,557,578,578,596,564,579,596,572,571,588,596,588,
585,579,595,578,574,575,599,581,554,555,582,579,574,581,598,581,
558,596,598,565,579,582,554,568,592,599,557,558,564,558,575,555,
555,561,558,592,564,579,598,575,571,589,561,554,596,581,561,581,
596,581,586,575,572,586,595,572,595,555,564,572,564,565,586,595,
564,561,596,586,592,586,588,558,578,561,568,574,599,571,562,572,
588,578,585,575,561,564,564,562,578,599,585,586,564,589,595,596,
585,592,592,596,595,557,599,581,555,574,565,575,571,572,555,574,
0,0,0,0,0,0,0,0,0,0,0,0,0,0,0,0,
0,0,0,0,0,0,0,0,0,0,0,0,0,0,0,0
</chunk>
   <chunk x="-1184" y="48" width="16" height="16">
565,565,578,572,562,554,574,581,581,558,571,595,575,575,557,571,
571,586,592,575,579,586,585,581,588,571,592,558,571,592,592,561,
574,596,572,558,565,588,562,565,564,585,598,561,592,582,572,572,
595,596,586,558,572,585,589,562,557,575,568,586,565,565,579,585,
558,574,575,554,596,598,596,555,578,568,575,579,588,565,554,574,
575,572,564,599,582,586,575,585,572,575,554,554,575,561,595,588,
557,578,586,579,585,575,589,599,578,561,561,589,561,571,571,555,
599,564,565,599,574,574,561,558,582,598,588,578,575,555,572,561,
555,585,555,582,554,572,554,554,588,572,554,598,598,564,557,555,
571,586,578,581,582,575,581,564,579,554,595,558,568,555,598,592,
558,561,562,557,581,555,572,562,585,557,562,555,574,564,596,582,
564,586,561,575,555,582,595,598,585,596,579,571,578,581,565,572,
558,589,578,596,579,586,596,572,585,599,586,595,578,585,598,598,
557,565,598,565,599,578,574,564,555,571,557,564,581,581,589,598,
0,0,0,0,0,0,0,0,0,0,0,0,0,0,0,0,
0,0,0,0,0,0,0,0,0,0,0,0,0,0,0,0
</chunk>
   <chunk x="-1168" y="48" width="16" height="16">
589,582,568,554,564,592,561,568,561,554,558,561,582,558,565,571,
571,562,582,579,592,571,558,562,565,562,592,592,581,554,598,562,
599,581,596,592,585,565,557,561,572,589,592,598,595,562,585,555,
572,565,568,572,581,585,555,596,574,586,581,585,581,564,562,589,
574,598,581,574,564,596,585,572,565,599,571,572,557,574,596,586,
595,565,572,554,575,589,564,554,571,572,582,579,592,554,578,595,
558,562,599,592,578,555,572,568,596,568,588,585,588,575,582,589,
585,558,598,575,589,599,557,589,579,588,599,582,578,592,588,585,
578,582,595,571,588,565,574,554,579,555,554,561,557,565,557,599,
561,572,582,571,558,568,581,581,596,562,557,574,554,564,554,599,
572,585,598,592,574,579,582,581,561,595,596,568,582,581,582,565,
595,572,592,571,592,598,572,581,572,562,558,568,565,596,592,592,
585,571,596,582,562,575,586,582,581,595,586,579,582,561,571,599,
568,586,564,561,595,562,555,568,586,589,589,557,574,572,575,592,
0,0,0,0,0,0,0,0,0,0,0,0,0,0,0,0,
0,0,0,0,0,0,0,0,0,0,0,0,0,0,0,0
</chunk>
   <chunk x="-1152" y="48" width="16" height="16">
586,588,588,598,595,558,589,592,572,568,568,565,595,561,592,574,
588,585,578,571,598,592,586,592,568,574,596,558,558,558,574,575,
574,575,571,596,585,557,588,561,558,596,581,555,596,562,565,588,
571,561,596,554,581,581,554,581,564,555,578,561,586,589,568,589,
582,589,562,585,586,561,574,592,557,592,561,555,554,574,596,595,
558,574,586,596,596,598,588,572,557,589,589,588,572,568,575,562,
598,586,599,581,588,582,599,595,579,585,564,565,581,582,554,578,
579,588,599,568,596,561,599,579,592,589,555,578,598,575,592,555,
588,562,598,557,595,557,589,596,575,578,586,575,571,564,595,558,
586,582,561,558,571,561,578,595,586,586,571,558,589,568,568,557,
581,562,585,554,599,561,574,564,578,589,564,599,586,589,599,595,
562,565,585,585,561,596,574,575,562,562,585,565,595,599,562,572,
596,589,555,585,565,585,599,592,581,586,589,558,579,564,572,599,
588,561,572,565,596,599,575,565,589,581,589,589,582,562,599,598,
0,0,0,0,0,0,0,0,0,0,0,0,0,0,0,0,
0,0,0,0,0,0,0,0,0,0,0,0,0,0,0,0
</chunk>
   <chunk x="-1136" y="48" width="16" height="16">
588,555,562,568,572,595,575,572,564,554,586,554,574,557,598,571,
582,579,599,595,571,565,554,585,554,574,586,555,564,598,598,575,
564,598,554,564,586,599,598,582,581,561,565,564,572,571,582,599,
575,555,586,595,582,581,599,586,575,585,579,592,581,575,557,599,
586,574,575,555,585,588,589,571,558,565,579,557,555,582,571,592,
582,558,555,592,575,595,561,561,565,568,579,589,554,589,585,595,
599,598,564,564,595,554,598,571,585,599,555,596,585,595,595,578,
572,592,595,579,588,557,598,572,589,555,562,572,562,575,561,578,
558,582,579,558,585,595,561,589,554,568,554,562,568,592,589,598,
564,578,585,586,592,558,555,561,585,568,579,588,562,557,554,592,
598,578,555,554,558,586,596,571,586,555,562,595,579,575,575,557,
558,579,582,574,555,572,558,557,558,558,596,575,557,558,596,571,
581,581,588,572,595,588,588,585,565,596,592,595,588,558,561,554,
574,599,557,599,555,575,592,588,595,581,557,588,561,599,586,558,
0,0,0,0,0,0,0,0,0,0,0,0,0,0,0,0,
0,0,0,0,0,0,0,0,0,0,0,0,0,0,0,0
</chunk>
   <chunk x="-1120" y="48" width="16" height="16">
562,561,574,585,588,595,581,568,565,592,564,595,562,562,557,557,
579,568,598,554,595,579,599,575,561,581,574,578,578,572,574,582,
595,558,599,595,596,595,595,589,582,592,574,596,598,562,562,595,
561,578,568,557,561,554,598,575,574,565,558,564,596,571,589,589,
581,585,558,582,595,595,565,578,557,554,599,565,592,561,572,586,
574,578,561,565,585,571,574,557,586,558,575,572,596,575,596,568,
561,575,571,572,579,555,588,575,589,561,581,564,564,592,565,572,
595,568,554,588,595,599,585,579,568,568,582,574,596,592,571,588,
568,586,596,557,582,599,574,562,588,565,596,564,585,579,572,586,
595,579,588,555,578,565,579,579,589,554,562,555,598,589,578,579,
557,598,596,568,598,564,598,588,564,564,574,586,558,568,562,574,
561,574,582,555,572,561,599,578,578,564,572,565,564,575,586,588,
565,596,568,562,554,578,575,599,599,561,589,596,598,596,596,558,
579,564,554,575,581,599,574,555,554,564,596,581,571,596,588,592,
0,0,0,0,0,0,0,0,0,0,0,0,0,0,0,0,
0,0,0,0,0,0,0,0,0,0,0,0,0,0,0,0
</chunk>
   <chunk x="-1104" y="48" width="16" height="16">
599,575,557,565,562,568,562,589,586,572,571,557,581,557,588,555,
589,575,592,595,596,585,568,557,595,561,574,579,557,599,562,588,
592,575,557,554,585,561,554,555,581,598,564,598,572,586,571,596,
585,574,579,575,589,568,578,581,557,558,592,581,564,598,592,557,
558,595,585,585,565,586,586,554,589,574,575,574,571,572,572,575,
558,599,598,575,555,578,564,582,574,579,581,586,592,561,572,585,
586,575,562,574,582,586,579,555,558,585,585,595,565,581,582,599,
575,571,586,598,574,574,554,596,555,572,561,582,565,554,574,571,
571,598,578,579,561,571,565,568,595,589,592,554,595,568,579,588,
565,599,562,568,564,558,561,562,562,579,555,598,598,598,561,561,
572,595,565,565,555,575,557,599,555,599,592,589,586,572,586,555,
598,586,599,562,572,596,595,592,598,599,592,575,554,578,578,574,
581,561,571,578,575,582,571,558,565,564,589,564,586,575,592,562,
589,568,574,579,579,581,558,589,599,598,595,581,558,574,589,568,
0,0,0,0,0,0,0,0,0,0,0,0,0,0,0,0,
0,0,0,0,0,0,0,0,0,0,0,0,0,0,0,0
</chunk>
   <chunk x="-1088" y="48" width="16" height="16">
586,554,574,565,581,557,588,588,589,555,568,575,588,571,578,598,
568,572,595,586,581,589,564,564,564,598,565,568,561,554,555,588,
571,595,572,592,585,571,585,557,592,589,562,572,574,572,588,579,
572,578,581,564,558,562,599,572,557,598,574,575,562,562,588,555,
595,557,581,598,572,564,598,555,585,554,599,565,575,589,568,558,
572,558,574,586,564,572,579,558,599,586,586,586,585,595,581,599,
578,571,596,585,555,572,582,574,564,598,598,578,565,596,592,585,
561,572,588,565,579,562,599,596,582,578,595,561,595,579,582,598,
554,582,579,554,586,592,589,565,558,554,582,581,574,557,585,585,
555,589,571,561,575,554,588,581,564,562,555,558,589,592,565,574,
595,579,599,596,586,555,589,582,595,574,596,571,595,581,557,592,
571,572,595,562,568,571,579,561,581,582,581,572,565,578,564,582,
574,598,564,588,582,592,579,564,558,558,581,596,582,568,557,575,
598,574,555,555,579,598,574,562,588,565,586,561,596,558,558,561,
0,0,0,0,0,0,0,0,0,0,0,0,0,0,0,0,
0,0,0,0,0,0,0,0,0,0,0,0,0,0,0,0
</chunk>
   <chunk x="-1072" y="48" width="16" height="16">
581,574,575,596,596,592,557,596,574,595,585,574,588,565,572,562,
562,571,572,598,558,555,585,589,596,564,571,595,554,568,595,586,
582,578,565,588,564,568,565,579,588,598,598,561,561,565,578,571,
588,578,592,588,582,571,575,561,571,557,585,579,588,557,561,568,
561,561,572,558,599,575,562,585,598,555,589,578,561,596,581,568,
599,582,574,582,568,595,571,589,585,574,564,574,572,575,578,596,
592,554,579,581,558,571,589,564,562,592,589,558,589,561,582,562,
561,571,558,589,596,592,599,589,561,586,574,574,596,596,557,579,
598,586,581,561,592,568,595,596,568,562,595,596,579,599,554,574,
596,578,579,592,581,574,589,592,574,565,575,564,557,572,565,575,
592,598,572,562,564,558,596,578,588,598,592,564,564,596,568,578,
596,555,557,595,581,592,558,575,564,589,579,561,579,558,581,589,
589,596,598,568,589,596,558,598,598,572,585,564,589,581,578,595,
574,574,589,565,585,558,581,586,582,565,581,586,589,575,596,586,
0,0,0,0,0,0,0,0,0,0,0,0,0,0,0,0,
0,0,0,0,0,0,0,0,0,0,0,0,0,0,0,0
</chunk>
   <chunk x="-1056" y="48" width="16" height="16">
574,564,582,596,585,582,592,578,568,571,596,561,595,599,565,588,
568,572,557,564,586,592,592,558,564,554,596,555,565,582,595,554,
564,568,554,558,574,574,588,564,581,585,554,598,598,589,595,592,
588,575,581,585,564,598,596,565,585,571,575,596,578,596,565,592,
564,575,579,572,582,561,554,579,555,561,571,558,589,554,565,579,
595,564,562,598,575,592,585,565,554,585,588,588,558,595,586,589,
558,562,589,562,555,568,555,574,564,579,596,592,578,596,554,582,
564,554,564,565,562,598,592,557,557,562,575,572,565,562,568,555,
581,598,595,557,581,554,554,558,572,578,589,562,598,554,581,598,
562,572,592,562,555,561,568,558,598,596,581,564,598,588,568,557,
589,588,596,571,599,589,565,596,562,565,589,595,558,595,574,575,
588,565,575,557,562,572,558,599,585,599,564,575,585,575,592,596,
555,596,599,581,581,554,586,579,586,558,572,568,568,586,571,586,
599,562,585,588,564,579,574,571,571,595,582,595,561,579,562,585,
0,0,0,0,0,0,0,0,0,0,0,0,0,0,0,0,
0,0,0,0,0,0,0,0,0,0,0,0,0,0,0,0
</chunk>
   <chunk x="-1040" y="48" width="16" height="16">
562,557,561,586,585,562,565,555,571,595,578,558,574,561,596,585,
581,582,595,565,561,564,586,592,598,595,562,595,592,557,557,554,
599,564,565,585,557,575,572,562,578,579,564,562,575,565,578,579,
554,598,574,588,579,571,579,579,589,595,592,564,572,557,595,586,
572,562,565,575,558,586,586,555,557,572,558,568,557,595,578,562,
586,595,578,574,557,596,558,592,578,579,582,596,554,579,572,599,
589,595,582,586,596,557,557,565,579,564,574,557,562,586,562,558,
558,595,558,585,564,592,575,555,586,561,557,571,582,562,557,579,
561,585,599,574,558,568,558,589,561,571,588,557,575,554,592,562,
578,599,599,574,596,564,574,596,589,562,589,599,596,564,589,568,
585,582,581,558,578,596,579,595,578,599,572,589,599,568,582,586,
562,555,564,568,558,575,589,585,595,572,562,582,592,571,574,562,
554,572,592,554,592,568,592,585,572,599,586,565,595,564,565,574,
592,585,599,578,595,564,578,571,582,562,568,582,564,582,592,572,
0,0,0,0,0,0,0,0,0,0,0,0,0,0,0,0,
0,0,0,0,0,0,0,0,0,0,0,0,0,0,0,0
</chunk>
   <chunk x="-1024" y="48" width="16" height="16">
564,598,562,581,575,586,0,0,0,0,0,0,0,0,0,0,
592,555,599,595,557,558,0,0,0,0,0,0,0,0,0,0,
596,572,574,565,585,595,0,0,0,0,0,0,0,0,0,0,
565,565,578,557,571,585,0,0,0,0,0,0,0,0,0,0,
579,595,564,592,562,554,0,0,0,0,0,0,0,0,0,0,
578,561,581,554,574,599,0,0,0,0,0,0,0,0,0,0,
562,581,568,572,557,572,0,0,0,0,0,0,0,0,0,0,
564,582,564,588,598,568,0,0,0,0,0,0,0,0,0,0,
564,574,561,586,561,558,0,0,0,0,0,0,0,0,0,0,
599,588,562,586,585,599,0,0,0,0,0,0,0,0,0,0,
554,558,571,575,586,588,0,0,0,0,0,0,0,0,0,0,
568,585,555,572,0,0,0,0,0,0,0,0,0,0,0,0,
572,592,586,572,0,0,0,0,0,0,0,0,0,0,0,0,
596,599,575,575,0,0,0,0,0,0,0,0,0,0,0,0,
0,0,0,0,0,0,0,0,0,0,0,0,0,0,0,0,
0,0,0,0,0,0,0,0,0,0,0,0,0,0,0,0
</chunk>
   <chunk x="-976" y="48" width="16" height="16">
0,0,0,0,0,0,0,0,0,0,0,0,0,0,0,0,
0,0,0,0,0,0,0,0,0,0,0,0,0,0,0,0,
0,0,0,0,0,0,0,0,0,0,0,0,0,0,0,0,
0,0,0,0,0,0,0,0,0,0,0,0,0,0,0,0,
0,0,0,0,0,0,0,0,0,0,0,0,0,0,0,0,
0,0,0,0,0,0,0,0,0,0,0,0,0,0,0,0,
0,0,0,0,0,0,0,0,0,0,0,0,0,0,0,0,
0,0,0,0,0,0,0,0,0,0,0,0,0,0,0,0,
0,0,0,0,0,0,0,0,0,0,0,0,0,0,0,0,
0,0,0,0,0,0,0,0,0,0,0,0,0,0,0,0,
0,0,0,0,0,0,0,0,0,0,0,0,0,0,0,0,
0,0,0,0,0,0,0,0,0,0,0,0,0,0,0,0,
0,0,0,0,0,0,0,0,0,0,0,0,0,0,0,0,
0,0,0,0,0,0,0,0,0,0,0,0,0,0,0,0,
0,0,0,0,0,0,0,0,0,0,0,0,0,0,0,0,
0,0,0,0,0,0,0,0,0,0,0,0,586,557,581,581
</chunk>
   <chunk x="-960" y="48" width="16" height="16">
0,0,0,0,0,0,0,0,0,0,0,0,0,0,0,0,
0,0,0,0,0,0,0,0,0,0,0,0,0,0,0,0,
0,0,0,0,0,0,0,0,0,0,0,0,0,0,0,0,
0,0,0,0,0,0,0,0,0,0,0,0,0,0,0,0,
0,0,0,0,0,0,0,0,0,0,0,0,0,0,0,0,
0,0,0,0,0,0,0,0,0,0,0,0,0,0,0,0,
0,0,0,0,0,0,0,0,0,0,0,0,0,0,0,0,
0,0,0,0,0,0,0,0,0,0,0,0,0,0,0,0,
0,0,0,0,0,0,0,0,0,0,0,0,0,0,0,0,
0,0,0,0,0,0,0,0,0,0,0,0,0,0,0,0,
0,0,0,0,0,0,0,0,0,0,0,0,0,0,0,0,
0,0,0,0,0,0,0,0,0,0,0,0,0,0,0,0,
0,0,0,0,0,0,0,0,0,0,0,0,0,0,0,0,
0,0,0,0,0,0,0,0,0,0,0,0,0,0,0,0,
0,0,0,0,0,0,0,0,0,0,0,0,0,0,0,0,
578,585,578,557,571,578,592,557,571,585,568,586,586,582,568,575
</chunk>
   <chunk x="-944" y="48" width="16" height="16">
0,0,0,0,0,0,0,0,0,0,0,0,0,0,0,0,
0,0,0,0,0,0,0,0,0,0,0,0,0,0,0,0,
0,0,0,0,0,0,0,0,0,0,0,0,0,0,0,0,
0,0,0,0,0,0,0,0,0,0,0,0,0,0,0,0,
0,0,0,0,0,0,0,0,0,0,0,0,0,0,0,0,
0,0,0,0,0,0,0,0,0,0,0,0,0,0,0,0,
0,0,0,0,0,0,0,0,0,0,0,0,0,0,0,0,
0,0,0,0,0,0,0,0,0,0,0,0,0,0,0,0,
0,0,0,0,0,0,0,0,0,0,0,0,0,0,0,0,
0,0,0,0,0,0,0,0,0,0,0,0,0,0,0,0,
0,0,0,0,0,0,0,0,0,0,0,0,0,0,0,0,
0,0,0,0,0,0,0,0,0,0,0,0,0,0,0,0,
0,0,0,0,0,0,0,0,0,0,0,0,0,0,0,0,
0,0,0,0,0,0,0,0,0,0,0,0,0,0,0,0,
0,0,0,0,0,0,0,0,0,0,0,0,0,0,0,0,
561,592,595,595,595,585,561,596,582,568,578,586,575,557,588,565
</chunk>
   <chunk x="-928" y="48" width="16" height="16">
0,0,0,0,0,0,0,0,0,0,0,0,0,0,0,0,
0,0,0,0,0,0,0,0,0,0,0,0,0,0,0,0,
0,0,0,0,0,0,0,0,0,0,0,0,0,0,0,0,
0,0,0,0,0,0,0,0,0,0,0,0,0,0,0,0,
0,0,0,0,0,0,0,0,0,0,0,0,0,0,0,0,
0,0,0,0,0,0,0,0,0,0,0,0,0,0,0,0,
0,0,0,0,0,0,0,0,0,0,0,0,0,0,0,0,
0,0,0,0,0,0,0,0,0,0,0,0,0,0,0,0,
0,0,0,0,0,0,0,0,0,0,0,0,0,0,0,0,
0,0,0,0,0,0,0,0,0,0,0,0,0,0,0,0,
0,0,0,0,0,0,0,0,0,0,0,0,0,0,0,0,
0,0,0,0,0,0,0,0,0,0,0,0,0,0,0,0,
0,0,0,0,0,0,0,0,0,0,0,0,0,0,0,0,
0,0,0,0,0,0,0,0,0,0,0,0,0,0,0,0,
0,0,0,0,0,0,0,0,0,0,0,0,0,0,0,0,
588,575,596,598,555,592,571,596,589,598,572,575,561,565,565,582
</chunk>
   <chunk x="-912" y="48" width="16" height="16">
0,0,0,0,0,0,0,0,0,0,0,0,0,0,0,0,
0,0,0,0,0,0,0,0,0,0,0,0,0,0,0,0,
0,0,0,0,0,0,0,0,0,0,0,0,0,0,0,0,
0,0,0,0,0,0,0,0,0,0,0,0,0,0,0,0,
0,0,0,0,0,0,0,0,0,0,0,0,0,0,0,0,
0,0,0,0,0,0,0,0,0,0,0,0,0,0,0,0,
0,0,0,0,0,0,0,0,0,0,0,0,0,0,0,0,
0,0,0,0,0,0,0,0,0,0,0,0,0,0,0,0,
0,0,0,0,0,0,0,0,0,0,0,0,0,0,0,0,
0,0,0,0,0,0,0,0,0,0,0,0,0,0,0,0,
0,0,0,0,0,0,0,0,0,0,0,0,0,0,0,0,
0,0,0,0,0,0,0,0,0,0,0,0,0,0,0,0,
0,0,0,0,0,0,0,0,0,0,0,0,0,0,0,0,
0,0,0,0,0,0,0,0,0,0,0,0,0,0,0,0,
0,0,0,0,0,0,0,0,0,0,0,0,0,0,0,0,
595,561,581,598,561,558,589,564,585,596,589,589,575,588,585,582
</chunk>
   <chunk x="-896" y="48" width="16" height="16">
0,0,0,0,0,0,0,0,0,0,0,0,0,0,0,0,
0,0,0,0,0,0,0,0,0,0,0,0,0,0,0,0,
0,0,0,0,0,0,0,0,0,0,0,0,0,0,0,0,
0,0,0,0,0,0,0,0,0,0,0,0,0,0,0,0,
0,0,0,0,0,0,0,0,0,0,0,0,0,0,0,0,
0,0,0,0,0,0,0,0,0,0,0,0,0,0,0,0,
0,0,0,0,0,0,0,0,0,0,0,0,0,0,0,0,
0,0,0,0,0,0,0,0,0,0,0,0,0,0,0,0,
0,0,0,0,0,0,0,0,0,0,0,0,0,0,0,0,
0,0,0,0,0,0,0,0,0,0,0,0,0,0,0,0,
0,0,0,0,0,0,0,0,0,0,0,0,0,0,0,0,
0,0,0,0,0,0,0,0,0,0,0,0,0,0,0,0,
0,0,0,0,0,0,0,0,0,0,0,0,0,0,0,0,
0,0,0,0,0,0,0,0,0,0,0,0,0,0,0,0,
0,0,0,0,0,0,0,0,0,0,0,0,0,0,0,0,
574,555,565,574,595,582,578,562,581,579,565,562,565,589,557,578
</chunk>
   <chunk x="-880" y="48" width="16" height="16">
0,0,0,0,0,0,0,0,0,0,0,0,0,0,0,0,
0,0,0,0,0,0,0,0,0,0,0,0,0,0,0,0,
0,0,0,0,0,0,0,0,0,0,0,0,0,0,0,0,
0,0,0,0,0,0,0,0,0,0,0,0,0,0,0,0,
0,0,0,0,0,0,0,0,0,0,0,0,0,0,0,0,
0,0,0,0,0,0,0,0,0,0,0,0,0,0,0,0,
0,0,0,0,0,0,0,0,0,0,0,0,0,0,0,0,
0,0,0,0,0,0,0,0,0,0,0,0,0,0,0,0,
0,0,0,0,0,0,0,0,0,0,0,0,0,0,0,0,
0,0,0,0,0,0,0,0,0,0,0,0,0,0,0,0,
0,0,0,0,0,0,0,0,0,0,0,0,0,0,0,0,
0,0,0,0,0,0,0,0,0,0,0,0,0,0,0,0,
0,0,0,0,0,0,0,0,0,0,0,0,0,0,0,0,
0,0,0,0,0,0,0,0,0,0,0,0,0,0,0,0,
0,0,0,0,0,0,0,0,0,0,0,0,0,0,0,0,
596,575,565,571,582,589,582,592,585,572,585,596,588,568,596,562
</chunk>
   <chunk x="-864" y="48" width="16" height="16">
0,0,0,0,0,0,0,0,0,0,0,0,0,0,0,0,
0,0,0,0,0,0,0,0,0,0,0,0,0,0,0,0,
0,0,0,0,0,0,0,0,0,0,0,0,0,0,0,0,
0,0,0,0,0,0,0,0,0,0,0,0,0,0,0,0,
0,0,0,0,0,0,0,0,0,0,0,0,0,0,0,0,
0,0,0,0,0,0,0,0,0,0,0,0,0,0,0,0,
0,0,0,0,0,0,0,0,0,0,0,0,0,0,0,0,
0,0,0,0,0,0,0,0,0,0,0,0,0,0,0,0,
0,0,0,0,0,0,0,0,0,0,0,0,0,0,0,0,
0,0,0,0,0,0,0,0,0,0,0,0,0,0,0,0,
0,0,0,0,0,0,0,0,0,0,0,0,0,0,0,0,
0,0,0,0,0,0,0,0,0,0,0,0,0,0,0,0,
0,0,0,0,0,0,0,0,0,0,0,0,0,0,0,0,
0,0,0,0,0,0,0,0,0,0,0,0,0,0,0,0,
0,0,0,0,0,0,0,0,0,0,0,0,0,0,0,0,
588,585,581,596,589,554,562,579,589,581,579,568,586,585,599,598
</chunk>
   <chunk x="-848" y="48" width="16" height="16">
0,0,0,0,0,0,0,0,0,0,0,0,0,0,0,0,
0,0,0,0,0,0,0,0,0,0,0,0,0,0,0,0,
0,0,0,0,0,0,0,0,0,0,0,0,0,0,0,0,
0,0,0,0,0,0,0,0,0,0,0,0,0,0,0,0,
0,0,0,0,0,0,0,0,0,0,0,0,0,0,0,0,
0,0,0,0,0,0,0,0,0,0,0,0,0,0,0,0,
0,0,0,0,0,0,0,0,0,0,0,0,0,0,0,0,
0,0,0,0,0,0,0,0,0,0,0,0,0,0,0,0,
0,0,0,0,0,0,0,0,0,0,0,0,0,0,0,0,
0,0,0,0,0,0,0,0,0,0,0,0,0,0,0,0,
0,0,0,0,0,0,0,0,0,0,0,0,0,0,0,0,
0,0,0,0,0,0,0,0,0,0,0,0,0,0,0,0,
0,0,0,0,0,0,0,0,0,0,0,0,0,0,0,0,
0,0,0,0,0,0,0,0,0,0,0,0,0,0,0,0,
0,0,0,0,0,0,0,0,0,0,0,0,0,0,0,0,
568,561,575,574,565,589,0,0,0,0,0,0,0,0,0,0
</chunk>
   <chunk x="-1344" y="64" width="16" height="16">
0,588,555,565,565,564,578,571,588,579,599,558,557,555,568,568,
0,575,589,554,589,596,578,592,595,554,572,586,596,554,581,564,
0,578,586,596,565,565,572,564,565,572,572,555,596,574,562,588,
0,572,582,561,599,598,586,554,582,588,572,557,562,582,592,574,
0,562,598,582,554,555,581,582,596,558,574,575,565,562,564,571,
0,564,564,595,565,571,554,558,586,564,578,585,592,554,578,557,
0,599,588,554,572,595,599,558,554,595,592,565,598,598,589,572,
0,579,575,599,599,599,592,554,575,558,599,574,557,579,582,562,
0,586,568,558,589,581,578,575,578,574,571,599,588,561,599,599,
0,586,574,568,581,564,578,561,561,585,555,589,595,572,574,572,
0,557,596,595,579,558,598,592,582,581,564,564,599,588,581,574,
0,565,589,592,588,596,574,557,599,592,588,564,588,588,579,568,
0,579,578,564,582,578,571,599,558,579,555,596,561,586,565,554,
0,586,555,596,581,571,564,588,596,572,589,561,589,579,574,571,
0,554,554,599,588,595,562,555,586,561,561,589,554,558,598,578,
0,562,561,564,595,579,565,596,557,558,598,595,589,574,592,568
</chunk>
   <chunk x="-1328" y="64" width="16" height="16">
568,574,598,586,596,562,562,557,578,568,599,555,589,578,574,568,
575,571,554,588,589,574,585,574,596,572,571,592,588,561,588,572,
555,598,561,558,562,595,585,561,564,558,561,555,585,598,568,588,
571,555,598,558,575,558,554,561,574,586,598,589,592,598,568,561,
589,554,562,598,586,562,557,585,565,561,585,565,592,585,565,564,
575,598,596,565,568,572,589,571,575,564,582,598,598,572,596,568,
555,595,571,595,592,558,589,557,568,589,574,558,578,598,589,582,
565,598,568,588,574,589,571,585,578,555,558,592,574,582,595,595,
586,579,589,586,592,558,578,568,586,596,564,582,565,572,582,571,
598,589,581,555,572,592,575,581,588,589,596,598,588,578,568,598,
585,588,575,595,592,555,579,574,568,598,557,575,572,571,598,599,
595,578,562,554,557,592,558,557,581,598,558,562,554,558,568,572,
598,578,585,579,568,558,557,579,572,564,572,575,565,554,554,574,
598,564,596,561,561,598,562,574,595,599,581,557,572,557,588,561,
578,555,585,564,564,554,575,586,562,574,599,592,572,561,557,596,
589,588,595,565,555,588,578,592,557,585,589,554,562,585,595,579
</chunk>
   <chunk x="-1312" y="64" width="16" height="16">
555,555,555,582,595,598,596,557,554,588,581,596,581,586,572,585,
568,578,564,592,599,599,599,581,558,592,596,554,589,581,595,568,
586,599,561,582,588,592,599,588,571,585,578,558,581,575,555,571,
565,579,599,589,564,571,564,596,565,565,555,582,578,578,592,599,
592,581,571,599,555,598,588,598,565,572,554,555,557,598,592,564,
599,561,564,586,579,585,599,578,596,582,572,572,565,557,564,581,
554,598,596,588,558,557,592,575,596,575,564,554,571,578,555,571,
586,586,598,564,579,561,565,589,595,568,589,599,558,571,555,592,
595,562,589,568,592,571,557,588,592,598,575,579,586,558,578,592,
581,562,572,568,578,574,574,586,585,596,561,564,568,599,565,585,
575,582,592,572,582,571,592,572,558,561,586,555,558,585,554,586,
555,598,598,598,598,554,581,557,554,588,557,564,565,562,592,572,
558,595,579,579,564,561,578,554,571,598,564,557,555,581,578,558,
564,589,574,571,589,588,574,579,585,561,565,596,555,561,572,589,
568,592,579,582,568,581,562,595,571,574,581,585,585,596,564,572,
589,595,598,578,581,598,588,565,578,565,558,595,598,568,578,599
</chunk>
   <chunk x="-1296" y="64" width="16" height="16">
578,589,595,599,564,588,575,586,568,561,575,558,572,595,589,596,
588,582,592,568,561,589,572,596,561,562,592,588,558,578,568,596,
565,578,582,557,558,575,554,565,589,586,582,575,574,589,599,586,
586,578,557,562,572,599,579,589,582,571,581,599,579,572,579,562,
562,595,562,592,564,595,589,557,558,572,564,578,578,564,554,561,
565,581,574,589,564,592,582,572,572,555,564,568,596,599,585,599,
555,565,586,575,561,582,588,572,598,588,579,585,589,579,582,585,
572,579,568,574,571,579,589,578,557,572,574,592,575,582,596,571,
575,574,574,578,558,572,557,599,565,581,592,558,592,557,586,581,
592,595,557,588,582,581,598,564,557,589,575,599,578,557,571,565,
596,554,561,568,565,595,574,582,568,568,596,598,572,554,579,572,
599,592,582,596,572,578,592,592,586,582,581,579,595,571,564,558,
598,595,557,578,572,575,582,568,581,588,595,595,558,562,578,598,
581,585,589,598,588,598,588,578,586,554,574,586,579,585,586,585,
588,592,565,596,579,586,589,557,592,561,554,558,599,586,575,572,
578,582,555,582,565,578,595,595,561,588,562,596,561,561,588,582
</chunk>
   <chunk x="-1280" y="64" width="16" height="16">
557,588,575,585,561,585,568,555,557,571,575,555,572,557,565,557,
575,588,572,564,572,579,558,585,574,557,578,574,579,592,595,568,
586,557,582,598,568,592,575,555,589,582,554,579,554,557,592,589,
596,568,581,565,585,565,564,599,561,585,572,572,562,572,588,564,
564,592,555,592,588,595,572,581,586,598,589,599,561,598,592,562,
562,554,596,578,571,572,582,555,585,596,585,589,572,562,572,561,
575,579,571,599,558,565,562,575,571,585,578,588,598,571,589,557,
571,581,578,586,578,575,574,578,578,578,554,564,581,575,568,561,
578,565,588,557,562,571,585,562,586,589,598,595,564,592,565,578,
595,558,575,571,572,578,588,586,596,565,568,599,557,585,557,555,
582,579,562,562,588,564,578,565,582,575,582,575,599,585,564,586,
581,578,581,596,574,571,585,554,564,589,585,562,592,589,575,558,
586,555,575,568,554,581,588,579,596,578,565,571,589,585,578,558,
596,592,592,581,575,598,555,564,588,579,571,582,595,585,565,585,
596,592,565,561,568,585,592,558,558,595,595,557,596,582,568,562,
596,588,582,568,564,596,574,554,578,564,555,589,561,598,588,574
</chunk>
   <chunk x="-1264" y="64" width="16" height="16">
572,555,561,592,565,579,565,564,578,585,574,581,572,571,568,598,
582,571,599,571,575,562,558,589,589,596,582,554,579,565,592,595,
598,558,596,589,568,582,588,557,582,571,565,586,574,558,554,582,
595,557,598,598,574,554,579,574,564,574,581,596,562,572,585,571,
565,588,564,557,575,579,596,586,572,564,558,562,582,589,575,555,
568,588,568,582,588,595,588,558,574,598,574,595,589,588,565,599,
585,588,588,554,568,579,574,558,596,578,564,561,572,555,598,589,
568,599,574,588,581,564,581,586,574,581,572,579,581,564,554,561,
581,558,571,558,565,561,585,568,585,585,598,574,555,571,574,585,
561,596,581,574,557,598,592,557,596,596,575,565,557,578,581,595,
595,564,557,558,598,558,596,555,588,585,592,579,585,561,592,598,
572,561,599,586,599,558,599,595,589,555,588,579,582,595,565,582,
589,586,565,598,586,558,599,572,581,592,579,571,565,571,592,575,
582,554,564,598,561,579,561,562,592,571,574,586,588,571,595,565,
596,596,555,592,565,571,564,589,586,572,571,586,561,555,555,581,
578,582,562,557,558,554,554,572,579,579,598,571,571,589,592,561
</chunk>
   <chunk x="-1248" y="64" width="16" height="16">
562,585,595,562,554,581,564,572,572,592,555,586,599,585,582,588,
571,579,599,575,582,588,568,598,588,564,568,581,572,555,578,562,
568,575,581,565,592,572,592,574,578,561,564,586,586,574,571,599,
598,568,585,561,575,586,578,595,585,579,586,555,582,571,589,574,
564,562,558,595,582,579,564,572,586,572,562,579,599,581,582,574,
561,596,574,554,572,589,579,588,568,598,562,595,595,568,575,572,
598,565,557,568,589,596,585,564,598,596,565,558,568,562,592,599,
592,599,568,581,565,579,582,589,555,596,598,557,588,572,598,579,
568,564,554,554,554,558,586,561,581,555,574,574,588,588,571,592,
595,595,596,555,598,565,561,581,592,562,562,574,555,568,565,592,
562,558,596,558,592,562,588,581,586,586,555,572,586,592,596,572,
579,572,586,581,589,568,565,571,565,562,557,582,562,557,574,599,
585,595,586,554,581,589,561,574,581,561,558,554,582,575,599,581,
586,578,574,586,571,588,564,565,586,581,586,571,588,561,578,555,
589,562,565,572,578,595,572,599,555,571,581,596,557,558,564,575,
565,561,595,574,557,554,575,589,595,579,568,581,574,574,572,578
</chunk>
   <chunk x="-1232" y="64" width="16" height="16">
585,582,599,596,588,592,592,564,557,568,555,562,588,585,599,0,
579,555,596,596,579,564,555,562,596,562,586,562,578,562,588,0,
592,578,589,555,557,554,565,561,568,579,564,561,598,555,578,0,
564,557,595,571,585,564,582,575,598,588,574,565,555,579,562,0,
585,557,578,579,565,588,596,581,592,572,562,561,598,581,592,0,
586,599,575,596,598,589,574,592,592,565,586,582,599,596,589,0,
561,589,562,582,575,588,588,554,581,592,571,579,571,558,558,0,
557,596,582,558,565,581,589,578,588,585,558,595,582,598,588,0,
565,554,589,578,588,564,581,582,582,581,562,575,598,585,571,0,
578,582,596,598,571,585,582,572,579,561,564,592,586,581,598,0,
557,565,561,555,568,579,555,589,592,558,568,558,582,588,565,0,
585,558,578,586,588,561,595,571,595,598,572,568,579,554,574,0,
581,557,596,581,575,579,599,598,592,578,578,575,592,571,589,0,
598,565,571,581,595,578,592,558,568,595,564,589,592,572,565,0,
565,561,555,585,558,561,571,554,581,562,598,586,561,596,579,0,
574,596,579,598,562,599,565,579,596,571,579,554,558,575,599,0
</chunk>
   <chunk x="-1056" y="64" width="16" height="16">
0,0,0,0,0,0,0,572,562,586,582,579,578,558,572,579,
0,0,0,0,0,0,0,592,564,586,564,557,585,579,588,585,
0,0,0,0,0,0,0,582,589,581,565,572,582,564,592,571,
0,0,0,0,0,0,0,599,596,579,599,589,568,589,589,582,
0,0,0,0,0,0,0,561,579,571,582,592,595,557,599,555,
0,0,0,0,0,0,0,554,599,582,596,582,555,558,592,558,
0,0,0,0,0,0,0,554,586,589,581,565,592,589,561,572,
0,0,0,0,0,0,0,571,592,595,586,592,575,589,595,582,
0,0,0,0,0,0,0,596,589,589,598,571,562,592,595,579,
0,0,0,0,0,0,0,558,558,585,582,558,579,579,582,586,
0,0,0,0,0,0,0,562,555,568,557,554,557,575,555,586,
0,0,0,0,0,0,0,581,595,598,572,589,589,578,564,585,
0,0,0,0,0,0,0,554,581,561,555,561,568,574,598,574,
0,0,0,0,0,0,0,558,592,562,588,564,599,592,585,579,
0,0,0,0,0,0,0,562,585,579,585,595,557,596,555,585,
0,0,0,0,0,0,0,582,586,599,588,568,586,581,574,561
</chunk>
   <chunk x="-1040" y="64" width="16" height="16">
585,581,561,586,565,592,575,564,568,564,578,565,555,599,585,555,
575,557,562,572,586,564,582,555,578,565,564,572,592,599,555,564,
586,599,582,586,579,578,586,562,592,599,574,571,592,571,558,579,
579,575,595,554,555,565,565,575,588,561,564,595,586,561,586,562,
599,568,568,589,558,554,555,599,581,568,565,574,558,579,557,589,
581,568,598,564,585,558,558,596,598,558,565,571,571,561,568,589,
554,575,564,596,564,598,575,575,592,574,592,588,555,571,572,574,
557,599,581,589,586,581,579,589,572,574,582,582,589,568,575,588,
598,579,579,554,555,599,564,579,579,581,592,581,568,555,564,585,
599,585,586,557,586,565,578,596,562,596,558,585,562,592,574,579,
582,568,557,585,574,588,568,568,578,555,586,589,571,596,565,598,
578,568,555,564,565,592,564,565,562,558,557,592,571,565,561,561,
581,572,595,561,565,579,598,575,574,579,598,598,557,598,555,585,
586,598,578,581,579,555,572,562,592,565,579,565,558,585,595,565,
572,561,582,598,568,596,589,565,564,562,599,554,586,589,565,572,
596,595,581,558,579,579,557,557,561,586,568,589,592,557,598,564
</chunk>
   <chunk x="-1024" y="64" width="16" height="16">
582,561,555,586,575,595,557,585,592,586,564,571,574,571,561,568,
586,557,572,578,562,586,579,579,565,589,571,596,554,586,579,581,
595,599,565,578,564,592,568,592,564,599,575,565,589,558,592,554,
589,554,595,595,561,579,578,579,557,568,575,586,562,586,575,568,
586,575,572,578,562,574,561,565,555,595,585,596,592,585,592,555,
592,568,574,558,582,579,557,586,598,596,575,599,596,557,588,599,
586,574,565,578,555,581,565,574,568,568,598,572,579,574,596,588,
561,571,579,554,564,596,564,579,595,555,585,565,586,598,586,572,
572,568,586,571,581,586,572,589,598,581,581,561,582,578,575,554,
579,574,557,598,596,582,599,572,568,575,596,582,589,555,585,579,
578,592,589,555,589,568,557,558,561,574,554,598,586,562,561,568,
571,585,561,596,557,561,561,592,574,595,574,557,555,558,592,561,
565,585,599,557,595,596,571,586,585,581,599,579,581,592,599,589,
564,598,558,554,561,596,588,586,574,579,561,574,574,578,586,581,
599,564,578,598,572,595,575,598,555,579,582,571,554,562,557,595,
571,555,554,595,562,574,595,598,568,572,579,589,581,581,586,574
</chunk>
   <chunk x="-1008" y="64" width="16" height="16">
582,554,589,574,572,586,585,588,568,589,555,561,586,571,588,589,
578,596,582,595,568,586,558,565,564,592,557,578,565,557,574,561,
558,598,571,582,574,585,564,595,599,581,554,572,589,581,589,572,
585,592,586,557,568,574,558,561,585,582,565,582,586,579,574,574,
581,592,582,562,557,561,592,579,554,579,585,579,599,555,578,555,
599,562,557,581,578,578,558,585,586,592,575,558,585,592,585,592,
579,558,557,599,554,599,572,599,557,555,562,579,564,574,589,596,
599,557,586,575,578,588,558,558,561,592,574,575,579,564,572,589,
595,582,575,589,571,571,579,595,595,555,598,571,574,579,568,581,
586,592,589,592,592,562,595,579,592,585,574,596,574,572,557,585,
561,574,558,572,582,596,554,596,575,598,581,555,595,579,585,596,
582,578,579,588,561,582,568,565,574,581,557,598,585,595,598,588,
557,579,595,588,592,596,599,579,585,575,572,599,564,578,554,582,
581,575,568,599,572,568,599,579,582,592,558,555,581,565,565,571,
572,554,572,596,598,565,557,571,561,586,568,588,599,571,574,557,
572,554,598,557,581,564,564,561,586,585,581,568,582,581,599,592
</chunk>
   <chunk x="-992" y="64" width="16" height="16">
554,596,558,588,571,575,586,595,575,581,586,561,557,581,596,599,
568,565,579,557,558,554,585,564,585,581,581,582,578,565,582,579,
554,555,565,558,595,592,565,571,589,599,596,557,585,572,599,589,
596,568,598,572,562,595,585,571,555,596,558,579,571,571,579,589,
598,565,562,554,565,585,572,574,579,568,596,554,588,565,572,595,
564,581,574,558,564,575,562,598,555,585,574,575,572,575,555,581,
554,598,564,596,575,575,555,579,588,595,558,568,578,588,585,588,
561,574,554,558,588,572,585,598,565,578,574,582,586,554,575,579,
578,582,589,561,582,589,585,585,579,558,565,578,581,574,586,574,
561,599,598,562,558,589,588,598,558,578,598,554,575,561,581,588,
596,581,568,596,586,557,589,565,578,568,572,599,555,568,555,582,
589,578,564,592,558,568,598,578,582,568,599,554,574,588,568,568,
564,574,578,599,575,562,598,574,592,571,595,579,586,581,571,564,
582,564,579,581,572,575,598,589,586,596,572,561,571,585,588,596,
579,571,578,574,586,575,571,575,586,592,596,598,582,586,558,595,
554,555,562,599,557,575,585,555,592,578,571,575,592,555,582,599
</chunk>
   <chunk x="-976" y="64" width="16" height="16">
557,575,581,598,598,592,596,579,579,578,565,596,564,568,579,592,
564,586,575,554,564,589,572,555,561,581,564,555,579,595,575,572,
598,578,565,596,554,589,564,589,558,588,581,565,578,564,582,588,
582,585,592,575,558,558,555,555,599,579,557,565,598,596,599,588,
599,558,588,554,575,558,554,575,571,554,585,578,599,574,581,555,
581,596,595,571,562,592,595,598,581,598,555,554,599,571,558,557,
575,572,578,565,574,554,572,589,564,574,586,555,568,555,578,564,
586,598,598,562,589,579,592,568,578,565,589,599,582,572,581,568,
572,562,589,562,578,592,555,554,574,581,589,562,562,575,562,558,
571,572,592,596,582,557,557,585,598,572,554,586,571,588,586,554,
557,564,596,581,598,581,554,555,575,572,571,554,558,571,558,582,
568,565,578,561,599,571,592,561,568,571,586,575,568,582,557,562,
557,592,575,554,572,596,554,599,562,585,568,589,586,571,592,558,
599,565,555,589,564,575,592,595,588,562,575,568,565,598,599,588,
581,575,582,589,571,585,589,557,598,574,586,599,564,564,554,558,
572,572,561,599,595,581,599,557,588,578,574,582,565,564,561,565
</chunk>
   <chunk x="-960" y="64" width="16" height="16">
575,589,582,557,561,564,555,596,565,579,592,561,589,561,586,578,
582,575,574,571,585,555,555,555,575,565,565,582,568,595,585,568,
586,561,555,568,599,585,574,599,574,554,592,572,585,599,557,554,
598,575,581,574,561,579,592,589,574,579,581,592,578,554,564,585,
558,595,564,562,599,598,564,595,571,581,581,582,598,557,588,565,
561,574,596,578,554,578,596,572,571,596,595,579,564,558,595,599,
585,564,595,595,561,557,599,568,562,592,561,555,588,571,561,595,
575,557,557,586,555,595,561,565,599,586,585,575,564,571,554,581,
564,592,581,596,572,589,595,598,568,578,557,564,561,572,554,578,
564,581,592,579,554,589,588,557,582,588,571,589,592,595,565,555,
562,575,564,571,565,565,575,589,558,595,598,565,588,568,596,596,
575,585,575,554,598,561,562,555,582,558,579,596,568,579,571,561,
557,564,579,592,596,598,555,575,564,572,596,572,557,579,599,599,
557,571,558,564,554,572,555,554,564,557,554,578,596,585,596,579,
557,581,571,592,565,574,554,561,596,592,565,585,578,585,561,579,
562,574,595,596,581,558,596,557,596,585,578,558,562,599,554,581
</chunk>
   <chunk x="-944" y="64" width="16" height="16">
571,564,565,575,575,599,588,574,589,592,599,592,581,582,578,592,
599,565,581,586,595,575,554,574,589,599,574,575,574,592,585,558,
561,581,571,568,586,595,565,562,585,564,596,555,579,572,578,592,
595,585,575,561,558,561,592,595,571,578,568,585,555,579,579,595,
572,586,558,568,596,572,585,595,564,555,596,588,595,599,582,595,
596,581,596,592,575,582,564,578,555,562,568,554,582,586,555,565,
561,581,571,564,581,596,575,564,565,581,572,598,599,571,595,595,
568,565,586,588,575,555,571,555,564,589,588,579,572,586,571,581,
574,578,574,579,578,582,579,554,568,574,596,554,599,558,588,564,
585,565,588,575,565,599,557,592,572,586,555,568,562,595,579,575,
574,589,557,565,596,589,562,554,585,581,585,558,554,589,589,561,
572,582,598,586,571,571,581,572,595,574,585,571,554,596,554,557,
579,571,572,574,586,558,582,578,568,581,565,599,561,589,561,586,
557,561,571,585,582,585,562,582,571,581,582,581,571,571,582,568,
589,585,568,564,595,598,598,595,574,575,596,589,558,572,586,598,
588,562,572,558,598,558,592,562,581,586,575,571,595,572,564,572
</chunk>
   <chunk x="-928" y="64" width="16" height="16">
599,557,568,598,598,562,595,571,568,572,581,564,599,568,589,586,
581,571,565,575,554,596,578,568,555,574,598,571,586,588,575,581,
561,585,588,598,554,562,575,557,598,565,578,554,575,578,562,582,
565,586,561,578,588,562,575,555,588,568,564,579,588,599,571,586,
578,596,555,574,598,554,589,585,582,575,568,585,557,564,595,571,
565,568,589,586,558,598,579,582,588,592,558,568,588,581,562,599,
598,598,595,588,574,554,562,554,579,595,585,599,588,598,561,572,
575,571,595,588,554,574,558,596,561,558,574,579,581,588,589,574,
558,592,557,572,562,579,572,592,575,596,554,562,561,598,579,554,
571,554,592,581,554,585,588,578,557,578,565,578,598,561,558,575,
554,581,589,557,598,555,588,557,564,585,581,582,571,558,565,558,
595,588,598,582,572,596,579,582,589,564,565,568,558,595,554,561,
598,588,581,595,568,572,599,578,558,596,586,598,554,579,575,596,
562,582,557,581,599,598,564,599,557,561,582,586,592,555,586,599,
589,596,561,572,578,581,561,582,554,575,571,561,565,592,575,574,
557,588,571,588,564,564,579,575,575,589,561,585,599,599,554,574
</chunk>
   <chunk x="-912" y="64" width="16" height="16">
575,557,598,581,565,579,579,568,598,554,565,571,595,564,578,585,
568,558,557,562,561,568,575,599,592,574,557,592,598,555,586,578,
571,555,564,582,565,595,561,564,582,575,578,599,555,598,575,574,
596,585,557,596,592,585,582,561,575,582,579,588,554,599,575,596,
562,589,565,574,595,558,572,588,571,568,592,557,555,571,558,588,
554,589,558,595,578,555,558,579,562,575,564,575,586,581,581,596,
557,592,571,562,554,575,575,562,578,568,572,554,585,579,595,561,
581,586,562,574,598,575,578,561,598,596,565,572,565,554,585,592,
595,571,585,561,582,589,572,554,565,582,579,578,595,561,557,585,
575,579,578,562,589,561,599,565,571,596,582,589,596,554,599,578,
592,595,588,557,588,595,598,579,585,565,581,596,596,561,562,558,
588,592,574,586,572,595,586,581,595,557,564,554,579,568,574,592,
592,561,588,588,565,595,589,558,555,595,557,554,582,572,592,588,
599,586,592,571,574,555,599,582,571,599,574,578,592,581,598,568,
574,592,596,586,582,562,596,554,565,558,575,579,568,562,599,561,
561,565,578,581,565,572,582,562,555,557,582,557,598,586,586,596
</chunk>
   <chunk x="-896" y="64" width="16" height="16">
557,555,575,568,578,557,558,565,575,554,561,589,565,571,562,598,
565,592,571,595,592,586,557,575,579,561,598,589,555,558,578,592,
554,589,558,581,585,561,555,574,557,596,579,565,588,589,575,562,
596,575,557,554,595,565,558,586,592,579,568,557,571,558,565,581,
565,571,575,596,568,574,557,578,568,568,571,598,578,568,574,557,
582,572,586,574,565,572,568,561,572,598,585,562,586,568,558,589,
582,585,572,554,581,554,598,595,564,554,554,598,588,586,571,564,
599,589,586,561,598,588,568,568,592,575,586,568,555,595,592,564,
565,579,574,589,554,598,561,578,582,574,582,558,562,568,581,588,
588,557,568,589,596,585,586,561,558,599,592,582,572,565,598,582,
554,589,595,596,571,574,579,588,589,558,592,562,575,578,571,578,
557,572,562,575,585,565,575,561,568,557,586,558,586,561,586,582,
598,564,578,588,555,555,586,575,589,558,589,568,565,558,582,575,
598,582,574,571,575,581,585,588,592,592,575,585,575,562,595,554,
579,585,554,554,564,579,572,557,555,581,555,585,575,592,558,582,
572,575,599,555,554,582,592,596,582,554,581,589,564,581,562,554
</chunk>
   <chunk x="-880" y="64" width="16" height="16">
558,575,564,582,586,596,575,586,555,596,589,582,558,592,586,596,
578,592,595,595,582,554,574,579,599,572,565,588,585,599,585,558,
572,581,598,557,586,578,561,554,554,554,589,598,581,554,575,592,
596,596,562,592,568,564,572,595,578,568,581,596,555,565,575,595,
595,557,554,595,575,581,565,586,599,558,554,572,561,578,562,571,
555,555,592,595,555,562,578,589,595,557,554,564,579,592,581,565,
565,592,568,571,555,557,565,557,589,589,581,592,579,585,575,557,
557,595,558,575,586,555,558,585,561,589,578,578,565,589,557,588,
557,589,578,586,557,571,558,572,589,554,599,571,571,586,589,596,
575,595,589,562,595,578,595,599,561,564,575,581,596,598,585,568,
578,595,598,592,592,582,592,554,585,565,598,571,578,572,599,596,
598,574,595,565,599,564,568,575,578,555,557,582,596,578,558,574,
596,555,568,589,598,572,585,554,574,585,574,555,595,585,571,586,
562,575,592,561,586,568,572,586,599,595,592,562,574,579,575,571,
598,579,589,595,592,589,581,582,578,571,599,586,588,585,586,574,
592,578,555,571,586,558,568,585,574,562,565,555,582,557,562,555
</chunk>
   <chunk x="-864" y="64" width="16" height="16">
561,585,588,575,599,581,582,595,564,571,592,578,599,561,579,562,
554,596,592,571,562,562,561,555,557,589,571,555,582,595,592,585,
588,586,585,568,586,554,555,589,572,572,588,557,599,582,599,574,
582,598,564,568,561,557,561,574,578,595,582,596,574,582,554,555,
564,595,575,599,595,579,574,589,579,589,572,589,565,588,562,596,
589,598,561,562,589,588,586,592,557,557,578,588,595,565,586,558,
579,557,574,561,572,581,592,572,588,554,568,585,592,555,572,579,
574,598,599,572,562,586,574,586,586,562,598,578,592,578,571,578,
572,598,579,572,589,568,568,599,574,581,574,581,564,592,561,596,
565,565,592,586,589,568,578,572,595,595,565,586,554,582,599,568,
558,562,565,578,579,562,592,589,596,555,558,588,574,568,557,596,
588,575,558,579,555,555,557,571,557,555,582,561,598,558,585,581,
585,568,571,596,571,558,555,557,581,596,592,562,592,595,588,592,
572,595,561,592,578,596,589,592,581,578,562,595,557,599,554,562,
595,571,575,572,585,568,575,574,565,589,585,562,585,575,555,589,
596,557,558,575,592,562,561,575,595,578,581,582,575,554,581,586
</chunk>
   <chunk x="-848" y="64" width="16" height="16">
562,592,564,596,588,565,0,0,0,0,0,0,0,0,0,0,
592,557,568,599,568,579,0,0,0,0,0,0,0,0,0,0,
592,599,572,565,572,564,0,0,0,0,0,0,0,0,0,0,
589,554,579,578,581,579,0,0,0,0,0,0,0,0,0,0,
596,562,555,596,598,589,0,0,0,0,0,0,0,0,0,0,
564,554,575,572,598,555,0,0,0,0,0,0,0,0,0,0,
571,571,585,558,571,598,0,0,0,0,0,0,0,0,0,0,
588,599,571,568,598,564,0,0,0,0,0,0,0,0,0,0,
571,574,572,564,557,575,0,0,0,0,0,0,0,0,0,0,
574,575,564,596,564,579,0,0,0,0,0,0,0,0,0,0,
586,585,592,565,579,562,0,0,0,0,0,0,0,0,0,0,
554,599,592,589,565,585,0,0,0,0,0,0,0,0,0,0,
586,582,596,568,578,589,0,0,0,0,0,0,0,0,0,0,
581,554,574,562,588,564,0,0,0,0,0,0,0,0,0,0,
592,572,579,578,595,596,0,0,0,0,0,0,0,0,0,0,
599,582,579,579,555,564,0,0,0,0,0,0,0,0,0,0
</chunk>
   <chunk x="-1344" y="80" width="16" height="16">
0,574,564,598,595,598,581,578,568,595,596,575,586,572,557,561,
0,572,555,598,592,579,554,565,554,572,592,578,592,568,581,571,
0,564,562,564,561,596,562,561,575,599,595,565,581,572,572,564,
0,562,582,574,585,574,571,596,561,588,599,554,598,575,572,574,
0,581,589,565,571,575,582,574,574,561,554,562,588,557,578,571,
0,585,595,579,598,595,595,585,558,589,561,555,574,598,558,582,
0,562,572,568,568,561,595,599,568,575,586,557,588,554,595,564,
0,596,592,564,564,555,572,571,582,588,586,598,592,562,585,557,
0,581,564,592,575,588,562,581,558,561,564,579,595,571,562,582,
0,598,586,565,599,599,571,572,592,586,575,561,554,575,588,562,
0,568,599,571,592,596,588,557,561,557,572,589,595,561,578,565,
0,596,555,589,572,585,562,579,571,588,574,586,578,596,555,575,
0,596,575,564,564,575,568,581,592,578,561,582,555,557,586,579,
0,561,557,565,562,555,555,596,581,575,571,557,585,596,588,598,
0,564,578,589,557,564,554,561,568,565,562,586,588,562,592,557,
0,588,581,564,589,596,564,599,568,571,568,568,596,555,586,565
</chunk>
   <chunk x="-1328" y="80" width="16" height="16">
592,574,572,585,579,586,575,565,589,565,568,562,595,575,555,564,
557,557,564,578,596,585,582,581,595,574,557,557,589,572,574,575,
582,581,571,596,585,596,589,589,598,558,589,568,557,575,571,555,
557,564,562,592,558,581,561,557,555,596,575,592,575,555,581,596,
588,586,588,568,575,588,581,575,565,582,557,574,562,586,564,589,
589,554,585,588,585,565,574,557,561,561,575,598,589,554,588,586,
589,595,557,585,579,599,565,568,599,561,562,565,595,555,589,579,
582,555,561,565,592,565,581,588,586,598,575,595,568,568,585,555,
574,589,562,598,585,596,599,562,565,565,596,596,581,565,565,561,
568,595,595,571,572,574,565,586,599,568,585,571,572,561,571,589,
578,598,558,596,598,581,562,585,557,555,585,557,578,574,574,555,
599,592,561,589,564,555,574,598,555,574,558,562,572,596,579,565,
578,568,558,564,598,574,555,578,571,579,598,557,561,595,581,586,
598,585,554,586,555,586,554,564,582,554,598,562,574,568,555,572,
564,596,562,585,588,568,596,555,558,555,572,565,589,572,579,564,
598,568,578,578,565,557,572,585,588,595,565,579,582,572,557,592
</chunk>
   <chunk x="-1312" y="80" width="16" height="16">
598,574,554,581,598,578,565,558,581,557,565,554,561,599,572,586,
574,561,561,589,581,592,574,596,561,572,595,574,589,562,581,592,
595,586,561,558,564,574,571,561,578,592,582,589,578,596,595,585,
595,586,571,581,595,578,595,578,554,579,561,585,595,558,564,599,
555,588,562,558,582,558,588,562,595,598,598,554,568,585,579,575,
574,585,574,586,598,572,575,595,598,554,574,596,579,564,579,561,
598,582,599,557,575,578,599,598,595,557,595,596,592,558,578,554,
562,579,586,581,572,578,579,598,598,571,588,557,555,562,565,561,
572,599,595,554,578,557,579,579,599,575,578,568,575,581,592,578,
565,555,581,565,579,562,592,585,578,557,557,574,575,554,557,581,
582,586,579,582,558,588,588,579,579,555,578,578,568,555,586,596,
598,575,554,565,586,596,595,557,574,585,562,571,578,599,568,554,
586,592,586,574,598,565,598,596,582,561,558,564,579,581,568,575,
579,589,589,565,595,589,571,579,586,596,581,592,555,561,554,564,
564,565,596,557,574,558,557,581,579,574,582,592,571,578,572,568,
588,557,585,554,574,579,561,592,582,562,581,574,571,581,557,595
</chunk>
   <chunk x="-1296" y="80" width="16" height="16">
561,565,578,562,599,568,557,554,589,578,572,572,574,596,562,582,
571,592,581,572,586,595,598,595,562,598,554,575,575,574,575,578,
555,588,562,574,581,575,568,554,581,598,595,565,596,558,565,572,
568,554,554,555,579,582,565,554,592,571,568,574,599,589,568,554,
592,581,585,572,572,564,554,554,568,592,585,592,572,572,582,592,
596,564,571,581,572,586,561,599,578,598,571,565,562,565,564,561,
578,554,558,572,558,572,578,554,562,582,561,555,565,589,571,578,
574,554,565,558,554,562,596,575,575,598,588,555,592,581,575,582,
565,578,571,592,599,599,555,557,588,578,575,554,568,568,568,574,
586,574,598,589,579,598,562,561,557,571,564,592,565,555,558,596,
574,578,557,582,589,598,565,579,555,585,589,578,578,561,589,554,
578,588,599,578,564,589,565,555,568,571,571,565,564,575,582,571,
564,585,572,575,578,558,572,568,588,585,561,598,598,565,595,557,
595,557,568,562,574,558,568,564,571,589,565,575,589,595,595,564,
564,581,596,568,578,599,599,579,568,565,596,596,554,588,596,565,
571,596,592,555,555,555,572,572,555,581,579,568,585,596,558,557
</chunk>
   <chunk x="-1280" y="80" width="16" height="16">
599,574,586,554,588,598,564,581,589,572,596,561,565,561,596,572,
568,599,561,586,579,581,572,588,598,585,572,578,564,574,554,581,
564,595,578,561,572,589,558,588,562,599,568,562,588,568,568,598,
575,588,554,592,579,575,555,586,564,582,578,557,557,588,582,555,
557,595,588,599,574,595,596,555,598,589,578,555,568,585,595,581,
588,599,589,596,585,575,589,579,561,596,596,582,588,558,578,571,
568,579,599,585,561,558,586,596,558,579,585,555,571,585,568,561,
578,562,565,588,565,565,598,555,561,599,585,598,592,575,561,565,
568,592,558,561,571,568,558,595,568,562,558,592,588,599,554,588,
585,568,564,555,564,586,557,598,564,582,564,554,554,564,589,588,
574,585,564,564,554,589,555,554,575,554,581,562,574,586,588,589,
592,588,595,579,574,589,592,578,574,589,574,572,568,557,562,574,
579,568,588,572,572,589,564,592,562,588,579,592,585,578,592,581,
586,586,585,586,588,562,579,574,558,574,575,599,586,585,558,575,
589,578,554,582,557,585,574,585,561,561,598,562,565,564,582,589,
586,572,595,585,562,586,555,592,598,598,568,555,578,572,578,586
</chunk>
   <chunk x="-1264" y="80" width="16" height="16">
561,557,565,598,595,582,579,575,585,565,582,564,585,571,599,575,
582,568,555,595,596,598,578,574,554,599,572,598,581,574,555,589,
565,589,592,561,581,595,564,596,565,555,568,585,554,557,558,564,
557,554,589,592,589,595,578,589,599,599,596,581,555,585,562,571,
564,588,562,555,585,588,589,568,578,586,574,596,555,562,571,599,
582,586,575,599,586,575,554,558,582,595,599,588,555,564,561,568,
575,564,572,555,599,592,564,596,595,581,575,598,579,598,571,582,
598,565,564,578,571,564,582,562,568,554,595,565,572,582,565,555,
596,598,557,565,562,578,586,582,571,579,582,557,599,585,582,565,
555,565,596,589,561,582,592,568,562,578,561,586,555,595,582,575,
558,561,572,565,571,574,558,561,574,575,592,578,555,585,575,585,
585,575,585,565,572,555,572,596,581,558,572,589,586,555,578,579,
568,596,586,557,565,598,581,581,557,582,595,557,585,589,562,575,
562,555,572,575,571,565,586,599,578,585,592,579,588,582,562,561,
558,578,581,596,561,581,572,574,555,561,555,574,574,586,568,568,
578,564,599,589,565,564,578,592,554,557,565,579,588,564,565,582
</chunk>
   <chunk x="-1248" y="80" width="16" height="16">
585,592,572,598,568,554,574,561,586,579,554,586,565,589,572,599,
585,557,599,578,557,596,565,572,574,565,579,579,579,561,592,555,
578,565,596,572,596,588,555,572,595,582,579,585,568,586,557,554,
588,568,571,575,588,579,599,558,589,595,578,572,571,585,592,586,
592,588,564,554,589,557,592,581,575,574,571,579,554,554,578,586,
571,589,598,585,564,596,588,589,558,561,585,578,558,579,568,575,
557,565,558,555,564,579,585,588,599,578,568,592,572,568,565,582,
575,555,557,555,589,592,568,561,579,557,554,585,565,595,558,579,
592,554,565,595,568,582,579,599,571,571,592,592,564,564,571,571,
589,578,585,589,565,585,564,582,572,579,581,568,568,572,595,596,
554,585,558,571,572,589,568,571,575,562,557,579,592,588,581,595,
571,581,574,578,557,589,555,555,599,555,579,599,575,558,599,599,
598,555,585,598,582,589,581,562,582,557,571,582,589,598,571,599,
575,578,562,557,586,568,579,562,562,572,555,578,565,568,561,585,
586,574,582,555,555,596,564,564,599,581,568,588,555,558,564,579,
554,555,592,598,571,598,588,557,592,582,588,555,595,579,581,589
</chunk>
   <chunk x="-1232" y="80" width="16" height="16">
555,558,574,562,571,555,588,599,572,598,555,574,592,575,575,0,
578,555,592,599,596,571,572,596,572,574,575,579,581,575,596,0,
596,598,589,571,589,568,571,581,557,585,582,586,595,589,565,0,
575,564,581,595,565,568,571,592,595,596,578,564,589,574,586,0,
578,554,562,575,571,589,596,564,588,595,554,579,582,562,564,0,
599,562,578,589,575,589,598,574,589,595,578,592,572,557,579,0,
555,582,557,581,579,571,595,572,589,562,557,592,568,557,592,0,
585,561,558,599,561,574,581,581,561,585,582,582,579,562,578,0,
575,595,592,564,578,571,561,581,585,599,595,598,595,558,585,0,
572,585,561,598,557,575,554,598,557,581,589,598,558,555,579,0,
578,562,557,558,582,588,589,574,582,561,562,557,575,558,568,0,
562,565,564,574,571,589,575,575,578,579,582,588,568,578,579,0,
575,599,564,562,571,599,592,555,564,564,581,578,568,582,579,0,
554,581,565,574,554,565,588,596,558,554,568,586,554,598,574,0,
598,558,561,596,565,557,581,599,582,564,561,596,588,586,571,0,
555,596,598,586,599,558,564,579,595,582,564,571,571,561,588,0
</chunk>
   <chunk x="-1056" y="80" width="16" height="16">
0,0,0,0,0,0,0,582,568,571,595,557,572,564,595,599,
0,0,0,0,0,0,0,564,575,555,562,555,554,578,599,588,
0,0,0,0,0,0,0,574,575,555,595,571,562,592,596,578,
0,0,0,0,0,0,0,572,572,555,568,558,595,585,595,561,
0,0,0,0,0,0,0,595,562,554,554,558,562,589,561,586,
0,0,0,0,0,0,0,574,572,588,565,561,562,596,568,575,
0,0,0,0,0,0,0,555,596,568,574,554,581,568,582,565,
0,0,0,0,0,0,0,575,554,564,574,596,596,598,558,575,
0,0,0,0,0,0,0,579,592,578,589,562,554,554,578,595,
0,0,0,0,0,0,0,596,586,581,574,558,557,574,557,581,
0,0,0,0,0,0,0,582,554,571,574,578,582,582,586,554,
0,0,0,0,0,0,0,554,589,568,568,564,562,595,585,598,
0,0,0,0,0,0,0,558,574,565,595,595,561,578,586,572,
0,0,0,0,0,0,0,557,586,558,572,557,596,592,589,596,
0,0,0,0,0,0,0,578,554,582,578,582,578,572,582,578,
0,0,0,0,0,0,0,585,564,595,578,582,565,568,585,596
</chunk>
   <chunk x="-1040" y="80" width="16" height="16">
586,579,555,555,557,561,557,574,568,572,565,599,598,598,596,586,
572,565,564,568,588,578,565,572,568,565,581,562,562,568,554,585,
562,565,585,568,568,568,568,572,578,564,564,561,557,592,568,564,
572,557,598,592,578,598,582,564,574,555,574,565,557,575,592,581,
588,562,575,581,572,595,564,589,571,581,598,558,586,581,581,574,
579,582,555,564,595,578,595,568,599,554,571,588,562,598,562,589,
578,555,561,565,568,595,581,558,585,565,564,574,574,557,554,557,
581,592,572,572,599,596,561,562,571,562,595,586,558,558,562,599,
561,571,557,592,565,561,565,558,599,595,564,568,564,572,582,575,
579,555,574,589,598,568,554,579,568,571,564,574,578,595,598,595,
578,588,564,586,565,574,555,561,595,596,588,561,595,589,596,596,
571,599,557,561,581,568,585,582,589,596,554,599,571,571,582,555,
581,599,555,585,565,562,598,582,592,554,562,575,588,598,558,575,
558,595,572,555,574,595,575,599,581,574,575,561,557,557,599,578,
572,586,555,555,554,568,598,572,561,589,558,592,598,575,579,562,
585,565,588,585,571,581,557,585,596,562,595,581,562,564,572,598
</chunk>
   <chunk x="-1024" y="80" width="16" height="16">
599,586,561,581,561,571,579,565,596,561,598,588,586,554,592,565,
588,561,592,595,571,564,555,589,578,557,589,572,579,558,578,599,
575,574,565,599,589,588,562,595,565,596,558,574,575,557,562,558,
582,558,586,596,565,589,572,589,592,578,575,568,562,585,592,586,
574,565,572,589,579,561,557,575,568,555,561,581,599,572,592,562,
589,589,596,589,571,562,565,565,585,582,572,595,565,568,558,596,
571,555,575,578,581,596,579,554,579,561,582,575,592,565,572,586,
599,585,565,558,581,561,596,579,568,589,557,562,592,572,568,557,
565,558,555,588,578,579,561,562,578,578,554,555,588,586,558,599,
557,558,598,585,589,588,581,572,596,582,585,561,557,586,555,578,
598,564,571,585,582,561,586,561,589,579,585,554,575,595,564,555,
595,586,554,592,575,595,595,592,579,571,575,564,581,558,564,596,
561,595,579,555,592,599,574,585,578,579,596,599,568,596,572,575,
595,598,558,595,589,582,572,595,585,558,588,554,554,579,592,586,
574,589,578,575,599,585,571,571,586,575,562,568,561,555,599,596,
582,599,585,581,565,582,595,575,596,588,575,575,592,589,561,568
</chunk>
   <chunk x="-1008" y="80" width="16" height="16">
596,562,592,575,555,599,592,596,562,588,586,589,571,561,581,575,
589,581,555,561,571,565,554,572,555,565,599,561,558,589,579,589,
582,564,565,554,579,586,598,589,554,592,565,586,574,572,568,586,
555,595,568,564,572,564,562,579,598,596,581,599,592,585,558,561,
565,599,574,568,598,595,558,578,561,581,564,581,589,585,571,564,
596,581,571,588,575,571,592,586,571,579,554,599,588,596,561,582,
586,582,589,571,581,592,562,585,589,564,578,586,588,558,596,557,
564,561,578,595,565,575,564,595,586,575,582,579,595,589,572,568,
592,561,579,599,571,574,596,596,561,596,586,561,579,561,579,564,
571,581,599,596,562,598,561,561,598,585,582,588,571,595,554,588,
598,565,554,572,557,598,581,574,579,598,555,588,596,565,558,561,
572,568,599,554,554,554,599,555,562,555,588,558,586,586,585,588,
571,564,579,558,575,565,562,585,561,599,575,588,571,557,581,562,
579,596,555,574,586,558,574,599,595,564,599,571,565,599,589,596,
595,579,599,596,572,592,557,564,572,592,595,581,555,562,561,555,
562,588,555,565,596,565,554,582,565,572,565,582,598,589,565,579
</chunk>
   <chunk x="-992" y="80" width="16" height="16">
581,565,564,575,562,557,578,554,596,562,568,572,585,581,555,568,
578,579,568,589,588,592,558,572,571,578,562,599,554,571,572,578,
599,574,555,557,575,554,571,589,589,554,579,571,578,582,588,595,
596,554,568,574,555,582,575,596,568,568,562,585,589,572,586,586,
561,557,588,596,596,581,555,565,586,555,582,554,568,589,586,582,
557,596,574,581,557,599,558,589,598,558,585,596,572,586,599,575,
561,596,557,554,586,582,596,598,585,581,572,575,595,586,555,562,
582,565,554,588,581,598,557,598,575,585,578,579,592,558,568,562,
598,599,599,599,575,571,578,571,558,571,579,599,588,599,581,581,
598,568,558,578,589,592,561,571,561,598,585,586,581,558,578,555,
557,564,557,582,598,589,578,568,565,555,558,572,558,599,565,568,
568,578,557,554,561,592,555,581,554,599,562,568,554,588,578,571,
588,558,599,578,595,575,598,554,579,586,568,564,578,596,599,579,
592,574,588,555,568,574,555,579,561,598,568,557,557,575,595,586,
565,596,599,564,578,571,589,557,586,595,555,557,582,561,557,595,
562,575,582,568,586,592,565,579,595,585,557,571,578,557,586,589
</chunk>
   <chunk x="-976" y="80" width="16" height="16">
558,572,555,581,558,598,564,595,589,568,574,589,598,558,585,558,
572,575,588,572,572,558,557,565,578,557,592,586,565,598,564,589,
558,589,592,595,572,564,564,599,598,592,588,555,586,588,578,571,
562,596,562,565,574,589,568,586,565,599,599,557,579,589,595,598,
599,555,589,572,599,568,581,598,578,578,554,572,557,575,586,557,
554,578,598,574,586,568,555,578,571,562,598,585,558,595,585,599,
596,588,558,595,592,589,586,554,558,572,582,598,585,564,595,558,
585,562,585,581,599,572,568,578,557,571,575,561,575,596,589,592,
554,579,578,596,592,572,595,589,564,582,562,558,574,596,575,598,
554,555,588,589,564,561,555,596,565,596,595,574,589,585,568,565,
571,581,595,555,558,558,579,574,586,579,558,555,592,588,575,562,
585,571,589,554,557,588,568,592,599,588,589,596,554,586,561,571,
557,554,554,571,595,581,571,561,568,564,582,568,589,585,586,568,
588,568,579,586,598,598,558,598,588,581,586,555,557,562,582,555,
564,558,596,579,564,585,571,579,588,558,561,574,565,555,571,598,
565,599,582,562,571,589,572,588,578,589,589,589,554,592,557,581
</chunk>
   <chunk x="-960" y="80" width="16" height="16">
588,586,589,589,579,554,581,579,579,595,589,575,578,554,558,565,
592,582,592,595,599,595,557,574,568,571,568,599,596,592,564,595,
599,582,578,589,578,588,558,565,589,568,562,558,599,555,572,568,
565,557,579,595,579,581,578,579,595,561,568,588,586,592,586,588,
574,589,561,592,585,599,562,571,562,574,588,571,589,592,575,555,
585,564,586,579,581,561,596,598,555,579,575,558,574,599,562,581,
557,558,574,589,578,574,555,595,585,568,564,568,598,596,554,575,
578,565,571,582,571,598,582,561,568,572,588,581,562,557,555,572,
598,582,592,568,575,555,572,581,564,575,578,589,561,595,599,578,
575,565,585,558,582,568,554,589,561,599,585,555,574,585,585,595,
581,592,598,575,592,561,565,572,558,575,575,564,564,558,562,571,
595,564,564,554,599,574,557,585,586,558,586,588,557,599,554,565,
582,562,575,598,586,564,585,557,565,585,579,555,561,582,588,595,
575,585,598,557,564,579,555,585,586,588,595,562,568,575,585,599,
596,575,572,572,558,581,579,561,558,565,596,561,588,592,557,581,
579,568,579,561,592,588,568,572,596,557,571,598,561,558,572,568
</chunk>
   <chunk x="-944" y="80" width="16" height="16">
564,592,555,598,578,564,562,592,575,578,579,561,598,568,581,575,
581,599,596,558,585,579,581,595,562,564,564,565,565,596,561,557,
554,588,565,555,579,596,595,575,581,557,581,596,558,595,565,586,
581,578,554,586,588,554,596,599,564,578,555,575,596,554,568,555,
582,565,564,578,592,572,554,557,557,598,572,564,558,562,568,558,
555,589,589,598,571,595,585,596,561,562,562,592,558,557,578,562,
574,568,561,592,574,596,582,562,562,595,554,558,595,561,571,596,
595,595,588,599,596,561,599,589,562,562,571,561,598,592,574,579,
555,578,564,571,599,589,565,596,574,598,589,554,571,588,588,595,
589,572,578,571,586,598,561,565,596,555,562,589,595,588,557,586,
579,568,598,588,589,596,598,557,585,554,564,555,557,572,558,588,
579,562,586,599,561,574,592,588,564,572,557,582,574,581,585,571,
574,592,595,599,568,565,568,595,586,564,554,572,571,588,579,561,
564,557,582,575,572,562,568,581,574,592,592,565,572,575,571,582,
555,568,578,574,578,595,581,564,582,572,565,574,596,574,568,598,
568,582,582,592,596,581,558,558,599,571,586,586,588,574,581,562
</chunk>
   <chunk x="-928" y="80" width="16" height="16">
585,599,561,568,568,565,592,582,557,578,598,572,596,592,554,555,
557,586,592,564,568,564,561,589,582,596,557,565,568,581,595,564,
596,558,575,571,592,588,574,568,579,588,562,561,568,578,555,592,
568,582,561,592,568,589,589,571,558,589,574,568,554,586,592,564,
579,558,596,592,589,561,578,598,582,585,554,586,588,564,574,571,
578,565,558,574,561,596,568,557,564,565,592,564,582,598,557,585,
562,555,572,554,564,599,592,561,592,555,571,558,579,582,581,568,
555,575,564,562,595,574,565,568,592,562,595,571,581,575,572,554,
579,588,558,568,575,554,586,575,596,554,555,558,599,586,554,572,
568,561,561,571,588,586,581,562,581,592,565,578,568,558,595,581,
599,585,572,572,568,555,571,595,579,585,574,554,572,575,557,564,
558,588,562,585,557,575,595,595,578,565,582,574,586,586,582,572,
554,558,578,578,582,565,558,561,561,596,589,575,557,562,581,564,
565,575,585,599,558,589,557,574,581,568,572,554,586,581,571,564,
579,595,557,565,595,586,568,595,558,595,561,585,589,558,578,581,
579,592,595,557,561,564,586,575,555,571,558,595,562,562,575,565
</chunk>
   <chunk x="-912" y="80" width="16" height="16">
599,581,598,555,568,572,589,562,555,557,581,561,554,595,574,588,
557,571,595,598,562,564,557,555,565,592,588,561,582,564,571,592,
565,565,578,571,579,558,579,578,558,572,562,575,565,585,572,599,
596,579,581,582,564,595,599,599,574,578,586,599,555,588,564,561,
568,562,579,592,599,574,565,581,575,581,565,599,562,578,599,588,
585,558,571,592,589,585,554,557,554,592,579,581,558,589,586,595,
595,565,588,554,555,564,592,598,578,592,578,575,555,598,561,598,
572,586,571,582,565,589,599,598,562,565,565,561,568,592,557,554,
582,592,555,588,572,581,555,578,585,598,588,561,598,578,589,571,
585,596,589,575,598,599,578,575,565,592,578,571,555,598,599,572,
571,564,575,571,571,555,581,586,592,561,564,579,578,586,558,586,
588,554,557,555,582,558,586,565,557,557,582,572,579,596,557,598,
599,596,565,571,561,561,596,571,572,586,579,565,595,571,568,588,
558,599,582,578,599,571,581,581,562,572,592,578,572,581,588,555,
596,555,558,564,582,578,558,588,572,558,571,568,555,572,575,558,
555,595,578,582,588,575,592,554,599,596,595,585,572,562,598,558
</chunk>
   <chunk x="-896" y="80" width="16" height="16">
571,561,565,599,588,581,557,586,562,596,592,565,588,588,571,582,
579,561,578,599,579,571,572,596,571,558,586,575,555,575,589,595,
599,572,565,598,598,565,585,579,568,574,598,575,571,558,581,554,
557,562,599,589,592,557,572,585,586,571,558,581,596,558,557,565,
565,561,561,588,588,598,589,571,575,568,579,581,554,592,555,572,
586,565,564,578,572,575,557,585,562,596,578,555,578,564,557,588,
562,578,571,574,565,599,586,565,562,592,565,557,554,557,598,561,
561,589,586,585,562,561,588,589,571,589,585,579,562,572,565,585,
572,585,579,571,574,582,595,555,595,582,579,592,557,557,582,588,
592,554,592,581,568,574,596,554,589,562,578,582,555,575,571,554,
595,579,557,572,588,572,578,596,568,564,586,561,565,554,586,582,
586,557,557,596,582,558,581,582,581,581,582,595,554,564,595,596,
586,579,554,565,555,595,578,596,582,571,585,564,598,562,589,568,
574,571,568,555,598,596,555,571,589,586,574,582,586,579,568,575,
575,561,588,571,596,586,562,575,581,562,558,565,588,574,574,589,
596,564,598,574,589,562,589,588,557,598,564,582,562,598,558,574
</chunk>
   <chunk x="-880" y="80" width="16" height="16">
598,561,561,599,589,581,599,568,562,592,568,555,589,586,588,562,
596,586,575,581,579,585,582,558,599,578,578,582,586,582,557,554,
562,585,598,595,578,557,586,572,557,574,595,588,599,579,562,574,
595,565,579,589,561,592,568,572,565,561,554,582,564,586,571,581,
582,592,586,596,574,595,564,554,565,565,599,581,572,575,578,596,
588,578,581,565,592,578,578,596,589,575,572,578,595,585,562,596,
555,574,581,579,565,585,588,572,554,574,578,561,571,564,557,574,
555,555,592,564,575,561,575,558,565,589,574,589,554,592,557,575,
561,564,555,589,589,562,595,578,554,572,598,558,575,582,596,561,
575,589,571,586,598,562,598,595,588,562,561,599,574,565,585,555,
585,561,558,568,595,599,579,572,565,581,554,558,586,581,589,557,
571,554,579,568,598,585,589,592,555,598,579,579,586,565,586,565,
568,574,582,565,588,555,589,557,571,588,579,565,558,595,585,568,
557,565,582,599,585,586,589,598,581,598,568,562,574,572,565,578,
558,575,554,595,568,562,555,578,582,588,579,571,588,589,586,585,
586,585,595,585,585,581,557,582,585,565,558,598,562,558,578,579
</chunk>
   <chunk x="-864" y="80" width="16" height="16">
554,571,578,595,598,571,557,598,598,572,571,579,565,596,586,579,
589,581,578,585,568,562,564,574,578,599,582,568,588,571,568,575,
578,586,574,595,579,598,588,588,588,561,574,571,564,555,598,564,
561,555,599,595,561,575,568,589,571,592,558,586,571,557,588,554,
574,579,557,588,599,561,596,565,555,599,574,568,574,572,564,561,
582,592,586,589,558,561,578,595,579,579,595,579,588,579,575,558,
579,568,558,574,561,572,588,574,568,592,562,581,561,596,561,574,
557,598,565,562,555,589,568,555,555,557,562,579,596,571,578,596,
599,574,555,578,582,572,599,555,561,586,554,596,595,565,555,557,
599,582,596,557,572,582,596,595,564,592,564,586,598,598,572,562,
557,595,581,599,581,561,557,561,585,598,561,596,592,589,557,555,
589,582,562,592,588,586,598,575,585,578,571,554,562,575,554,585,
579,581,575,554,558,554,571,579,571,568,599,595,571,572,581,561,
598,599,588,588,564,586,579,578,554,589,562,575,561,555,555,592,
589,595,555,595,558,554,578,586,588,599,582,586,589,581,574,555,
586,568,554,574,561,562,585,595,598,557,598,579,589,558,596,558
</chunk>
   <chunk x="-848" y="80" width="16" height="16">
557,581,579,555,572,589,0,0,0,0,0,0,0,0,0,0,
589,589,598,568,586,562,0,0,0,0,0,0,0,0,0,0,
598,564,582,588,555,571,0,0,0,0,0,0,0,0,0,0,
557,558,575,579,561,558,0,0,0,0,0,0,0,0,0,0,
598,596,571,582,558,568,0,0,0,0,0,0,0,0,0,0,
598,572,595,598,586,579,0,0,0,0,0,0,0,0,0,0,
571,589,558,596,585,599,0,0,0,0,0,0,0,0,0,0,
571,572,592,598,574,562,0,0,0,0,0,0,0,0,0,0,
557,586,565,598,558,592,0,0,0,0,0,0,0,0,0,0,
582,554,564,595,565,579,0,0,0,0,0,0,0,0,0,0,
598,589,564,554,571,571,0,0,0,0,0,0,0,0,0,0,
568,568,574,561,561,579,0,0,0,0,0,0,0,0,0,0,
564,574,557,578,564,578,0,0,0,0,0,0,0,0,0,0,
571,557,555,595,562,586,0,0,0,0,0,0,0,0,0,0,
561,599,579,599,581,598,0,0,0,0,0,0,0,0,0,0,
598,562,554,564,588,571,0,0,0,0,0,0,0,0,0,0
</chunk>
   <chunk x="-1344" y="96" width="16" height="16">
0,589,561,575,574,575,578,554,582,582,598,589,581,564,564,589,
0,565,595,561,595,581,561,571,595,557,585,582,571,561,564,555,
0,596,574,581,596,585,554,599,571,554,592,596,558,555,565,582,
0,562,572,575,561,599,574,574,598,571,568,586,574,561,572,572,
0,592,582,592,592,555,558,592,595,565,558,592,555,579,557,571,
0,586,568,574,589,554,568,579,588,574,554,585,558,557,555,592,
0,578,581,562,572,588,579,598,558,582,595,589,575,596,565,589,
0,565,595,568,589,562,561,595,571,582,579,562,575,592,595,579,
0,562,557,565,554,598,595,579,564,579,565,586,588,558,572,554,
0,568,588,592,585,554,561,565,592,595,599,595,575,586,599,557,
0,588,572,599,585,586,586,574,568,558,581,578,589,572,562,588,
0,558,561,561,561,599,558,557,555,568,581,596,555,598,582,598,
0,558,572,565,579,581,585,565,586,557,554,585,592,574,571,579,
0,596,585,578,582,599,579,579,579,574,589,579,558,565,598,568,
0,575,579,586,579,598,575,578,585,554,562,585,564,589,561,554,
0,578,561,565,561,578,575,558,599,561,586,574,592,558,578,579
</chunk>
   <chunk x="-1328" y="96" width="16" height="16">
586,561,586,595,596,598,572,588,578,572,581,588,561,582,592,558,
582,571,596,557,571,586,592,561,592,599,592,578,582,595,554,568,
582,589,596,588,581,557,585,572,589,599,562,596,589,571,561,554,
574,558,557,596,589,578,568,554,562,579,562,558,586,561,558,598,
575,581,578,596,579,554,568,582,588,564,575,598,595,555,558,579,
589,599,555,589,599,558,581,599,565,596,579,574,562,561,595,575,
565,581,568,557,575,575,589,557,585,562,598,558,589,564,568,595,
586,578,571,565,554,561,572,568,582,554,579,592,578,561,579,561,
572,579,562,571,585,589,598,571,578,555,586,555,598,579,592,586,
554,561,578,558,561,582,592,595,599,564,555,595,568,574,599,564,
599,578,595,554,599,598,582,568,574,595,585,586,578,582,581,592,
599,564,598,589,588,578,572,581,592,582,598,595,565,582,557,572,
562,585,574,568,562,564,575,571,595,588,586,588,578,592,586,582,
575,585,564,586,574,598,599,572,568,564,588,572,555,572,555,596,
554,565,579,565,586,561,575,561,575,565,558,585,595,568,592,595,
585,581,598,589,585,595,557,578,588,571,565,596,595,585,585,555
</chunk>
   <chunk x="-1312" y="96" width="16" height="16">
592,558,592,589,586,558,598,582,588,564,561,578,592,596,585,599,
557,586,578,555,572,596,581,595,557,572,596,564,596,564,564,564,
572,598,568,564,557,562,565,598,568,558,599,554,572,578,596,561,
568,574,562,554,564,598,581,578,592,572,562,578,592,564,568,561,
554,572,561,581,558,571,592,596,574,586,579,554,575,592,592,574,
578,578,592,572,595,585,575,555,571,554,592,557,555,588,561,592,
595,588,592,557,592,582,596,575,555,599,596,598,574,578,598,572,
589,562,568,554,592,585,561,571,575,579,598,555,575,564,598,579,
579,585,596,555,564,585,554,596,595,585,571,575,554,585,561,564,
592,565,585,598,592,571,571,589,589,575,558,554,581,592,568,565,
565,582,582,574,579,596,586,555,575,555,588,565,599,558,581,586,
595,588,578,578,564,568,562,592,582,575,589,588,555,592,558,557,
572,565,581,574,561,561,575,555,588,562,572,565,565,589,582,572,
554,585,557,585,557,588,585,582,592,575,561,554,555,574,598,554,
588,561,564,572,574,565,581,585,579,581,564,598,575,592,581,555,
575,596,557,575,586,572,581,572,581,596,588,568,592,595,572,596
</chunk>
   <chunk x="-1296" y="96" width="16" height="16">
589,575,568,585,578,585,562,599,579,564,557,581,578,561,586,582,
586,554,596,564,574,589,598,586,562,562,595,574,595,598,564,589,
596,564,586,592,557,598,575,564,579,595,595,599,586,558,578,579,
558,586,558,589,586,598,578,589,554,561,564,581,557,561,599,568,
558,568,599,572,585,564,554,588,598,588,586,562,581,588,568,565,
565,574,558,571,564,564,588,589,592,578,561,595,592,581,596,562,
588,578,579,599,598,581,578,557,568,599,596,598,599,557,588,599,
588,558,571,599,578,557,586,562,582,572,588,582,564,588,574,555,
579,561,565,555,595,588,564,596,595,561,555,555,598,562,596,565,
557,598,565,561,571,581,598,555,565,586,599,564,595,574,599,564,
579,589,589,586,582,558,572,588,564,578,575,579,596,568,586,575,
558,561,557,599,564,571,558,596,598,568,581,595,558,575,598,582,
581,581,596,571,578,585,598,581,598,599,574,595,574,585,565,562,
586,562,592,581,581,582,568,554,592,571,575,596,562,598,571,565,
564,561,571,555,568,564,572,574,568,554,582,581,595,582,557,589,
557,558,558,586,558,554,575,599,562,586,596,579,571,575,589,595
</chunk>
   <chunk x="-1280" y="96" width="16" height="16">
599,564,579,572,586,595,581,592,574,596,599,582,598,589,568,574,
561,565,568,581,596,564,568,568,599,575,572,595,565,595,588,561,
555,585,574,599,598,571,562,578,574,564,578,572,571,595,589,586,
595,581,579,596,595,595,589,564,598,571,596,562,599,589,568,555,
596,565,562,586,561,585,585,572,592,558,562,561,557,558,585,589,
557,575,579,568,585,562,557,575,562,586,598,595,578,586,581,568,
554,595,575,589,581,571,565,575,575,565,568,592,589,588,599,578,
575,589,555,558,596,561,579,592,586,555,585,572,588,562,581,595,
581,562,574,581,554,555,554,564,571,595,598,588,565,572,557,562,
555,578,579,568,562,579,596,572,589,592,586,589,562,598,562,562,
598,582,571,574,588,558,598,578,588,581,562,575,554,588,598,562,
579,561,592,578,585,555,572,578,575,562,598,562,586,568,568,589,
581,579,568,579,555,586,596,589,589,557,554,595,578,585,555,589,
558,565,582,561,588,568,574,595,588,561,585,565,588,571,574,599,
586,564,575,598,599,575,586,564,595,572,589,579,561,595,565,588,
596,555,598,574,586,598,589,562,561,562,588,554,558,572,572,554
</chunk>
   <chunk x="-1264" y="96" width="16" height="16">
561,558,588,574,562,582,565,596,562,572,571,598,592,564,557,574,
568,588,575,572,579,558,586,599,596,595,571,599,562,555,598,575,
575,571,578,572,568,598,575,586,581,572,568,572,562,562,575,558,
579,578,599,582,572,564,586,555,554,588,568,598,575,562,578,592,
582,564,585,554,554,588,585,592,555,565,599,586,592,562,592,562,
581,555,557,595,589,575,558,572,586,581,586,592,578,595,588,564,
595,571,599,575,554,585,568,588,557,557,565,561,554,579,581,588,
562,578,586,557,565,586,579,575,557,571,565,588,579,554,579,554,
568,592,557,562,585,554,564,599,599,572,562,557,586,588,568,572,
582,592,565,596,588,598,558,582,592,579,588,598,589,571,596,596,
564,562,581,564,574,586,581,555,574,574,574,568,588,598,586,555,
578,599,575,558,589,578,554,586,574,558,571,581,575,582,588,575,
568,558,554,568,595,586,595,581,574,574,557,565,589,571,599,596,
575,578,582,562,585,596,578,575,564,571,568,574,571,579,599,599,
572,578,554,572,555,598,596,554,572,557,592,596,586,588,581,596,
582,554,575,575,585,571,585,557,554,564,588,558,599,592,558,592
</chunk>
   <chunk x="-1248" y="96" width="16" height="16">
596,599,596,598,586,574,589,564,581,585,564,599,585,582,571,574,
582,557,564,588,575,561,561,568,558,558,595,578,595,588,585,592,
562,571,595,557,565,558,598,599,565,598,599,562,589,585,562,558,
596,599,599,595,586,562,554,572,572,572,564,564,578,592,598,564,
554,575,558,574,598,571,578,562,592,571,554,585,598,571,579,582,
595,572,578,557,558,592,562,564,598,554,554,598,589,565,585,579,
585,578,564,598,574,571,562,565,592,568,582,582,564,555,564,588,
572,595,598,565,554,561,558,578,571,565,586,589,586,561,589,564,
561,579,555,585,581,565,554,578,579,572,588,571,599,592,596,562,
572,554,568,558,596,585,562,572,565,555,571,599,595,582,564,588,
582,589,565,579,571,558,582,585,581,568,585,582,579,561,554,571,
581,582,568,585,575,596,579,598,555,585,596,562,581,558,568,561,
562,568,557,599,599,574,555,592,598,598,558,586,572,575,599,598,
572,596,599,568,565,579,564,578,575,598,555,564,572,592,589,575,
555,586,585,574,588,564,555,557,565,572,581,558,564,598,581,571,
562,555,575,598,595,557,582,558,582,582,561,595,564,599,568,561
</chunk>
   <chunk x="-1232" y="96" width="16" height="16">
554,579,599,595,555,574,571,586,585,571,565,555,554,598,589,0,
585,572,595,595,555,564,595,581,561,555,585,586,589,599,572,0,
571,571,588,561,595,598,589,599,575,596,561,592,564,554,571,0,
588,586,574,564,565,557,554,592,571,557,582,595,557,598,562,0,
578,561,579,598,596,582,565,588,555,596,579,592,589,598,568,0,
574,568,565,571,558,592,561,555,585,585,564,574,578,585,574,0,
554,595,589,586,555,578,558,588,568,554,568,561,555,565,589,0,
555,571,596,589,592,578,568,578,565,568,599,579,554,575,565,0,
562,581,599,562,579,579,572,568,561,571,589,561,574,565,582,0,
574,565,589,558,582,564,564,595,557,557,564,555,555,581,588,0,
586,555,592,596,575,595,578,579,554,557,568,558,596,598,565,0,
599,565,575,554,578,561,575,565,575,568,558,589,588,596,581,0,
592,558,571,558,558,592,589,578,557,586,565,558,565,554,595,0,
586,568,554,582,564,554,557,555,574,572,575,557,586,592,599,0,
561,565,572,595,571,579,565,578,586,571,578,578,557,562,585,0,
581,565,555,554,578,557,557,575,568,588,596,572,571,586,565,0
</chunk>
   <chunk x="-1056" y="96" width="16" height="16">
0,0,0,0,0,0,0,554,588,595,595,599,568,575,558,571,
0,0,0,0,0,0,0,557,564,579,568,598,588,564,596,564,
0,0,0,0,0,0,0,557,596,581,579,568,558,581,561,588,
0,0,0,0,0,0,0,571,585,585,565,568,588,589,558,599,
0,0,0,0,0,0,0,589,574,578,558,568,555,598,596,561,
0,0,0,0,0,0,0,592,582,592,565,575,599,572,572,571,
0,0,0,0,0,0,0,589,578,564,579,579,575,585,598,555,
0,0,0,0,0,0,0,581,599,575,557,578,572,555,575,575,
0,0,0,0,0,0,0,586,564,571,581,589,558,578,582,596,
0,0,0,0,0,0,0,579,595,554,557,557,582,575,581,575,
0,0,0,0,0,0,0,574,596,565,579,599,579,558,568,564,
0,0,0,0,0,0,0,596,589,592,561,596,558,568,599,564,
0,0,0,0,0,0,0,572,565,596,555,555,558,582,564,554,
0,0,0,0,0,0,0,585,561,557,555,578,564,579,572,562,
0,0,0,0,0,0,0,565,572,558,558,596,586,571,574,561,
0,0,0,0,0,0,0,562,589,586,586,578,557,562,581,598
</chunk>
   <chunk x="-1040" y="96" width="16" height="16">
589,589,579,575,564,562,599,585,579,575,574,588,595,574,558,581,
582,575,564,558,562,596,574,571,588,582,565,579,578,562,574,578,
555,554,588,561,574,571,564,595,557,571,558,571,579,554,581,565,
575,571,592,596,588,558,564,596,575,564,595,592,562,599,592,557,
598,561,579,568,554,555,588,558,558,555,598,589,555,564,579,574,
564,589,572,581,574,588,554,589,595,565,555,554,562,589,574,595,
571,581,568,582,592,568,578,595,575,558,589,571,554,596,599,557,
592,571,558,568,558,558,582,599,575,589,595,554,575,568,578,571,
589,579,554,586,568,558,589,571,592,596,582,572,565,571,572,595,
585,555,595,596,582,592,562,568,596,558,554,579,595,575,555,575,
575,557,598,578,582,555,554,588,592,565,574,585,564,599,568,581,
579,572,572,598,565,557,595,562,596,582,582,571,572,589,581,561,
558,578,558,599,555,575,562,574,554,557,586,582,555,581,582,558,
588,574,565,595,578,581,598,581,568,558,592,585,571,558,588,585,
565,562,554,562,592,564,579,588,595,578,588,575,589,578,588,589,
578,582,598,564,596,554,568,564,554,581,589,562,586,557,561,596
</chunk>
   <chunk x="-1024" y="96" width="16" height="16">
589,595,596,582,572,572,565,586,598,585,578,571,586,564,578,599,
565,592,589,555,574,588,555,599,598,555,598,571,574,562,562,588,
565,595,596,554,595,554,598,589,588,595,582,599,579,565,598,565,
582,575,588,562,579,564,572,565,582,564,554,565,579,599,558,568,
595,568,585,582,565,558,557,599,568,568,579,558,595,572,571,575,
557,554,562,558,574,575,595,565,558,579,555,572,596,579,558,575,
562,592,568,599,561,555,599,564,589,562,571,589,575,581,598,565,
579,581,589,595,599,562,596,579,578,572,557,588,582,564,595,596,
581,582,579,589,572,599,588,596,579,565,588,599,564,585,595,565,
572,564,596,586,581,571,588,575,595,574,555,554,585,568,574,568,
572,585,558,595,558,582,588,599,582,588,592,554,586,575,572,585,
581,571,561,562,585,562,568,557,599,592,571,575,575,558,589,565,
565,558,554,575,579,568,592,568,598,568,581,599,572,582,578,578,
568,582,582,564,574,565,581,588,575,558,579,555,581,562,578,589,
578,574,555,561,572,598,561,592,557,595,558,588,596,582,568,595,
561,562,565,579,598,579,565,558,568,578,555,579,578,558,582,592
</chunk>
   <chunk x="-1008" y="96" width="16" height="16">
575,578,562,571,561,554,574,592,581,574,586,579,572,598,581,592,
558,554,596,592,555,564,596,589,557,572,562,585,557,572,562,596,
588,581,588,562,578,589,595,562,598,585,596,586,558,558,581,565,
568,557,562,554,561,574,581,562,592,592,571,599,571,555,586,554,
578,585,555,582,562,571,582,585,585,568,582,589,575,579,581,582,
599,592,562,586,555,558,579,598,575,586,565,572,558,588,561,585,
582,571,568,579,558,592,581,572,574,592,571,589,598,585,592,568,
589,596,585,574,578,579,588,596,578,585,555,555,558,599,598,557,
558,575,599,585,574,588,585,555,589,589,565,555,592,599,581,565,
598,588,558,582,561,579,582,589,558,588,557,596,588,571,554,595,
564,598,565,555,595,592,589,592,578,585,596,557,586,568,586,574,
555,568,579,572,572,588,555,554,557,561,595,558,561,589,578,581,
574,572,598,564,581,564,571,578,588,595,562,574,574,598,561,574,
574,557,555,572,586,571,554,564,565,565,578,572,574,571,585,557,
558,585,595,581,562,562,586,595,585,585,558,555,558,592,558,554,
579,586,561,578,557,557,558,581,596,555,585,575,585,564,568,555
</chunk>
   <chunk x="-992" y="96" width="16" height="16">
557,565,554,562,586,558,561,599,572,578,589,596,554,596,565,579,
558,554,571,598,578,578,575,571,592,586,581,579,554,598,595,588,
596,592,558,578,588,589,585,581,599,558,585,555,568,557,599,568,
598,585,554,598,555,565,586,557,554,589,578,588,586,586,578,572,
561,581,589,568,592,582,554,558,598,582,586,568,572,581,582,592,
571,575,588,599,555,571,596,568,588,586,572,574,575,586,596,578,
565,586,564,595,568,575,564,554,578,561,585,562,598,571,599,582,
571,574,581,585,554,561,588,582,561,582,588,575,568,565,562,589,
565,585,582,582,561,565,592,595,585,574,592,596,575,561,571,588,
574,592,554,585,574,578,554,595,565,592,572,558,586,571,568,554,
554,599,578,562,592,589,599,592,558,562,598,592,581,564,572,572,
595,575,585,578,574,568,599,571,596,575,589,561,565,572,589,586,
586,596,571,598,554,554,571,588,598,562,581,571,585,582,578,588,
578,565,571,571,599,554,564,582,585,558,565,586,581,586,581,595,
565,596,558,572,588,586,568,564,574,598,596,565,585,589,581,565,
595,575,572,568,572,595,578,564,565,562,574,568,564,592,579,588
</chunk>
   <chunk x="-976" y="96" width="16" height="16">
599,586,557,571,595,588,561,585,554,596,565,565,585,557,564,598,
571,561,598,582,557,589,564,581,565,554,564,561,588,598,581,598,
564,558,575,565,555,588,571,589,574,564,598,592,582,565,571,579,
561,572,599,568,578,598,562,574,589,588,589,562,589,578,585,561,
572,585,578,565,581,579,592,599,562,557,592,574,565,571,565,585,
574,596,558,592,564,562,564,586,589,564,592,562,589,572,589,579,
571,595,572,558,575,588,568,592,578,589,585,555,589,585,575,592,
595,557,555,579,557,582,582,561,579,598,561,571,568,596,589,599,
596,596,579,554,586,574,579,578,582,581,574,598,564,581,564,561,
589,561,557,575,585,589,561,557,596,581,578,557,562,562,561,582,
572,571,574,581,558,574,564,586,582,571,592,564,582,565,574,571,
571,562,589,582,598,575,585,589,596,565,592,595,568,588,578,561,
564,571,554,572,581,565,588,599,579,579,571,571,554,598,588,596,
599,582,565,574,598,589,581,592,564,586,586,588,565,574,558,596,
578,562,592,599,565,571,555,592,598,568,554,596,561,568,589,574,
585,579,571,572,592,579,555,579,596,589,554,575,586,595,572,588
</chunk>
   <chunk x="-960" y="96" width="16" height="16">
589,589,595,574,555,572,568,555,599,578,555,578,588,574,572,596,
572,571,565,595,555,574,561,574,562,582,554,595,571,578,589,596,
555,555,565,568,561,596,579,572,571,598,554,588,595,586,562,595,
572,595,565,574,575,582,555,589,565,554,572,598,596,558,555,574,
555,589,585,572,555,561,589,555,554,585,561,582,582,582,574,592,
562,592,578,571,571,588,565,596,554,588,599,572,555,557,588,565,
562,595,568,554,554,568,572,568,555,561,598,599,596,561,596,588,
571,599,592,579,578,579,562,599,568,555,571,581,557,599,596,568,
578,582,592,564,562,562,585,555,581,579,579,582,557,582,589,586,
562,578,565,568,585,598,558,582,592,586,596,585,574,588,582,574,
596,572,581,588,598,555,585,572,598,572,598,595,561,595,574,581,
595,581,558,564,572,557,557,592,589,561,571,589,554,558,589,582,
578,564,571,598,574,571,564,582,592,565,562,555,588,572,572,578,
596,557,571,571,586,561,574,558,585,558,572,588,579,586,579,555,
575,555,571,561,586,557,555,561,571,578,565,578,595,581,572,596,
598,571,575,596,589,585,578,571,562,561,575,581,561,555,564,595
</chunk>
   <chunk x="-944" y="96" width="16" height="16">
554,599,558,568,599,596,581,585,568,585,588,599,589,562,581,568,
561,585,596,582,578,572,572,585,582,578,598,572,589,558,578,565,
599,564,588,564,555,554,596,579,592,562,596,554,572,589,562,595,
564,558,581,554,598,596,595,557,568,575,558,578,586,586,557,557,
581,575,599,586,588,589,568,592,554,586,579,574,561,586,589,595,
574,582,561,571,557,554,581,589,585,599,557,564,585,592,586,571,
595,579,555,582,582,572,572,558,582,571,588,585,578,565,565,592,
564,589,564,568,582,595,565,589,575,557,561,589,571,599,588,585,
596,571,558,575,592,571,598,565,596,579,564,579,589,595,579,592,
588,595,579,599,596,571,586,555,565,586,579,592,592,558,578,581,
561,574,555,565,565,596,557,585,595,581,561,586,555,554,558,557,
558,557,575,578,599,564,589,561,558,572,557,555,575,585,595,578,
565,581,589,561,581,562,562,595,574,554,589,581,575,575,565,561,
588,585,568,557,568,578,575,574,571,557,555,565,558,595,574,579,
555,558,586,586,564,581,557,579,557,554,592,579,598,554,595,578,
568,564,582,585,578,572,568,598,568,589,568,565,598,585,585,588
</chunk>
   <chunk x="-928" y="96" width="16" height="16">
561,557,575,558,592,578,562,575,571,564,598,578,585,574,581,562,
565,565,565,582,595,557,557,571,565,589,558,555,582,564,555,575,
581,557,575,599,554,599,558,565,598,562,574,585,555,592,565,565,
596,585,581,579,561,557,558,555,562,581,574,595,595,574,561,588,
555,582,581,557,572,564,561,562,589,562,564,596,558,592,586,557,
571,592,568,572,588,571,572,557,572,572,588,588,572,572,558,598,
595,578,582,568,599,555,595,588,581,575,595,596,564,579,571,558,
578,554,565,598,598,564,585,582,592,596,558,571,578,561,581,599,
565,561,574,571,561,592,582,568,588,582,564,579,574,598,555,558,
555,582,558,581,571,585,578,598,595,582,588,592,568,565,562,582,
574,555,572,596,574,598,599,568,581,575,558,558,561,598,564,579,
555,572,555,557,558,598,585,565,578,574,592,572,592,599,595,595,
586,568,555,582,589,565,578,561,581,586,554,561,575,575,581,582,
555,562,575,575,592,596,561,581,562,572,571,578,565,578,588,578,
571,588,578,575,562,598,557,557,598,578,565,554,565,596,596,561,
586,599,575,555,572,579,557,565,572,554,562,595,572,564,581,585
</chunk>
   <chunk x="-912" y="96" width="16" height="16">
579,572,589,572,579,589,595,581,554,575,592,565,595,554,555,562,
598,564,565,578,557,598,562,595,564,598,599,592,557,572,554,561,
579,598,555,561,555,596,557,568,574,578,579,582,599,598,575,561,
561,554,586,571,571,586,588,582,592,575,574,592,586,596,557,558,
592,572,595,574,558,582,585,561,586,561,598,592,558,585,561,565,
574,578,596,562,582,582,568,586,564,562,582,564,557,557,578,561,
578,571,572,558,565,555,585,579,568,557,568,575,555,586,572,579,
595,557,564,592,574,555,586,595,578,596,572,554,575,562,578,586,
588,598,554,572,575,565,557,588,557,578,589,596,588,565,568,571,
589,585,586,572,575,592,578,595,588,595,589,595,572,555,595,557,
586,582,589,598,581,562,595,555,564,574,589,572,562,572,588,562,
582,561,596,586,578,586,561,599,568,599,558,555,581,572,555,599,
581,598,585,568,588,586,557,562,562,588,558,596,592,578,595,581,
564,572,555,564,574,585,557,586,568,581,592,586,596,574,554,564,
575,574,596,555,561,581,568,595,575,582,586,565,562,564,565,592,
589,579,561,596,558,589,579,565,572,588,599,575,582,571,557,562
</chunk>
   <chunk x="-896" y="96" width="16" height="16">
589,596,571,585,599,554,596,554,572,589,555,574,586,579,557,599,
561,585,554,592,588,561,574,586,555,595,571,585,595,596,585,561,
558,578,578,558,579,595,562,557,578,558,592,571,572,589,554,599,
595,565,582,572,571,557,572,557,554,578,598,571,574,579,598,589,
579,568,586,557,588,571,595,599,575,586,557,572,579,557,595,592,
588,582,582,588,557,582,599,562,561,599,575,581,596,555,561,599,
555,558,554,598,588,575,568,586,564,598,588,588,579,554,555,574,
572,574,581,586,572,554,599,565,578,592,571,598,599,585,599,585,
554,554,562,579,578,596,555,598,585,595,557,592,575,599,578,557,
554,557,558,572,571,564,562,582,586,586,595,574,555,578,575,592,
568,586,586,595,585,578,582,555,585,572,581,564,581,557,561,554,
582,585,564,558,589,568,598,581,574,555,595,564,564,561,589,574,
592,571,598,592,564,565,562,562,572,579,562,579,598,554,575,589,
574,589,568,568,596,588,582,581,558,579,598,586,572,571,564,565,
572,555,565,564,585,599,588,596,579,598,558,571,589,596,554,582,
586,585,554,581,574,564,595,588,582,574,562,554,579,557,554,598
</chunk>
   <chunk x="-880" y="96" width="16" height="16">
586,579,578,595,595,555,586,555,585,574,589,565,598,582,581,588,
565,586,568,598,555,598,575,562,555,561,557,599,572,579,578,558,
572,595,586,558,582,557,599,571,599,557,596,581,581,562,578,596,
572,564,572,578,596,568,589,565,554,558,565,595,555,564,554,588,
598,581,582,568,586,589,574,586,595,578,596,562,596,572,554,557,
592,574,595,565,589,554,575,574,599,586,558,561,557,564,596,588,
596,565,578,579,574,586,592,596,561,586,574,561,599,586,558,579,
589,565,582,564,596,585,599,582,578,586,572,592,589,554,572,588,
565,589,555,598,574,578,565,596,558,565,595,562,562,581,571,582,
598,578,582,588,557,565,599,561,571,588,571,572,586,582,595,595,
557,562,596,564,585,599,582,568,574,588,592,586,575,565,558,585,
557,561,568,554,592,599,557,598,555,572,561,554,574,586,557,582,
565,554,598,557,578,588,589,596,568,562,579,558,572,561,596,581,
589,589,561,581,575,555,574,598,554,588,572,565,562,572,586,564,
595,555,561,558,558,579,596,554,578,564,557,568,589,592,568,595,
586,586,571,572,589,599,574,588,578,554,582,558,554,578,586,558
</chunk>
   <chunk x="-864" y="96" width="16" height="16">
554,585,555,561,568,565,561,595,557,575,557,588,581,572,598,574,
572,574,571,586,574,586,592,562,599,595,562,555,586,581,574,586,
561,558,581,554,555,581,582,599,554,579,595,554,565,581,574,586,
565,588,589,585,557,562,561,592,575,568,589,557,579,558,571,564,
568,596,582,572,565,571,575,568,575,557,588,562,564,555,571,581,
562,571,592,555,589,562,561,561,598,557,586,589,578,561,555,581,
582,578,592,596,596,555,599,585,599,575,581,581,586,589,592,555,
572,557,561,555,565,586,571,572,555,557,589,581,557,585,599,558,
561,554,572,596,596,582,564,562,585,578,555,596,596,599,575,585,
582,589,555,596,564,588,565,578,579,555,564,561,558,568,564,557,
588,562,586,578,579,599,572,555,588,581,562,562,582,568,599,588,
561,564,572,595,554,585,561,579,592,589,564,599,582,558,592,555,
599,561,565,585,562,575,575,582,575,598,571,568,562,586,578,554,
558,596,588,571,561,575,572,588,581,558,581,599,555,599,592,555,
572,574,568,599,562,585,558,562,582,575,586,562,564,592,561,558,
592,562,571,555,565,568,562,595,558,586,595,578,595,579,596,586
</chunk>
   <chunk x="-848" y="96" width="16" height="16">
554,589,589,598,565,579,0,0,0,0,0,0,0,0,0,0,
589,589,557,554,564,571,0,0,0,0,0,0,0,0,0,0,
557,555,561,554,574,586,0,0,0,0,0,0,0,0,0,0,
568,557,596,572,574,592,0,0,0,0,0,0,0,0,0,0,
599,579,598,579,555,588,0,0,0,0,0,0,0,0,0,0,
598,596,562,561,581,574,0,0,0,0,0,0,0,0,0,0,
589,555,585,596,574,581,0,0,0,0,0,0,0,0,0,0,
555,578,558,581,585,599,0,0,0,0,0,0,0,0,0,0,
586,558,572,561,564,585,0,0,0,0,0,0,0,0,0,0,
599,572,565,562,592,582,0,0,0,0,0,0,0,0,0,0,
575,589,562,579,595,558,0,0,0,0,0,0,0,0,0,0,
571,595,554,554,596,596,0,0,0,0,0,0,0,0,0,0,
561,586,564,582,554,589,0,0,0,0,0,0,0,0,0,0,
564,596,572,554,571,585,0,0,0,0,0,0,0,0,0,0,
568,557,585,555,557,571,0,0,0,0,0,0,0,0,0,0,
571,578,581,581,592,558,0,0,0,0,0,0,0,0,0,0
</chunk>
   <chunk x="-1344" y="112" width="16" height="16">
0,586,557,595,557,589,575,599,561,568,562,574,568,579,589,575,
0,558,592,561,562,572,596,562,585,568,554,568,578,554,589,589,
0,582,565,568,568,589,564,574,586,579,574,585,586,599,572,575,
0,586,581,562,598,555,598,586,582,588,585,564,571,554,557,572,
0,574,589,561,578,586,561,596,582,585,595,589,579,589,588,562,
0,581,589,579,558,565,589,572,555,561,599,595,598,599,561,582,
0,575,555,582,598,581,598,561,565,598,588,595,582,574,564,599,
0,561,589,558,585,579,585,596,582,589,572,585,557,575,568,598,
0,555,564,582,592,557,561,595,581,579,574,599,565,554,595,555,
0,568,599,554,589,588,554,579,588,595,589,596,565,585,557,581,
0,588,564,564,568,599,572,595,554,585,558,575,564,595,578,585,
0,588,571,575,598,562,599,595,565,575,575,586,581,555,581,588,
0,568,554,557,579,586,581,596,557,586,561,588,574,592,571,564,
0,596,557,586,555,586,579,557,571,562,561,561,585,589,598,595,
0,592,565,565,579,564,568,561,598,582,586,582,589,592,578,599,
0,578,561,589,574,565,555,592,592,575,578,562,571,574,572,599
</chunk>
   <chunk x="-1328" y="112" width="16" height="16">
554,562,558,582,589,586,568,581,596,554,588,557,595,571,595,586,
598,568,581,586,586,561,578,585,571,581,554,572,572,555,574,572,
571,562,588,555,579,588,554,578,578,588,564,592,588,579,579,588,
598,589,592,582,557,599,568,586,586,564,575,554,561,582,562,568,
565,595,568,575,562,562,579,596,562,592,571,575,586,579,555,562,
555,568,582,582,572,582,568,558,596,589,598,558,588,582,554,574,
571,555,596,558,586,592,574,558,586,598,564,585,579,578,588,592,
599,588,561,592,578,588,564,568,578,571,581,557,578,557,572,589,
579,581,555,571,589,599,596,595,561,585,555,557,579,555,562,557,
562,565,589,585,564,578,561,558,578,586,572,558,571,599,585,599,
585,555,555,568,596,581,589,589,588,554,592,564,588,574,557,555,
574,598,574,561,599,565,578,579,575,554,599,578,558,564,558,571,
592,574,564,589,595,574,581,579,585,596,592,589,558,572,562,574,
562,586,568,596,578,588,586,572,586,595,568,581,562,598,598,598,
561,554,588,554,595,592,582,564,557,561,575,579,558,586,557,575,
598,589,585,585,561,586,579,558,578,561,564,571,578,554,555,555
</chunk>
   <chunk x="-1312" y="112" width="16" height="16">
589,599,562,578,565,572,557,562,561,579,575,574,595,558,582,586,
582,579,592,585,586,592,581,592,596,599,558,592,575,592,564,581,
585,554,582,555,582,599,578,562,574,579,572,598,558,572,596,564,
562,568,558,571,588,598,561,596,564,562,592,592,555,592,561,574,
575,558,562,561,565,571,596,572,561,595,571,562,572,592,588,585,
572,568,562,579,558,558,585,589,568,585,599,555,585,557,596,589,
592,558,574,568,581,581,599,571,581,578,571,578,568,586,572,557,
558,554,572,586,568,598,598,585,564,575,592,599,568,589,582,581,
582,595,588,557,572,598,557,581,585,588,589,572,554,596,565,571,
585,565,579,574,595,574,589,568,562,596,589,589,558,555,598,598,
596,555,581,589,565,586,561,592,582,555,582,588,562,561,592,572,
555,578,579,592,585,565,599,575,582,558,585,558,562,586,555,562,
578,598,561,586,598,571,561,589,581,592,589,599,557,565,572,595,
585,555,592,554,598,598,562,568,575,579,572,598,588,581,588,581,
582,599,579,555,558,599,571,562,586,596,554,554,562,555,568,574,
562,565,561,599,579,598,557,565,572,555,578,568,554,562,581,598
</chunk>
   <chunk x="-1296" y="112" width="16" height="16">
578,562,592,561,599,579,554,592,592,564,554,578,554,557,572,585,
558,599,582,585,596,558,588,578,592,595,555,588,579,564,581,571,
557,592,579,562,585,586,558,579,575,582,564,599,592,596,571,581,
568,557,554,596,575,554,574,568,562,568,562,592,557,564,571,561,
578,595,568,588,598,557,554,575,555,574,561,572,599,599,586,596,
585,598,581,565,565,558,581,572,582,595,586,574,592,565,571,562,
592,557,555,579,579,588,562,562,589,571,586,595,562,598,599,554,
595,582,561,595,575,555,582,581,588,558,581,565,585,564,589,588,
575,565,581,574,561,572,585,579,578,582,571,581,592,599,596,579,
589,588,561,571,571,561,571,599,575,572,555,578,589,562,579,579,
598,572,558,582,596,572,571,572,585,554,557,562,568,579,578,575,
595,585,589,579,598,581,554,598,579,554,588,565,598,558,578,565,
575,571,586,564,571,572,555,599,575,564,557,554,554,579,554,574,
554,588,585,588,599,578,588,578,595,557,564,598,599,589,558,564,
562,572,592,568,598,561,561,562,579,554,582,575,592,564,596,589,
555,581,564,579,565,558,568,568,571,555,574,574,581,595,565,592
</chunk>
   <chunk x="-1280" y="112" width="16" height="16">
562,595,599,568,574,571,562,596,555,561,589,555,574,582,575,565,
588,599,575,581,568,574,585,568,574,582,581,598,564,595,575,565,
579,562,568,598,585,578,592,565,598,572,581,554,586,596,555,592,
568,596,554,578,588,586,564,555,568,588,588,562,599,596,557,596,
571,575,599,565,564,575,578,571,598,595,555,581,588,578,598,578,
579,586,555,586,558,554,586,588,574,578,568,599,585,565,557,586,
585,574,579,555,581,588,554,598,579,578,596,588,578,596,571,596,
568,557,581,581,572,598,589,568,578,554,596,598,561,568,599,595,
555,555,582,592,589,592,565,589,585,575,571,586,554,582,558,565,
554,589,561,555,581,558,555,571,592,586,596,579,554,564,564,557,
578,582,562,564,558,558,596,564,572,582,572,579,586,557,581,585,
564,565,558,554,592,596,585,564,599,571,575,575,555,554,581,585,
585,578,588,592,565,592,589,585,592,578,581,555,564,586,555,562,
572,574,571,557,562,554,561,585,561,557,585,562,565,585,585,565,
561,578,595,585,596,558,565,565,592,599,596,564,565,592,564,588,
565,588,586,582,581,588,564,578,599,592,585,568,564,557,599,592
</chunk>
   <chunk x="-1264" y="112" width="16" height="16">
571,555,555,557,571,598,579,588,571,565,554,568,571,582,554,596,
578,578,564,562,575,589,581,588,574,582,589,555,581,564,568,555,
578,599,571,582,588,574,599,565,557,581,598,599,575,557,564,588,
571,575,582,562,582,581,575,554,558,592,585,599,568,557,595,558,
557,586,571,558,585,555,592,575,582,558,579,561,565,555,561,599,
558,582,582,581,585,562,586,588,578,579,586,574,575,558,582,564,
557,592,588,575,561,575,579,564,561,598,598,586,598,557,572,582,
578,592,564,578,578,579,578,561,588,581,568,599,562,585,554,554,
554,562,592,555,595,596,554,596,565,561,564,555,571,586,585,555,
561,599,596,595,565,592,595,582,557,562,564,575,592,598,554,562,
596,561,564,554,575,574,572,561,598,565,582,599,592,578,562,598,
574,595,588,592,579,572,585,588,572,554,568,582,579,572,574,555,
572,565,554,592,578,555,574,562,562,565,574,561,574,592,554,599,
572,578,579,595,596,564,599,572,571,561,565,595,588,578,592,598,
586,588,582,568,575,555,575,595,565,592,581,586,596,582,585,557,
554,561,562,581,565,579,568,599,582,599,574,572,595,588,595,588
</chunk>
   <chunk x="-1248" y="112" width="16" height="16">
571,554,572,595,598,555,589,557,579,599,592,562,557,571,579,558,
592,585,579,581,592,571,562,575,592,558,592,554,599,582,568,558,
561,555,558,557,568,557,574,581,571,592,575,585,595,596,598,572,
558,595,554,562,562,598,579,571,589,599,572,586,589,578,558,585,
557,592,558,554,589,558,564,585,589,586,592,585,596,568,555,595,
575,578,555,578,599,562,558,575,586,575,589,564,598,561,564,574,
575,589,565,574,582,581,574,588,561,562,596,592,589,592,554,575,
557,565,585,554,582,585,575,595,599,565,578,562,562,595,572,581,
555,598,557,557,554,564,585,568,555,582,586,571,568,558,561,596,
586,555,586,562,588,598,562,575,595,578,555,599,599,558,572,554,
588,568,572,574,568,599,561,582,571,557,564,572,555,585,571,585,
596,562,571,574,599,596,588,588,555,561,574,568,581,596,555,561,
592,599,585,582,574,579,555,589,564,578,585,579,586,562,554,599,
568,596,562,555,558,595,585,589,589,571,558,557,574,555,588,598,
558,579,588,599,581,574,575,555,564,578,554,589,574,555,571,585,
595,596,582,554,564,579,571,574,558,575,555,592,599,595,596,565
</chunk>
   <chunk x="-1232" y="112" width="16" height="16">
585,572,575,558,574,557,562,561,586,581,581,565,571,571,568,0,
582,562,599,578,557,585,581,574,578,596,572,585,568,568,599,0,
557,598,565,592,599,589,586,589,589,585,564,554,589,555,579,0,
572,565,572,581,572,568,558,565,574,555,554,598,579,555,572,0,
599,565,565,596,581,562,565,599,561,585,595,571,579,588,588,0,
575,565,568,588,596,554,571,589,554,575,565,554,571,586,564,0,
561,592,592,555,558,572,568,568,592,568,585,571,579,557,555,0,
582,557,592,562,562,579,555,588,574,558,562,592,588,599,585,0,
588,575,599,574,564,561,585,595,554,596,578,599,599,585,586,0,
582,554,598,564,581,589,561,585,596,582,572,581,586,555,596,0,
558,562,585,562,579,574,565,565,562,578,589,561,596,568,578,0,
588,572,572,581,571,582,568,572,575,582,589,565,582,589,578,0,
579,581,557,568,558,571,564,554,592,595,585,565,592,578,579,0,
574,599,586,578,572,558,564,575,562,579,564,579,585,562,585,0,
589,557,571,575,598,589,592,592,589,555,575,558,572,598,574,0,
554,579,575,599,581,564,571,561,575,599,581,555,564,554,585,0
</chunk>
   <chunk x="-1056" y="112" width="16" height="16">
0,0,0,0,0,0,0,582,557,562,575,589,589,586,572,564,
0,0,0,0,0,0,0,572,588,596,585,555,562,579,582,558,
0,0,0,0,0,0,0,596,575,585,574,568,555,574,586,554,
0,0,0,0,0,0,0,565,585,555,581,596,589,598,595,578,
0,0,0,0,0,0,0,598,586,598,578,581,557,596,561,557,
0,0,0,0,0,0,0,561,571,561,571,592,595,565,596,582,
0,0,0,0,0,0,0,578,562,558,564,578,595,592,572,571,
0,0,0,0,0,0,0,595,585,557,575,554,581,599,596,575,
0,0,0,0,0,0,0,582,588,596,585,575,596,598,579,557,
0,0,0,0,0,0,0,564,595,575,571,555,588,554,578,554,
0,0,0,0,0,0,0,578,599,562,571,578,568,592,554,578,
0,0,0,0,0,0,0,588,592,595,588,571,565,599,596,562,
0,0,0,0,0,0,0,596,596,586,568,595,599,581,585,598,
0,0,0,0,0,0,0,578,562,571,586,579,564,571,575,568,
0,0,0,0,0,0,0,561,555,588,574,568,557,592,565,579,
0,0,0,0,0,0,0,561,598,589,561,555,585,561,561,581
</chunk>
   <chunk x="-1040" y="112" width="16" height="16">
582,588,588,561,588,555,571,586,586,598,575,578,589,561,562,578,
596,574,592,579,578,572,588,557,581,557,589,588,578,558,571,581,
578,554,572,589,595,596,599,571,589,596,562,578,578,571,571,557,
599,574,588,599,588,595,588,571,564,582,598,579,572,568,575,554,
592,572,555,572,575,565,592,575,598,589,564,575,574,588,557,574,
575,562,568,581,572,589,571,557,578,585,585,574,588,554,599,581,
589,555,561,562,561,589,579,579,575,592,595,596,564,557,564,582,
582,568,572,575,564,565,571,568,564,575,585,579,582,571,568,555,
582,592,579,568,565,564,562,564,558,557,557,554,558,581,575,595,
558,568,592,568,574,579,572,562,562,578,572,554,562,598,599,585,
558,558,574,554,592,562,558,561,575,588,586,565,565,554,585,571,
596,568,596,562,555,574,557,592,557,555,586,581,561,578,588,581,
565,582,554,588,575,578,572,561,595,578,579,589,554,588,575,578,
565,595,564,562,582,578,588,575,558,585,557,557,575,554,564,557,
585,578,572,588,554,562,581,599,586,554,588,562,558,575,586,574,
596,571,564,561,595,592,554,572,599,562,562,579,598,575,575,578
</chunk>
   <chunk x="-1024" y="112" width="16" height="16">
581,555,558,574,581,586,596,578,596,582,554,596,585,568,582,581,
564,589,592,581,588,596,562,574,595,555,572,599,595,589,599,592,
599,588,558,585,578,558,571,596,575,578,585,579,596,568,599,578,
599,555,578,557,585,581,574,575,586,599,595,596,586,571,589,595,
598,586,574,555,565,598,592,565,578,592,571,558,558,589,571,568,
564,565,578,581,572,565,574,588,592,574,571,595,581,575,598,568,
582,589,557,588,561,586,561,599,575,562,582,582,586,557,596,555,
578,554,589,572,581,592,574,586,571,572,558,598,598,564,555,571,
564,585,589,596,588,581,589,585,564,598,561,592,599,585,599,571,
599,592,564,562,581,598,585,558,596,557,581,571,554,558,588,554,
565,572,557,592,565,564,586,589,598,568,585,575,575,596,585,554,
571,562,561,595,595,588,595,581,586,585,574,575,592,572,596,554,
596,558,585,581,555,582,575,586,574,565,575,575,598,568,571,555,
565,589,579,571,571,589,579,575,588,572,575,582,578,588,564,562,
558,557,554,585,575,595,568,585,562,565,589,589,592,581,578,595,
578,578,589,555,574,571,589,595,595,558,554,586,589,558,598,557
</chunk>
   <chunk x="-1008" y="112" width="16" height="16">
561,598,558,598,558,564,599,568,598,562,565,568,578,574,554,572,
571,572,562,589,596,558,564,557,586,599,589,557,579,575,599,564,
595,554,586,581,598,595,596,581,554,572,599,578,562,554,595,557,
568,558,554,581,555,561,555,572,565,589,598,558,562,592,558,568,
565,585,558,558,595,598,588,589,586,585,565,585,589,582,599,588,
592,568,581,575,571,578,578,589,575,565,578,585,561,564,558,588,
571,572,565,585,568,579,596,595,585,568,598,582,589,562,568,572,
592,592,572,565,565,555,589,598,575,598,568,598,585,596,565,574,
589,586,575,564,595,565,562,562,557,586,588,581,598,579,578,599,
579,589,575,581,554,581,572,579,564,599,564,558,562,557,581,578,
588,581,599,598,585,565,582,578,585,575,557,586,586,555,578,582,
562,599,582,557,554,596,582,582,575,568,599,596,578,562,588,595,
574,557,588,581,562,596,592,595,558,572,589,564,574,588,574,555,
555,561,582,557,557,578,599,568,565,558,554,579,595,596,598,564,
562,572,562,562,565,579,562,588,598,565,574,575,578,562,565,596,
557,554,598,588,589,562,598,599,578,562,564,585,588,596,574,565
</chunk>
   <chunk x="-992" y="112" width="16" height="16">
581,578,558,582,599,598,578,561,586,581,561,558,561,581,595,571,
586,588,557,561,585,585,589,571,561,574,596,599,579,574,592,581,
599,582,578,586,582,592,589,589,575,582,557,598,598,571,589,589,
585,565,586,595,598,568,598,555,595,599,575,588,554,578,596,558,
586,555,596,589,575,588,568,586,558,572,599,572,568,574,562,596,
565,561,555,586,592,595,572,581,592,575,555,589,599,568,561,568,
598,578,578,571,555,575,558,585,596,561,557,558,581,558,599,585,
574,571,589,555,586,589,557,555,554,561,562,557,561,582,586,568,
562,599,558,572,574,595,562,589,572,557,578,574,578,585,562,588,
555,558,555,581,558,589,581,561,578,588,589,595,554,598,578,595,
579,579,571,596,572,565,595,579,562,599,554,599,571,578,589,572,
571,554,595,568,557,592,558,575,586,554,571,578,579,592,588,562,
599,555,578,582,558,582,596,558,592,555,585,555,586,598,586,588,
582,596,585,586,554,579,555,557,579,595,586,596,589,564,575,578,
592,592,595,575,581,579,581,589,568,564,561,585,582,558,581,561,
557,579,575,565,585,589,574,558,589,564,574,554,581,574,586,557
</chunk>
   <chunk x="-976" y="112" width="16" height="16">
575,596,568,561,562,558,599,599,598,554,595,596,585,588,578,574,
596,575,565,568,557,588,581,579,581,555,588,596,574,595,572,589,
586,598,557,565,588,599,564,598,592,582,578,598,585,571,555,598,
581,555,586,568,557,581,595,589,575,572,571,568,578,574,581,578,
599,571,562,568,565,592,596,598,571,572,554,555,571,575,565,586,
561,596,564,598,578,581,585,589,588,585,557,572,562,571,578,585,
575,571,574,599,565,564,581,554,572,588,555,557,571,555,598,579,
574,586,592,554,572,571,596,572,562,558,585,585,568,554,574,572,
579,555,582,572,554,572,568,561,568,557,561,554,581,575,571,598,
565,581,588,596,575,598,572,579,578,589,586,578,588,582,575,562,
561,595,558,581,585,568,592,581,592,575,555,595,581,575,596,579,
564,595,574,586,574,554,589,592,564,561,572,568,565,564,564,599,
579,571,565,592,581,586,581,592,588,564,561,568,588,574,575,598,
585,586,586,592,595,579,555,589,579,561,557,555,572,564,568,561,
564,592,562,578,585,565,564,571,555,582,575,599,596,581,561,564,
554,557,568,579,588,572,564,599,578,599,562,562,588,561,599,582
</chunk>
   <chunk x="-960" y="112" width="16" height="16">
578,592,586,592,596,574,554,585,592,595,555,572,554,578,589,561,
595,555,572,554,592,589,575,557,595,579,582,572,595,555,568,562,
596,574,588,596,581,565,574,588,572,558,558,586,575,574,592,598,
595,574,588,592,562,574,596,596,564,599,555,557,586,555,595,574,
568,585,562,557,581,575,598,578,588,554,596,572,578,555,599,572,
578,581,578,582,572,589,558,592,599,565,562,581,592,586,598,561,
561,568,574,598,557,592,578,599,579,598,561,574,579,595,575,582,
572,572,582,575,599,595,558,561,589,578,582,572,581,554,586,579,
582,586,592,565,599,555,572,596,598,558,589,561,578,598,557,575,
574,586,565,592,599,585,581,581,592,596,595,575,582,582,561,599,
562,568,596,588,557,596,572,585,578,562,554,578,586,585,562,588,
586,562,579,579,579,596,572,557,558,572,599,598,574,579,555,554,
558,586,581,588,599,585,571,599,589,564,572,599,575,585,565,581,
555,568,572,558,585,562,565,581,574,595,558,558,565,571,554,557,
582,568,592,572,572,558,557,592,595,554,555,554,599,558,592,599,
558,571,578,572,572,585,592,592,596,575,589,571,568,571,568,578
</chunk>
   <chunk x="-944" y="112" width="16" height="16">
564,557,598,585,595,582,557,557,561,572,578,592,568,557,561,589,
578,574,595,592,596,562,588,581,564,554,575,581,564,595,582,574,
581,554,562,588,598,568,588,578,561,558,571,572,579,596,571,555,
562,589,581,596,555,574,575,578,581,589,568,562,595,565,558,589,
579,554,581,586,598,565,558,555,579,598,565,561,575,575,579,555,
572,574,572,555,554,557,575,588,596,588,565,561,585,554,557,571,
572,558,575,581,571,571,579,599,598,561,562,568,588,565,557,565,
568,579,571,554,581,568,585,585,561,562,574,555,555,581,575,557,
557,557,598,598,571,586,599,565,562,555,558,574,585,592,581,599,
564,581,582,555,598,578,568,568,571,581,586,581,599,575,575,554,
554,592,588,575,595,582,554,561,572,568,578,554,579,595,582,588,
581,554,557,558,558,564,586,595,598,574,589,561,588,598,562,568,
574,564,582,599,571,572,564,581,581,582,582,598,578,596,585,585,
558,564,562,582,598,582,558,596,596,565,564,595,581,588,586,585,
555,562,575,558,558,599,598,596,564,554,592,574,589,572,562,586,
579,596,554,595,588,599,595,588,561,568,592,598,562,599,595,579
</chunk>
   <chunk x="-928" y="112" width="16" height="16">
571,592,575,568,579,585,564,579,589,555,557,565,564,565,564,581,
574,561,572,578,564,554,595,561,588,598,574,554,585,578,598,555,
557,557,554,568,582,582,595,595,554,582,578,554,579,575,588,592,
581,586,599,598,585,561,565,574,595,564,581,596,562,572,558,598,
561,579,595,571,554,561,589,589,592,568,558,596,581,562,557,598,
564,562,557,595,565,579,578,598,571,579,579,581,561,595,554,572,
562,572,585,562,564,598,588,595,565,582,592,571,555,588,574,557,
595,595,557,558,562,589,589,574,574,571,598,564,578,555,562,592,
579,568,578,586,568,575,571,599,582,579,578,578,557,588,585,589,
554,579,555,562,557,565,555,579,565,589,595,554,589,596,558,582,
581,595,581,572,562,582,585,592,581,592,555,558,568,565,595,558,
599,572,595,582,564,581,565,579,595,581,582,554,581,581,575,589,
586,565,572,588,599,565,592,557,579,598,579,575,592,554,578,581,
579,572,558,561,575,574,598,568,554,575,562,557,564,578,554,555,
561,588,572,574,589,562,579,592,595,554,586,592,557,554,589,596,
582,586,588,565,595,596,588,589,589,564,561,592,579,585,574,574
</chunk>
   <chunk x="-912" y="112" width="16" height="16">
575,585,595,578,554,555,562,599,596,571,588,554,586,586,574,599,
575,571,565,557,555,599,581,578,557,554,592,586,585,555,599,575,
581,579,598,598,554,554,582,585,572,592,558,572,586,564,586,568,
595,581,561,592,557,588,599,557,585,595,575,589,586,579,599,562,
585,585,571,562,554,585,578,592,562,599,592,575,595,599,568,581,
578,568,558,575,592,579,599,574,554,586,588,596,595,564,585,582,
582,568,554,554,564,588,554,555,562,562,572,558,578,572,592,561,
592,581,581,562,599,557,582,561,598,579,555,555,571,564,557,565,
568,571,578,598,561,558,554,558,589,557,562,568,562,581,578,574,
555,578,558,574,565,574,565,598,574,589,571,575,574,565,579,575,
586,568,558,568,598,574,575,571,565,562,578,572,572,579,598,554,
581,585,592,572,586,581,578,555,562,586,565,595,557,557,562,568,
595,588,557,586,582,592,598,581,592,586,598,596,555,572,596,589,
555,565,575,582,575,578,575,596,585,579,598,565,578,565,598,589,
589,598,554,589,596,572,589,572,586,578,579,581,582,575,557,562,
575,579,561,592,575,579,598,578,588,581,599,574,575,561,581,554
</chunk>
   <chunk x="-896" y="112" width="16" height="16">
575,555,561,568,562,592,586,596,589,588,574,564,578,575,595,581,
592,578,586,571,579,578,596,575,595,568,582,589,571,579,572,586,
586,592,561,564,592,599,572,558,564,581,574,588,595,599,588,574,
575,598,578,557,555,582,555,585,582,586,568,582,558,561,565,578,
568,581,588,579,595,588,565,592,596,595,561,565,595,578,575,595,
588,586,598,554,582,574,598,586,564,599,574,574,554,581,586,561,
585,561,558,557,571,588,555,565,572,561,562,564,575,574,598,586,
558,598,571,582,581,575,572,585,586,554,582,599,582,571,596,581,
586,557,557,585,558,574,592,575,578,579,571,565,599,599,561,568,
574,558,568,562,571,555,555,555,555,592,571,558,557,561,571,592,
582,586,578,555,585,571,565,575,572,572,565,585,598,562,565,564,
575,561,578,596,588,586,572,579,562,571,586,581,596,574,555,581,
562,574,578,574,592,554,555,599,586,579,585,574,568,582,588,589,
581,555,555,578,589,598,582,561,555,579,568,564,557,561,572,571,
568,596,571,596,565,558,575,596,572,561,585,592,595,598,572,575,
599,585,592,568,574,564,562,562,589,565,592,579,571,578,554,557
</chunk>
   <chunk x="-880" y="112" width="16" height="16">
581,592,565,585,588,582,574,589,575,592,589,598,589,575,575,561,
585,599,558,564,572,595,562,574,561,578,599,561,592,592,557,598,
596,571,595,561,568,592,564,568,575,571,589,575,588,571,562,579,
578,565,579,565,586,589,574,571,595,579,579,564,575,571,558,595,
592,562,586,568,565,565,565,592,596,588,599,578,561,585,565,554,
557,599,555,589,592,588,582,568,592,575,562,572,582,585,564,579,
588,571,571,565,579,557,579,588,595,558,568,582,575,561,592,599,
575,561,588,561,568,582,578,562,589,586,578,579,595,598,579,599,
554,561,557,555,598,586,558,568,561,589,561,596,562,598,578,592,
555,586,581,579,564,572,588,589,586,574,562,581,574,586,574,598,
554,578,588,579,557,572,596,571,598,599,571,599,554,586,565,568,
558,564,578,599,599,561,572,596,579,585,579,565,562,586,595,598,
578,592,578,599,571,598,574,595,598,558,586,586,564,571,555,588,
555,555,582,588,571,598,558,578,588,592,585,558,596,589,561,596,
557,571,585,554,598,588,572,554,578,554,575,575,562,599,586,554,
574,589,574,561,562,596,562,574,574,555,575,589,568,579,579,558
</chunk>
   <chunk x="-864" y="112" width="16" height="16">
554,564,565,595,578,592,579,572,582,564,554,565,588,565,557,578,
582,561,572,568,562,598,598,595,575,589,565,554,568,581,581,571,
598,598,586,574,557,589,572,592,586,592,589,595,568,554,595,568,
585,558,592,574,572,574,554,586,554,599,554,564,555,554,598,579,
589,589,571,592,588,557,554,588,578,588,585,596,571,558,557,596,
561,588,578,579,599,598,564,571,562,561,571,588,595,571,558,579,
578,599,558,564,558,561,581,575,592,595,572,599,595,554,581,565,
599,595,568,592,555,557,581,554,599,564,565,589,562,582,557,565,
557,562,565,571,589,562,571,554,555,568,586,557,598,561,568,568,
595,568,578,586,564,571,555,558,595,579,578,592,581,561,572,585,
564,592,568,581,578,589,558,564,579,581,585,564,588,565,574,598,
581,575,578,558,592,574,558,599,596,595,578,568,598,575,579,572,
589,592,586,555,579,554,592,562,574,586,599,568,595,599,565,564,
599,558,564,561,595,582,589,574,565,599,585,572,586,564,562,595,
595,579,596,599,578,596,595,564,585,565,599,586,585,557,579,582,
598,599,598,564,562,589,586,555,561,589,599,578,581,555,568,575
</chunk>
   <chunk x="-848" y="112" width="16" height="16">
589,564,589,562,598,562,0,0,0,0,0,0,0,0,0,0,
598,592,586,571,557,599,0,0,0,0,0,0,0,0,0,0,
572,557,564,562,578,557,0,0,0,0,0,0,0,0,0,0,
585,554,586,558,572,582,0,0,0,0,0,0,0,0,0,0,
595,572,589,586,582,554,0,0,0,0,0,0,0,0,0,0,
558,582,575,572,578,564,0,0,0,0,0,0,0,0,0,0,
561,579,581,599,585,562,0,0,0,0,0,0,0,0,0,0,
557,578,572,574,571,557,0,0,0,0,0,0,0,0,0,0,
571,598,574,562,589,586,0,0,0,0,0,0,0,0,0,0,
564,565,578,565,599,592,0,0,0,0,0,0,0,0,0,0,
586,581,575,586,581,595,0,0,0,0,0,0,0,0,0,0,
558,568,578,572,555,581,0,0,0,0,0,0,0,0,0,0,
585,557,596,585,598,557,0,0,0,0,0,0,0,0,0,0,
595,562,588,555,595,592,0,0,0,0,0,0,0,0,0,0,
581,598,579,561,572,557,0,0,0,0,0,0,0,0,0,0,
561,558,564,562,595,555,0,0,0,0,0,0,0,0,0,0
</chunk>
   <chunk x="-1344" y="128" width="16" height="16">
0,596,582,575,589,598,586,582,555,571,572,564,598,581,588,579,
0,589,561,575,568,565,588,562,598,568,582,582,588,568,592,589,
0,579,565,562,582,582,578,562,598,571,571,581,562,574,578,575,
0,588,568,581,598,589,564,564,596,596,565,599,585,588,558,574,
0,589,554,596,596,599,578,581,561,564,555,592,555,599,555,582,
0,586,585,585,555,582,596,575,557,578,575,579,558,557,565,581,
0,557,592,565,598,579,555,585,592,562,582,558,582,578,596,574,
0,589,575,582,595,561,588,586,565,571,588,582,555,595,558,571,
0,599,564,595,565,585,586,598,599,581,572,575,578,582,596,557,
0,595,589,574,581,598,564,588,596,588,565,562,588,588,562,598,
0,595,557,592,589,564,571,598,585,572,571,592,554,585,589,568,
0,596,554,571,572,578,554,572,578,596,589,599,579,585,581,574,
0,572,558,588,572,571,555,588,595,564,581,586,557,562,595,554,
0,585,555,555,562,588,598,572,561,561,574,578,592,565,589,574,
0,0,0,0,586,557,581,558,588,555,574,575,579,565,558,589,
0,0,0,0,596,565,571,581,586,554,555,579,561,598,558,554
</chunk>
   <chunk x="-1328" y="128" width="16" height="16">
568,572,596,564,565,565,579,592,575,589,581,571,592,589,588,582,
586,572,579,586,596,579,579,568,585,571,575,575,565,571,596,581,
555,565,554,562,592,561,568,595,582,554,586,572,596,581,568,557,
557,562,588,568,555,574,571,574,575,585,596,574,555,554,578,561,
575,581,582,589,585,554,592,562,568,592,592,561,578,554,586,588,
592,595,595,564,588,582,568,572,589,571,562,575,572,592,554,561,
588,592,562,561,562,564,564,596,589,589,596,564,557,588,596,554,
578,586,581,557,571,578,579,578,579,595,555,589,558,558,574,586,
578,574,575,592,582,574,589,581,596,579,581,574,558,574,596,574,
562,558,595,568,565,564,578,599,555,564,578,565,579,582,564,571,
554,578,598,586,595,564,557,588,599,588,575,571,578,568,598,562,
565,568,565,589,554,578,572,554,557,562,575,565,599,592,562,571,
586,579,599,564,564,561,564,581,586,578,555,554,596,595,558,596,
558,568,599,565,554,595,561,588,581,585,585,599,565,589,555,565,
555,574,599,557,579,565,585,581,564,564,571,579,564,558,598,592,
579,561,564,564,595,574,554,596,558,585,574,568,588,558,557,585
</chunk>
   <chunk x="-1312" y="128" width="16" height="16">
582,596,558,572,581,595,562,579,596,571,585,561,578,586,599,585,
561,586,554,575,572,586,571,585,578,557,562,588,568,598,598,581,
592,555,586,555,592,579,562,595,582,588,575,592,575,562,562,557,
592,595,582,582,579,595,599,555,589,568,598,599,595,589,565,565,
557,565,558,598,582,555,598,592,564,588,554,572,575,571,571,554,
578,582,599,574,555,599,558,585,579,579,586,557,572,558,588,595,
565,568,588,589,571,555,579,558,588,572,575,575,557,596,589,562,
599,578,558,572,565,554,586,588,558,598,571,599,558,562,595,581,
579,588,562,586,565,558,589,558,596,554,599,579,571,599,581,555,
555,582,586,568,596,561,598,574,578,592,568,572,592,592,581,592,
581,585,578,585,588,579,557,579,595,555,599,585,586,564,561,589,
598,561,571,582,558,589,596,557,582,599,585,565,581,579,575,562,
561,565,589,596,555,558,574,565,565,555,582,564,558,595,596,564,
578,588,588,558,595,565,555,592,564,568,571,581,571,554,571,588,
568,579,565,555,571,568,599,588,586,596,589,568,589,598,558,554,
586,599,588,582,592,565,568,555,562,557,592,598,589,555,554,581
</chunk>
   <chunk x="-1296" y="128" width="16" height="16">
561,586,558,579,572,588,581,586,582,578,579,554,598,599,562,581,
571,564,581,598,578,554,592,595,586,554,568,554,562,558,568,575,
579,596,562,558,558,554,595,571,579,554,558,572,572,554,554,599,
598,579,582,578,599,568,562,598,598,586,574,578,574,562,561,557,
585,582,574,596,585,565,589,564,568,589,589,554,558,585,558,586,
574,588,581,586,582,557,588,582,562,592,554,555,572,572,568,599,
598,565,588,586,557,588,562,562,585,595,572,555,592,565,579,585,
596,595,579,554,592,581,572,599,564,585,595,578,586,598,581,561,
565,564,592,555,582,565,564,588,561,574,589,589,572,555,558,565,
564,564,561,578,596,582,582,564,598,554,571,581,596,596,562,562,
571,568,555,571,581,561,589,562,554,575,578,599,592,557,574,558,
596,562,572,585,555,596,598,555,571,557,592,581,561,598,581,565,
555,554,561,592,557,595,582,554,598,579,568,574,578,598,555,574,
572,564,554,585,582,585,596,564,581,557,557,578,571,561,554,598,
595,568,572,561,562,598,586,558,589,565,582,562,581,572,598,588,
574,598,585,562,589,578,598,598,575,585,598,585,558,565,582,595
</chunk>
   <chunk x="-1280" y="128" width="16" height="16">
585,557,589,598,564,564,598,595,565,558,595,574,585,585,581,574,
561,586,592,599,578,568,574,596,557,595,596,562,598,592,555,595,
555,554,582,585,599,557,595,558,554,586,578,595,554,571,596,599,
571,581,555,558,585,585,592,585,565,581,554,565,589,579,588,599,
586,568,588,592,568,586,554,578,596,595,579,581,562,589,558,592,
555,595,562,592,564,572,595,581,599,561,561,582,564,588,575,558,
596,579,585,561,554,588,581,571,557,596,571,588,582,586,589,562,
589,568,595,575,557,581,598,554,588,598,564,558,595,564,562,592,
592,555,575,554,579,555,586,585,564,575,558,599,558,581,579,596,
565,585,585,598,581,586,589,557,574,572,588,568,578,558,588,589,
596,596,571,589,599,568,599,599,599,586,589,596,568,568,568,589,
596,572,558,562,579,558,585,598,595,561,561,582,599,562,595,579,
557,564,581,562,572,558,589,578,554,571,568,555,579,589,586,579,
592,558,571,598,585,589,592,588,564,565,561,579,574,571,574,579,
575,585,554,557,598,581,557,582,581,574,589,568,589,562,557,589,
582,574,592,561,581,595,595,575,586,568,592,554,558,564,562,592
</chunk>
   <chunk x="-1264" y="128" width="16" height="16">
575,572,571,557,568,586,599,568,564,598,596,554,571,574,598,554,
592,581,568,565,589,599,568,595,598,562,558,564,589,581,557,581,
598,585,562,578,585,578,571,588,599,562,562,579,571,582,558,571,
564,599,555,588,572,574,574,562,598,562,565,574,575,561,586,554,
574,592,595,572,595,557,579,557,592,574,582,562,561,595,555,589,
582,562,586,561,598,588,565,561,598,557,599,574,596,568,562,588,
565,571,596,557,592,598,586,565,574,579,586,572,557,561,574,588,
578,599,562,589,596,585,585,565,564,585,554,586,565,558,575,557,
582,565,557,572,557,586,575,564,585,581,564,579,589,561,568,589,
595,564,599,565,586,574,582,589,571,596,565,599,555,568,595,574,
599,588,574,554,557,581,589,575,572,564,589,582,557,592,575,554,
575,565,562,585,589,579,555,585,554,562,558,555,565,595,555,585,
582,555,568,558,599,565,588,568,595,557,578,585,578,599,562,575,
598,561,599,557,574,557,562,572,579,571,558,598,585,557,557,588,
588,595,555,564,555,575,579,579,575,596,571,572,555,578,578,579,
596,595,554,579,572,558,595,579,575,564,575,599,562,574,558,554
</chunk>
   <chunk x="-1248" y="128" width="16" height="16">
574,575,564,599,588,589,589,565,565,564,586,574,582,568,599,572,
554,572,558,586,575,572,599,582,571,574,578,585,571,599,598,595,
571,585,561,592,579,572,595,555,564,589,581,595,581,564,589,582,
592,589,555,586,579,581,588,579,588,564,579,595,572,575,565,578,
568,565,596,582,557,599,565,575,578,568,578,564,571,582,582,578,
565,558,557,554,557,592,598,558,595,578,578,574,568,582,596,589,
561,599,581,581,558,571,564,589,571,561,568,562,596,564,599,589,
586,555,564,565,585,558,561,595,574,596,565,592,578,555,555,554,
579,581,561,592,561,574,571,558,599,555,599,568,585,557,568,581,
578,582,598,595,568,571,574,596,592,586,565,575,558,574,554,578,
555,572,589,564,586,554,554,592,589,557,589,585,554,562,579,581,
592,561,589,589,574,581,572,562,561,582,561,554,565,589,595,565,
558,554,596,599,589,554,565,555,578,575,564,574,598,581,599,598,
575,568,562,571,561,596,595,568,579,557,562,599,561,578,558,565,
579,574,565,554,571,582,599,575,595,585,598,596,582,582,595,564,
568,575,578,554,565,564,588,581,562,596,572,582,579,599,592,596
</chunk>
   <chunk x="-1232" y="128" width="16" height="16">
568,561,554,599,572,558,592,592,592,568,562,572,595,585,554,0,
592,595,565,568,585,565,554,581,564,592,589,581,575,557,595,0,
599,578,557,561,571,582,574,578,572,582,561,564,578,582,562,0,
561,554,558,585,575,598,588,582,579,582,565,565,579,581,571,0,
571,592,561,562,574,592,592,564,557,555,572,588,581,578,568,0,
574,589,596,572,592,578,565,589,589,561,555,565,595,574,562,0,
571,574,565,555,572,557,574,558,561,598,558,596,571,572,568,0,
596,588,599,564,586,557,571,588,582,565,568,565,578,568,571,0,
586,599,575,561,598,579,579,599,599,557,592,564,581,596,568,0,
572,554,592,585,555,585,568,568,558,564,581,558,572,592,585,0,
555,557,592,565,572,586,558,554,589,582,579,598,572,554,585,0,
575,558,599,568,581,578,564,595,578,557,582,596,579,579,561,0,
598,585,555,598,596,588,572,574,599,595,572,558,574,588,562,0,
596,568,596,581,564,558,557,558,564,568,589,558,582,562,585,0,
555,571,565,596,582,554,561,565,564,574,574,585,568,581,555,0,
579,589,595,571,581,572,585,585,595,595,568,565,595,582,571,0
</chunk>
   <chunk x="-1056" y="128" width="16" height="16">
0,0,0,0,0,0,0,561,575,595,582,598,575,557,589,578,
0,0,0,0,0,0,0,598,561,581,578,599,599,562,575,586,
0,0,0,0,0,0,0,592,562,595,562,561,568,595,592,579,
0,0,0,0,0,0,0,557,558,555,564,596,555,555,595,596,
0,0,0,0,0,0,0,574,598,598,582,565,568,582,555,562,
0,0,0,0,0,0,0,595,575,565,585,568,578,572,571,598,
0,0,0,0,0,0,0,575,558,595,589,554,558,571,595,575,
0,0,0,0,0,0,0,588,562,564,595,568,554,574,565,558,
0,0,0,0,0,0,0,562,596,596,575,599,599,599,568,589,
0,0,0,0,0,0,0,575,565,575,564,592,565,585,581,571,
0,0,0,0,0,0,0,565,598,578,589,574,557,564,581,571,
0,0,0,0,0,0,0,555,575,599,578,581,586,572,598,588,
0,0,0,0,0,0,0,561,562,581,554,585,558,571,558,578,
0,0,0,0,0,0,0,578,564,595,564,599,568,598,568,599,
0,0,0,0,0,0,0,598,579,557,598,557,555,585,557,579,
0,0,0,0,0,0,0,586,596,575,568,598,574,592,558,595
</chunk>
   <chunk x="-1040" y="128" width="16" height="16">
561,596,596,578,595,554,568,564,578,558,592,561,588,561,571,595,
596,588,598,571,558,555,585,575,598,595,564,561,579,589,554,586,
561,557,585,589,561,565,555,595,558,575,589,598,589,558,595,558,
598,599,582,586,595,598,561,595,554,579,595,578,586,562,568,575,
568,586,555,562,558,595,564,575,595,568,572,582,554,599,562,572,
572,598,582,554,585,557,568,578,565,555,578,581,579,554,579,588,
575,568,572,598,562,568,557,574,586,595,557,599,555,571,557,565,
589,558,578,578,571,557,579,561,589,586,554,578,565,585,579,568,
554,562,595,571,579,599,588,598,592,588,582,555,568,586,599,598,
575,574,598,558,595,585,598,558,592,557,588,599,572,595,589,561,
599,561,565,575,592,592,561,562,596,562,585,562,561,589,555,581,
592,586,571,557,589,557,592,592,555,589,571,588,592,592,558,592,
599,586,599,572,596,582,565,586,585,574,585,571,555,554,568,564,
582,582,596,572,557,589,579,558,595,581,562,592,558,561,564,572,
562,586,596,596,578,581,561,586,574,572,571,589,588,586,575,568,
575,598,564,588,579,565,598,582,565,581,579,572,562,557,579,599
</chunk>
   <chunk x="-1024" y="128" width="16" height="16">
572,558,579,564,578,568,561,595,554,571,554,561,599,586,586,599,
595,572,574,571,581,557,564,578,599,561,595,574,588,574,571,586,
562,581,579,575,571,561,578,572,582,554,586,595,589,562,571,599,
568,598,561,572,568,581,599,555,582,582,578,565,586,574,575,578,
571,565,585,595,565,564,561,561,582,574,561,579,578,561,575,578,
562,589,575,581,571,558,581,574,561,562,592,581,565,585,599,588,
554,592,564,599,562,558,589,571,595,555,581,554,579,581,571,582,
595,554,596,572,595,599,571,596,595,588,568,561,599,588,571,589,
598,588,557,571,564,596,565,575,554,578,586,561,579,565,557,568,
571,575,578,588,582,558,554,571,557,574,579,561,574,555,575,599,
554,568,561,557,561,596,562,558,592,562,572,589,589,565,565,588,
588,581,557,558,561,588,554,589,568,585,572,558,568,595,578,581,
557,565,598,598,565,572,572,572,555,557,578,599,582,572,588,558,
574,595,582,579,562,574,599,568,581,598,571,582,582,582,595,586,
574,562,558,585,554,578,574,574,579,571,578,598,585,574,595,564,
579,586,579,581,561,562,592,557,581,575,557,572,558,554,561,598
</chunk>
   <chunk x="-1008" y="128" width="16" height="16">
568,557,555,571,561,592,599,568,557,557,568,564,565,585,554,554,
562,572,562,596,575,579,558,582,596,596,596,598,574,586,568,572,
592,568,555,585,588,599,561,589,582,579,562,555,592,581,579,572,
598,585,564,572,598,565,574,596,557,575,555,589,561,599,554,557,
574,578,558,555,562,557,574,565,582,564,585,558,585,564,578,589,
578,557,575,579,572,599,555,599,581,564,579,592,574,586,589,555,
562,565,599,554,561,598,561,568,572,555,582,598,554,586,568,572,
557,572,561,562,596,572,565,598,565,561,598,586,572,595,574,575,
585,575,595,589,554,579,557,574,578,575,558,579,572,596,558,564,
568,555,579,575,599,562,586,598,588,589,554,581,592,588,599,574,
568,586,578,568,565,564,596,554,588,557,574,588,578,599,592,568,
554,565,564,557,562,568,592,574,579,578,582,599,564,558,575,589,
578,572,598,588,596,598,585,589,565,572,578,564,592,598,599,579,
588,598,592,565,579,592,599,581,578,592,589,557,571,585,581,575,
586,575,581,561,585,579,579,561,572,561,599,571,592,589,579,564,
595,578,585,581,581,568,598,558,598,574,578,585,558,595,585,588
</chunk>
   <chunk x="-992" y="128" width="16" height="16">
578,598,575,572,595,565,596,581,557,554,574,557,562,555,564,575,
557,589,599,598,554,578,562,589,598,554,571,572,581,565,562,575,
561,582,555,588,557,562,575,596,596,589,572,596,589,592,568,575,
595,581,561,564,561,554,558,592,581,598,585,565,599,595,598,575,
582,558,599,586,595,558,575,564,565,585,582,579,574,568,582,578,
588,595,562,586,596,581,557,599,586,564,586,564,578,588,557,555,
578,598,599,578,586,599,595,572,579,585,599,585,572,588,582,575,
564,568,575,575,592,592,562,554,564,571,588,554,572,579,581,598,
561,589,585,561,579,589,595,557,575,565,575,555,585,564,575,588,
585,581,562,571,589,554,564,564,562,562,599,598,575,582,589,558,
562,574,562,585,581,555,598,581,592,579,589,588,585,561,575,561,
581,578,592,586,565,575,595,557,572,595,579,579,592,561,565,582,
568,589,595,589,555,565,578,562,568,572,564,582,564,582,568,557,
554,582,578,564,571,565,574,588,596,579,599,586,582,564,564,581,
581,585,586,557,596,585,557,558,588,585,557,599,571,581,599,557,
562,588,588,595,572,599,592,589,564,589,581,592,562,565,599,554
</chunk>
   <chunk x="-976" y="128" width="16" height="16">
586,561,571,554,565,565,582,557,564,558,565,586,586,575,578,554,
592,554,565,589,564,595,599,579,558,562,598,596,585,564,568,562,
554,574,554,565,571,558,581,558,578,571,558,561,568,568,554,599,
562,562,555,557,565,596,588,592,578,589,558,579,565,581,575,596,
558,592,592,564,565,598,555,586,586,578,565,589,598,562,561,554,
589,574,554,564,579,571,571,558,561,599,568,554,565,558,555,589,
575,565,558,592,578,579,565,572,564,562,598,595,565,574,595,557,
558,562,554,574,572,564,554,589,598,568,557,599,572,581,592,598,
557,555,598,555,589,574,575,579,581,585,557,599,572,571,562,555,
574,589,596,588,561,582,574,568,599,586,571,589,568,565,586,596,
565,557,562,555,578,592,554,579,558,598,571,589,564,599,582,555,
554,585,581,595,579,575,589,574,555,588,582,555,586,562,582,565,
562,574,579,588,596,571,589,596,585,565,555,558,579,588,598,598,
586,599,564,581,562,564,564,599,572,558,575,557,564,596,574,562,
596,565,595,555,561,571,592,571,568,558,581,586,588,595,581,565,
572,558,585,572,582,585,579,578,554,571,572,562,588,555,554,575
</chunk>
   <chunk x="-960" y="128" width="16" height="16">
589,581,558,561,562,599,595,589,568,589,589,582,557,561,565,596,
561,596,558,588,582,568,582,575,582,596,581,589,568,582,555,565,
558,595,574,574,561,554,595,599,568,575,579,585,554,579,592,574,
586,585,592,565,596,596,598,586,596,586,562,586,554,599,562,581,
561,561,585,588,572,562,575,568,554,592,561,571,598,562,581,585,
592,592,562,554,588,598,562,557,596,562,598,564,578,565,598,565,
561,571,578,586,574,572,588,588,598,554,568,557,599,557,575,565,
596,589,557,579,564,581,568,586,555,561,557,575,585,599,555,588,
599,565,561,582,562,561,574,598,596,571,555,585,582,579,579,561,
595,565,572,575,558,558,585,595,571,586,578,568,554,575,578,579,
564,586,592,572,575,575,589,585,582,578,579,568,554,565,586,565,
582,565,579,595,554,558,586,555,585,596,572,574,599,575,599,561,
596,578,555,588,588,554,592,578,572,558,578,564,595,565,596,581,
571,599,565,599,568,581,555,564,568,595,589,582,557,565,592,554,
555,561,572,555,571,575,578,579,558,595,565,586,595,589,554,555,
555,578,554,555,581,568,599,588,588,575,571,588,561,586,564,574
</chunk>
   <chunk x="-944" y="128" width="16" height="16">
572,555,557,554,568,586,558,581,564,575,579,585,589,561,555,598,
582,589,585,599,581,579,598,579,596,578,572,588,586,564,598,564,
578,557,554,598,596,585,554,588,568,579,578,562,585,589,586,585,
592,571,562,588,585,582,558,574,589,596,589,568,557,564,564,579,
574,592,571,589,595,561,555,589,596,574,575,558,585,589,581,564,
596,568,581,578,562,598,568,554,571,554,579,574,575,586,575,554,
562,562,589,589,588,585,598,557,557,599,571,572,586,565,555,564,
596,554,598,588,585,574,557,564,595,564,575,595,554,564,596,592,
581,579,565,578,585,579,581,555,599,571,555,579,595,554,572,598,
562,555,598,588,574,595,592,561,562,588,561,598,595,554,589,574,
592,554,586,572,596,554,555,599,575,571,595,592,565,588,579,561,
572,579,578,582,592,592,571,557,578,555,568,562,557,589,588,571,
599,588,557,595,557,562,595,579,554,565,558,595,558,568,572,581,
575,579,558,571,554,555,596,586,596,596,596,571,568,586,572,585,
555,575,571,568,568,555,579,589,561,571,586,598,575,588,557,598,
592,579,574,575,585,572,586,562,585,589,562,571,561,565,579,598
</chunk>
   <chunk x="-928" y="128" width="16" height="16">
557,589,581,558,557,557,598,571,564,578,596,581,589,599,564,564,
582,589,578,596,585,568,578,588,564,558,568,588,599,572,579,562,
554,585,585,561,588,581,565,572,564,588,595,581,565,579,588,598,
586,589,581,592,588,581,596,598,572,575,586,558,558,592,582,589,
596,562,574,586,574,568,562,586,572,588,572,582,592,596,592,582,
562,579,572,592,596,592,578,592,554,588,585,589,585,564,562,558,
599,574,561,568,592,575,562,571,561,571,585,558,572,598,554,568,
557,592,574,555,565,561,568,572,578,588,555,571,588,564,595,592,
554,555,568,589,557,562,595,578,589,585,592,564,599,592,595,586,
598,575,565,555,595,586,561,555,582,592,562,598,595,599,595,588,
568,555,575,585,565,568,558,572,578,595,582,561,564,598,586,572,
592,578,588,562,575,595,596,579,555,596,582,579,582,565,555,596,
561,599,596,579,555,554,571,595,588,568,572,572,554,557,596,598,
572,596,596,565,588,575,558,562,588,572,572,585,588,574,588,581,
579,568,589,589,574,575,572,579,561,595,579,596,558,564,572,562,
589,586,554,592,574,598,579,579,564,589,571,568,554,595,585,558
</chunk>
   <chunk x="-912" y="128" width="16" height="16">
558,585,564,558,595,574,558,571,555,555,598,585,555,585,572,586,
564,589,592,554,572,554,572,585,585,571,575,562,575,572,565,555,
555,571,575,557,581,595,599,582,562,582,554,554,598,586,565,571,
582,575,555,595,578,572,595,592,571,572,592,564,555,555,581,571,
589,588,582,557,588,585,589,564,585,561,561,558,557,592,572,586,
558,564,555,585,585,554,562,586,564,557,568,555,572,599,562,564,
586,565,596,579,558,581,572,565,565,555,564,589,589,554,571,592,
568,592,578,571,588,595,589,564,599,554,598,588,582,586,595,588,
581,596,595,561,598,595,588,582,575,598,562,586,588,582,557,592,
589,568,599,568,574,558,562,582,582,571,558,595,575,598,564,596,
578,571,571,579,565,558,596,568,558,582,596,572,581,571,554,599,
558,562,578,595,589,554,582,568,558,554,595,581,579,585,581,586,
562,595,578,578,554,595,568,589,592,555,581,558,585,572,588,575,
599,592,565,558,562,568,588,578,574,582,599,582,595,592,568,555,
574,572,565,575,571,562,565,598,571,554,558,599,582,582,582,571,
562,561,586,558,581,598,574,574,562,557,554,564,558,592,562,598
</chunk>
   <chunk x="-896" y="128" width="16" height="16">
586,579,586,565,555,588,575,592,565,565,562,581,592,578,568,599,
585,582,575,555,574,555,582,595,598,558,574,578,564,599,581,578,
571,572,588,572,565,572,588,596,598,572,579,579,554,578,562,574,
596,555,596,579,592,599,572,589,554,596,574,588,579,557,596,592,
558,561,585,564,578,571,574,595,565,588,581,585,554,595,588,578,
595,585,592,558,572,598,562,578,589,578,565,574,554,598,558,568,
554,558,565,582,585,596,592,599,598,558,558,585,557,579,582,599,
599,579,599,598,574,582,588,599,589,557,582,574,595,592,561,598,
557,568,579,575,589,582,585,589,561,588,585,555,558,592,588,578,
588,554,572,557,558,571,554,564,571,579,555,578,565,558,586,565,
578,578,579,574,581,574,555,554,595,565,586,565,599,561,595,588,
599,558,588,571,558,585,562,558,585,596,588,586,579,598,572,599,
598,565,554,572,592,582,581,578,574,585,558,571,582,578,581,581,
562,599,561,581,571,557,586,592,555,568,579,571,595,565,598,557,
596,555,599,589,574,581,574,555,572,598,565,586,585,592,596,558,
564,565,562,575,565,592,588,575,581,598,562,572,574,595,554,571
</chunk>
   <chunk x="-880" y="128" width="16" height="16">
571,596,571,571,592,575,596,595,598,599,554,589,565,586,558,585,
589,561,585,589,561,596,568,596,595,589,572,589,574,554,578,561,
565,588,599,564,596,555,562,572,596,568,568,555,578,558,558,598,
585,558,579,578,554,572,554,555,561,572,579,568,575,578,571,599,
586,574,595,595,589,578,581,598,568,565,554,598,558,565,571,588,
595,554,599,557,574,572,588,554,579,592,555,557,599,572,575,572,
598,579,582,598,574,574,555,595,588,585,598,586,595,562,578,579,
562,562,554,571,599,557,565,562,599,561,598,562,588,568,561,598,
589,571,574,595,574,561,586,575,564,557,581,571,589,596,581,557,
588,589,561,581,588,581,585,561,572,574,561,582,571,574,588,598,
554,592,562,599,586,557,592,579,588,592,574,598,574,598,579,579,
581,561,562,568,565,592,585,595,579,589,589,558,581,565,571,592,
592,568,574,582,574,598,562,557,574,568,585,596,598,582,596,598,
555,554,598,582,555,592,562,588,585,596,572,562,582,557,564,554,
568,578,561,592,572,571,589,562,595,585,564,572,571,562,571,589,
595,568,581,558,557,598,554,565,572,598,557,595,595,588,564,565
</chunk>
   <chunk x="-864" y="128" width="16" height="16">
565,568,554,579,564,568,557,575,599,586,598,562,585,582,598,581,
568,588,578,565,571,588,555,595,588,565,585,595,588,582,592,562,
595,554,564,592,592,579,554,598,558,588,582,561,595,564,558,578,
571,596,581,554,561,565,554,578,568,564,557,574,596,564,562,568,
565,578,596,599,568,557,571,578,561,574,598,595,595,598,554,578,
568,561,598,574,586,596,564,596,557,599,592,568,562,595,581,589,
561,571,579,568,592,571,588,558,599,565,561,588,592,564,555,596,
585,555,561,582,598,592,562,575,582,561,588,578,586,595,585,599,
592,571,588,572,555,561,599,579,581,557,557,578,585,571,574,599,
598,564,561,561,554,575,571,574,592,582,568,599,596,554,564,592,
579,578,585,564,596,561,595,558,575,578,562,588,586,598,582,565,
582,554,568,595,579,589,572,572,564,578,595,579,575,575,572,564,
562,565,562,582,579,555,562,585,581,581,588,564,557,564,588,558,
554,592,554,575,561,574,579,572,586,574,562,575,582,598,585,589,
586,586,588,586,564,565,572,595,579,582,599,565,562,578,575,585,
599,596,561,568,582,595,561,561,568,564,599,575,568,598,562,578
</chunk>
   <chunk x="-848" y="128" width="16" height="16">
599,596,571,564,578,557,0,0,0,0,0,0,0,0,0,0,
579,589,598,568,554,564,0,0,0,0,0,0,0,0,0,0,
562,578,555,588,561,579,0,0,0,0,0,0,0,0,0,0,
596,562,565,565,589,557,0,0,0,0,0,0,0,0,0,0,
561,595,599,572,582,572,0,0,0,0,0,0,0,0,0,0,
555,571,582,571,574,554,0,0,0,0,0,0,0,0,0,0,
561,561,561,564,568,599,0,0,0,0,0,0,0,0,0,0,
596,572,558,554,562,555,0,0,0,0,0,0,0,0,0,0,
571,589,568,555,554,554,0,0,0,0,0,0,0,0,0,0,
595,574,557,572,574,572,0,0,0,0,0,0,0,0,0,0,
592,571,575,562,596,596,0,0,0,0,0,0,0,0,0,0,
568,565,557,586,574,564,0,0,0,0,0,0,0,0,0,0,
571,557,572,572,589,561,0,0,0,0,0,0,0,0,0,0,
561,564,588,572,558,599,0,0,0,0,0,0,0,0,0,0,
588,557,588,599,561,558,0,0,0,0,0,0,0,0,0,0,
565,574,574,581,592,554,0,0,0,0,0,0,0,0,0,0
</chunk>
   <chunk x="-1344" y="144" width="16" height="16">
0,0,0,0,572,558,598,568,588,578,574,557,558,579,599,588,
0,0,0,0,589,589,571,565,596,599,565,555,589,555,596,592,
0,0,0,0,581,554,598,565,568,571,585,582,564,575,596,571,
0,0,0,0,595,585,579,558,595,564,568,564,561,572,579,565,
0,0,0,0,562,572,568,582,582,574,599,565,581,571,572,555,
0,0,0,0,568,561,564,564,596,561,588,581,571,592,588,555,
0,0,0,0,578,585,589,574,585,578,595,571,581,568,579,554,
0,0,0,0,564,588,595,558,589,561,564,574,568,565,557,579,
0,0,0,0,574,599,572,581,599,557,599,589,588,585,598,554,
0,0,0,0,596,592,592,572,558,586,571,586,565,554,595,598,
0,0,0,0,562,598,579,574,582,571,582,554,598,558,585,579,
0,0,0,0,562,572,562,558,562,596,574,564,598,572,571,571,
0,0,0,0,564,592,565,572,598,579,578,589,586,557,557,592,
0,0,0,0,568,564,575,582,572,589,557,589,568,565,571,598,
0,0,0,0,592,572,598,579,592,596,599,562,554,574,585,579,
0,0,0,0,589,581,575,586,585,599,586,561,592,598,571,554
</chunk>
   <chunk x="-1328" y="144" width="16" height="16">
571,582,575,575,568,554,588,557,571,595,555,575,557,581,557,572,
575,586,582,589,592,558,579,581,554,561,579,571,581,568,572,572,
555,555,589,598,598,596,585,565,555,595,581,589,579,568,572,571,
598,581,599,561,571,595,558,564,564,568,589,588,582,588,586,589,
589,588,579,571,581,596,574,555,578,555,578,564,572,571,575,595,
561,599,562,554,596,589,571,557,565,575,598,595,598,562,562,572,
575,599,586,579,565,585,589,562,586,588,575,558,561,574,564,599,
592,588,562,564,561,592,562,588,586,581,581,554,561,586,574,554,
592,565,578,585,557,565,558,557,578,554,599,588,562,592,582,582,
565,578,562,599,581,574,561,571,582,582,557,554,598,562,595,582,
581,599,581,578,586,588,599,554,595,558,599,575,588,596,599,578,
557,554,585,585,582,582,578,571,562,596,554,574,575,598,555,572,
572,578,598,562,582,558,565,595,588,554,558,575,561,561,581,589,
562,596,599,588,554,578,557,575,578,555,588,565,582,595,572,574,
581,579,595,561,589,575,561,579,582,588,599,562,572,575,592,586,
585,572,588,575,564,568,585,558,554,561,555,554,574,564,589,572
</chunk>
   <chunk x="-1312" y="144" width="16" height="16">
589,589,578,562,557,585,555,588,564,589,558,561,582,586,555,596,
578,578,582,586,574,562,562,565,554,554,558,565,575,581,595,558,
575,599,555,558,562,562,557,588,554,574,588,585,598,598,588,565,
586,571,572,578,592,571,564,555,555,571,558,554,598,572,568,565,
582,571,574,572,599,575,557,555,568,581,596,575,598,599,574,575,
598,574,596,555,585,588,582,561,555,565,571,554,581,585,554,574,
582,586,555,558,575,585,598,599,589,581,554,589,557,561,562,585,
589,595,565,555,592,564,585,574,586,589,564,581,561,595,554,561,
599,599,558,595,574,562,572,561,582,562,586,565,558,557,555,575,
555,595,554,562,572,574,557,568,574,582,589,564,562,596,554,596,
592,581,572,582,596,598,562,562,595,586,565,557,578,575,572,561,
585,598,598,575,579,555,557,562,598,596,599,562,588,595,562,572,
599,585,571,582,589,557,574,561,564,586,565,588,585,565,599,568,
586,564,592,588,588,595,562,582,564,554,578,588,568,562,554,581,
586,554,589,572,589,555,589,562,562,595,558,582,568,557,564,599,
558,586,595,554,568,568,599,557,592,585,554,568,578,554,592,586
</chunk>
   <chunk x="-1296" y="144" width="16" height="16">
554,572,598,564,596,596,564,565,558,599,564,581,592,555,582,586,
598,578,592,596,598,589,598,561,592,561,554,558,589,554,599,554,
585,554,579,599,555,598,555,561,582,598,581,588,581,574,596,586,
588,562,596,564,592,599,558,562,588,589,589,578,596,579,574,572,
586,568,554,585,568,575,575,554,555,578,581,575,578,565,579,599,
558,555,581,571,571,586,585,565,572,572,572,585,555,582,568,572,
582,582,585,582,596,598,595,564,558,592,599,558,579,557,561,586,
595,555,586,565,561,557,599,555,599,575,575,592,554,589,564,585,
564,555,572,574,554,557,561,562,598,554,595,592,595,578,592,578,
592,575,581,581,578,558,585,586,565,555,588,598,564,595,557,562,
554,564,595,555,598,589,558,574,582,554,585,555,588,574,557,564,
557,582,589,592,568,574,579,571,579,557,585,588,598,596,588,578,
578,564,572,572,596,555,598,561,558,564,589,564,581,572,572,585,
565,555,596,557,598,595,579,595,574,596,588,555,596,564,581,589,
578,574,599,592,581,595,557,568,558,578,586,554,581,589,571,557,
562,562,575,582,568,564,568,586,574,581,579,555,572,589,592,561
</chunk>
   <chunk x="-1280" y="144" width="16" height="16">
562,595,568,579,561,564,574,565,582,595,565,588,561,565,572,582,
581,554,554,579,586,575,562,598,579,579,575,579,568,575,586,554,
571,598,582,582,588,562,565,565,575,558,555,575,586,579,578,586,
568,568,574,588,585,574,555,598,574,586,555,598,555,585,558,574,
581,564,572,588,592,575,596,588,599,561,588,588,586,562,558,557,
585,598,596,598,574,554,592,571,585,586,589,589,588,589,589,579,
578,592,596,596,561,574,562,588,579,572,558,558,575,568,574,581,
582,598,558,554,555,575,575,592,574,595,592,589,599,558,557,581,
564,578,599,555,565,571,595,585,595,586,578,574,571,575,581,562,
562,555,598,581,575,574,578,561,578,557,585,554,568,579,554,582,
579,558,564,557,578,595,598,588,581,592,572,588,572,574,588,565,
555,572,554,581,586,572,589,595,572,599,568,588,578,585,592,571,
574,571,554,582,561,589,592,575,596,579,578,579,561,561,571,568,
575,558,558,578,575,585,571,564,582,568,574,592,571,564,579,558,
588,565,599,564,575,554,555,589,557,555,562,586,574,555,579,557,
565,557,599,574,571,599,582,555,574,564,586,585,561,568,574,555
</chunk>
   <chunk x="-1264" y="144" width="16" height="16">
572,564,596,589,571,588,585,595,579,598,555,596,596,596,568,599,
572,589,562,561,596,571,592,595,557,578,599,578,579,558,592,588,
586,579,596,586,599,592,585,585,595,595,554,582,574,568,585,562,
578,562,571,598,592,575,574,555,558,585,562,557,578,562,578,558,
562,574,555,555,562,598,564,599,571,572,598,561,565,578,565,571,
568,578,565,564,585,596,589,572,585,586,589,582,574,599,565,562,
558,575,588,582,575,562,589,568,554,582,596,578,558,578,579,582,
568,579,592,574,598,599,599,596,592,561,592,558,588,575,592,596,
579,595,586,582,582,586,585,588,568,562,585,575,572,582,581,596,
585,561,565,568,578,557,554,581,562,592,589,571,579,599,592,599,
595,562,571,575,564,568,575,572,599,598,595,572,562,554,575,575,
557,579,564,578,589,561,565,574,592,599,582,562,589,578,598,588,
579,579,564,571,562,599,582,562,579,599,589,558,598,589,564,574,
574,554,568,589,554,589,558,562,558,565,596,592,592,595,558,599,
571,571,571,572,582,561,571,592,574,562,555,555,582,599,598,582,
558,575,565,595,581,568,555,598,579,564,578,592,564,568,565,564
</chunk>
   <chunk x="-1248" y="144" width="16" height="16">
555,598,568,572,596,588,565,564,585,571,557,596,586,575,571,581,
574,557,599,598,595,575,572,599,571,554,575,599,575,589,555,578,
596,595,581,588,592,592,565,574,575,568,586,565,588,565,586,564,
557,557,589,574,557,555,598,574,592,571,596,599,579,554,585,565,
557,598,578,557,579,555,575,568,574,582,575,586,572,564,554,588,
557,574,585,588,575,586,595,571,579,598,554,568,562,581,579,554,
554,557,581,579,557,581,592,585,561,599,596,586,582,596,555,595,
564,592,554,558,558,579,579,581,558,592,585,588,575,588,572,585,
592,595,582,565,599,575,557,571,568,592,581,592,578,572,574,592,
592,582,589,558,582,585,572,599,554,555,572,596,561,574,565,581,
574,571,575,596,574,581,596,595,564,568,561,586,568,592,578,571,
586,579,585,574,565,568,598,592,571,568,579,592,586,579,568,561,
571,568,561,561,558,595,579,581,572,572,588,561,599,574,568,586,
589,595,555,554,595,558,564,554,558,585,555,554,582,581,579,562,
555,581,568,571,589,562,589,561,586,564,575,558,571,596,561,554,
574,599,588,568,565,586,574,579,582,554,588,568,588,585,598,575
</chunk>
   <chunk x="-1232" y="144" width="16" height="16">
589,568,585,554,575,581,586,589,574,589,554,592,562,555,581,0,
598,582,555,595,562,595,554,581,572,562,592,595,586,592,586,0,
574,589,581,586,588,596,581,579,599,592,589,581,571,596,574,0,
565,598,558,575,568,575,585,586,586,555,565,579,558,589,557,0,
561,572,554,555,555,581,571,565,585,574,562,581,585,585,581,0,
568,596,572,579,565,568,557,588,571,585,562,564,581,557,585,0,
554,586,599,589,557,574,555,598,588,565,565,588,589,565,586,0,
581,578,575,596,572,565,596,555,598,561,558,568,579,588,585,0,
565,588,554,558,578,554,596,568,595,575,571,598,582,555,592,0,
555,588,579,561,568,558,554,598,564,589,598,572,568,585,558,0,
557,588,554,568,579,595,586,555,588,595,582,565,574,592,568,0,
557,561,554,554,579,585,599,568,589,571,589,575,581,589,572,0,
572,588,598,561,562,589,571,592,555,586,562,574,596,557,595,0,
561,571,557,588,554,589,568,572,581,585,564,554,592,562,586,0,
592,599,554,564,575,579,575,588,589,586,589,568,555,578,589,0,
595,598,578,555,568,596,575,564,592,561,555,596,554,575,596,0
</chunk>
   <chunk x="-1056" y="144" width="16" height="16">
0,0,0,0,0,0,0,596,555,595,581,562,565,592,595,561,
0,0,0,0,0,0,0,599,554,596,579,574,585,564,586,572,
0,0,0,0,0,0,0,558,558,598,574,592,565,557,564,579,
0,0,0,0,0,0,0,582,574,568,586,568,585,554,596,596,
0,0,0,0,0,0,0,596,554,554,588,582,595,586,562,596,
0,0,0,0,0,0,0,564,582,572,562,598,599,554,579,565,
0,0,0,0,0,0,0,592,571,561,575,599,571,558,572,561,
0,0,0,0,0,0,0,555,564,578,571,554,565,592,581,581,
0,0,0,0,0,0,0,586,598,582,554,595,588,585,582,565,
0,0,0,0,0,0,0,595,586,589,596,585,586,578,572,574,
0,0,0,0,0,0,0,596,555,586,575,581,589,562,595,598,
0,0,0,0,0,0,0,581,557,598,555,588,579,598,592,575,
0,0,0,0,0,0,0,571,588,557,589,561,582,564,564,572,
0,0,0,0,0,0,0,555,586,557,589,574,574,582,595,578,
0,0,0,0,0,0,0,562,599,599,571,561,589,595,554,557,
0,0,0,0,0,0,0,561,575,558,568,586,589,598,581,588
</chunk>
   <chunk x="-1040" y="144" width="16" height="16">
572,575,582,598,562,599,564,596,561,561,557,572,578,585,598,555,
578,582,592,585,561,558,586,582,561,581,592,595,565,564,598,554,
592,571,595,578,579,582,582,561,596,555,579,582,578,558,599,582,
596,564,599,599,589,562,586,554,571,574,575,574,571,568,561,585,
558,562,554,562,564,592,562,595,585,555,598,595,564,596,599,581,
598,557,595,564,555,588,561,564,557,599,571,595,595,589,572,579,
585,564,571,588,592,599,582,571,592,578,562,561,568,557,595,589,
558,555,575,562,564,589,557,562,596,598,562,582,568,592,557,581,
581,585,565,598,598,592,582,578,586,595,554,565,565,599,575,586,
582,565,558,596,582,589,578,592,557,564,561,589,586,585,595,565,
588,554,585,572,575,596,588,558,596,562,598,579,557,558,564,565,
572,592,599,582,562,571,575,571,581,585,599,581,579,562,589,585,
554,598,596,555,554,585,574,598,586,561,586,596,579,558,596,574,
574,579,557,582,595,588,555,596,596,582,554,554,557,572,588,572,
562,578,578,554,554,599,579,585,575,589,561,581,586,586,582,598,
572,579,565,564,565,582,585,586,585,557,589,586,562,557,574,557
</chunk>
   <chunk x="-1024" y="144" width="16" height="16">
558,588,554,557,561,574,579,554,555,582,555,581,588,565,565,574,
558,586,578,592,574,598,558,599,586,589,555,574,585,574,562,565,
562,589,589,572,571,568,571,561,564,592,572,586,558,586,585,558,
592,572,585,574,599,562,588,588,578,557,585,589,598,568,575,562,
575,598,581,582,592,598,574,595,572,585,564,574,572,557,599,595,
568,575,578,592,554,582,568,572,586,574,598,598,592,558,592,599,
589,586,572,588,579,568,588,558,571,585,558,595,585,557,561,589,
574,564,575,571,578,568,582,565,565,592,565,564,582,586,575,562,
588,562,595,565,589,581,598,586,586,581,596,589,568,562,554,564,
562,585,561,598,574,592,564,599,578,554,575,572,574,568,595,592,
596,554,557,572,582,588,582,579,586,599,578,592,555,588,579,557,
564,557,572,586,578,571,568,589,574,586,564,557,571,586,589,588,
568,586,595,588,554,579,562,579,554,582,565,586,589,598,596,572,
574,565,571,582,575,554,592,588,598,589,562,575,596,579,575,598,
575,574,558,578,554,585,582,572,564,592,574,565,571,571,578,554,
555,589,574,564,586,579,572,572,595,572,564,557,565,571,561,562
</chunk>
   <chunk x="-1008" y="144" width="16" height="16">
581,568,561,598,579,564,558,578,588,599,588,599,595,592,562,579,
562,585,579,574,581,558,586,574,579,558,557,579,558,565,571,588,
578,579,558,562,555,595,586,564,589,595,568,579,574,581,557,586,
598,578,586,568,585,565,585,575,585,565,555,589,575,568,585,574,
574,555,575,565,586,558,595,555,581,579,592,571,592,561,581,586,
585,578,568,555,574,565,582,574,564,582,575,575,562,595,579,582,
579,575,598,561,575,579,554,574,562,586,595,585,561,561,571,596,
555,581,557,575,589,592,562,572,554,585,555,575,557,598,557,579,
582,561,599,565,565,572,571,564,589,558,581,586,581,557,589,589,
595,598,599,588,596,586,596,598,582,574,585,592,555,558,599,572,
581,562,564,571,579,562,586,557,564,558,582,571,598,572,581,572,
571,554,564,568,558,586,557,595,554,589,555,589,582,568,581,554,
564,568,581,568,598,565,561,574,578,598,586,568,578,599,598,572,
586,558,582,562,581,585,589,592,579,598,574,557,575,579,558,598,
578,574,555,558,562,564,598,599,578,572,581,596,596,585,585,592,
578,589,595,574,596,596,575,574,568,575,574,571,572,561,558,571
</chunk>
   <chunk x="-992" y="144" width="16" height="16">
595,592,557,574,589,555,596,599,568,575,596,589,588,555,581,598,
555,598,595,581,568,578,588,571,557,585,595,568,599,582,572,581,
572,555,578,568,596,558,554,599,598,582,575,554,588,568,589,589,
578,554,571,565,588,586,564,588,578,592,585,586,558,595,578,585,
582,599,562,575,599,572,561,564,581,578,588,572,574,579,572,578,
578,568,585,565,582,562,561,575,586,571,558,588,592,588,588,579,
586,558,571,595,565,596,598,588,586,589,572,598,582,554,564,582,
561,575,595,592,557,557,564,555,592,592,581,562,598,578,596,598,
575,586,561,568,565,555,592,592,592,581,554,578,562,582,562,589,
596,598,568,589,564,568,599,571,598,595,586,564,554,561,557,592,
558,558,555,571,554,562,555,581,562,561,555,564,572,562,578,565,
578,598,588,568,562,564,592,595,568,557,578,571,555,585,572,599,
589,572,596,582,579,596,595,582,579,564,575,599,575,586,599,579,
585,598,572,599,588,592,564,554,557,588,586,588,578,585,581,561,
562,568,568,589,599,599,564,599,588,555,588,562,579,598,561,581,
565,562,571,579,565,557,582,579,599,572,561,575,586,581,592,598
</chunk>
   <chunk x="-976" y="144" width="16" height="16">
574,571,595,572,571,564,554,585,575,575,575,574,599,595,555,578,
586,596,595,582,574,599,578,558,564,578,581,572,581,589,581,554,
572,588,582,586,595,586,586,589,592,582,582,554,596,564,582,565,
588,596,568,596,578,582,598,568,589,575,599,571,568,575,555,568,
579,588,565,568,589,581,589,578,571,558,585,581,592,586,589,572,
574,592,555,554,565,555,585,586,571,599,575,557,558,578,596,579,
558,599,564,558,555,574,578,562,565,586,598,554,575,572,574,565,
568,554,598,599,557,599,557,582,565,574,589,564,558,581,568,598,
562,561,554,564,554,558,599,592,558,572,575,574,598,558,575,568,
562,589,572,557,578,599,571,585,585,564,575,568,574,579,558,588,
575,589,557,565,598,564,582,562,572,571,578,557,572,557,561,568,
575,589,564,589,574,579,579,562,589,574,572,599,568,562,599,592,
562,581,554,557,592,588,561,564,589,575,592,595,592,582,596,572,
571,592,589,586,558,578,598,578,598,554,571,582,582,592,598,598,
586,588,598,582,568,579,599,565,568,596,592,568,568,575,561,568,
598,564,575,585,592,579,585,555,554,574,578,575,586,554,575,585
</chunk>
   <chunk x="-960" y="144" width="16" height="16">
554,554,578,565,562,599,562,598,595,574,599,575,579,592,578,585,
558,565,562,588,558,579,592,586,599,564,578,578,578,572,558,554,
598,588,562,565,555,575,568,588,596,575,568,579,565,588,565,599,
565,554,558,558,562,555,557,562,557,575,558,558,595,555,558,568,
579,592,582,574,585,599,565,588,571,572,578,588,599,562,557,575,
568,558,585,592,554,595,575,575,558,581,572,572,596,588,596,568,
558,571,599,568,599,561,558,578,554,585,596,561,579,555,581,578,
585,554,575,598,555,585,562,572,572,579,554,558,561,589,586,557,
554,562,599,562,555,582,578,557,572,582,555,561,571,565,596,565,
572,574,555,555,585,575,578,595,574,574,578,589,575,572,599,565,
554,575,588,564,564,568,592,571,586,575,595,595,586,571,578,598,
598,561,596,585,565,578,586,598,599,554,589,585,588,581,575,586,
589,561,561,565,581,579,561,595,585,561,598,585,558,592,555,596,
578,585,599,557,565,585,589,557,599,589,555,564,557,557,557,565,
555,557,598,592,581,558,571,558,588,598,586,598,586,571,557,557,
554,575,554,575,565,585,595,595,585,565,578,575,557,562,595,568
</chunk>
   <chunk x="-944" y="144" width="16" height="16">
581,582,588,585,578,588,554,585,565,596,571,589,568,562,558,554,
574,562,599,572,582,558,572,595,571,558,588,596,596,555,595,581,
558,562,565,554,564,598,557,565,599,562,568,582,588,554,582,571,
581,568,574,554,555,558,588,595,554,571,574,596,598,589,595,565,
596,595,572,588,582,592,598,578,557,582,599,585,571,586,585,561,
581,578,596,562,562,574,574,588,589,596,561,575,571,578,595,561,
572,581,564,575,554,565,588,596,571,565,586,595,557,555,568,558,
582,555,568,589,599,568,588,578,582,582,596,582,575,554,554,581,
558,571,565,554,595,588,579,582,558,582,558,586,571,555,596,592,
588,599,574,575,562,582,557,599,588,581,582,596,598,561,568,568,
585,558,586,592,592,589,572,586,589,596,565,581,596,596,555,575,
592,595,578,555,589,571,554,582,581,585,592,586,585,562,592,554,
588,565,592,574,592,585,555,555,592,589,598,555,579,554,572,572,
578,595,558,557,571,575,571,562,578,588,564,557,585,586,592,572,
592,558,557,586,588,585,586,558,574,596,586,586,586,561,588,575,
554,574,562,582,579,586,599,565,581,571,554,578,555,564,596,592
</chunk>
   <chunk x="-928" y="144" width="16" height="16">
555,558,557,595,557,596,578,589,571,555,582,575,599,598,588,564,
565,586,578,588,562,557,554,585,572,574,578,585,571,586,596,595,
588,589,599,595,571,564,598,575,582,574,585,585,564,565,585,586,
557,554,599,596,592,578,586,596,596,592,596,574,557,578,575,574,
588,589,555,572,555,575,575,588,588,568,554,561,588,575,598,595,
572,558,558,562,595,585,568,564,561,578,558,557,598,565,595,561,
578,598,561,572,565,586,579,555,586,561,565,555,598,581,579,585,
557,558,596,585,561,571,565,565,589,588,585,564,562,578,598,555,
562,572,582,599,558,581,568,571,574,578,555,565,578,575,562,571,
565,557,554,572,598,592,586,558,568,582,571,555,575,557,558,557,
572,575,596,571,565,561,572,561,565,568,564,561,588,588,586,582,
585,595,568,558,586,588,565,561,581,589,595,572,554,586,586,561,
582,564,561,572,592,572,596,579,582,586,554,574,558,562,598,592,
574,589,562,589,589,574,592,557,599,586,571,589,562,555,588,588,
578,596,561,581,599,586,572,555,568,572,588,599,557,564,589,595,
589,578,554,557,588,585,579,586,588,589,596,599,581,598,579,564
</chunk>
   <chunk x="-912" y="144" width="16" height="16">
574,574,596,557,574,571,585,555,555,588,596,568,581,575,578,589,
565,575,574,589,575,561,558,565,589,562,557,592,596,568,572,562,
572,564,555,595,555,582,592,565,574,596,596,554,578,595,578,582,
578,564,579,592,579,585,574,558,555,589,589,578,581,568,555,561,
586,575,581,588,592,582,582,585,565,558,592,568,565,588,585,581,
579,596,595,585,558,561,572,582,595,582,595,557,557,557,562,596,
581,592,586,592,565,589,586,598,561,568,575,589,582,592,565,557,
558,589,581,586,554,582,568,586,592,586,582,578,558,557,555,586,
568,588,599,582,555,558,557,598,595,572,589,589,558,557,564,554,
578,562,558,574,554,599,588,555,595,562,592,578,598,564,585,599,
589,579,557,582,555,588,568,557,588,558,588,585,558,571,555,554,
565,572,571,588,568,571,574,586,574,572,572,568,574,575,581,568,
574,596,598,585,565,578,586,564,585,554,595,599,592,586,585,561,
555,599,564,598,561,588,558,575,582,585,568,561,592,588,554,564,
562,595,596,574,589,582,561,595,579,581,592,554,595,598,564,592,
581,578,579,561,592,562,555,555,561,572,582,581,557,568,598,568
</chunk>
   <chunk x="-896" y="144" width="16" height="16">
592,579,598,575,581,581,565,578,565,586,562,571,558,586,554,596,
574,568,561,565,582,557,561,565,574,596,579,572,592,564,558,562,
595,579,565,557,586,598,562,571,564,568,592,557,599,574,557,592,
596,581,555,572,571,581,589,589,574,575,572,596,575,578,588,599,
581,575,575,557,564,554,572,578,555,571,564,568,596,555,561,565,
575,561,585,561,592,554,596,586,555,599,558,561,571,568,565,562,
581,586,574,568,599,578,554,585,585,581,579,574,555,557,579,574,
578,575,592,581,565,557,575,575,561,557,596,574,579,554,579,571,
582,571,557,564,571,595,592,595,586,585,586,581,586,575,574,582,
595,585,581,586,574,572,586,581,596,557,558,568,582,564,554,581,
592,562,578,574,585,581,588,558,572,585,586,598,557,598,565,588,
599,558,582,595,586,575,585,592,554,564,561,571,575,572,599,582,
555,595,596,582,579,589,574,578,568,575,564,558,595,565,586,579,
582,596,568,557,596,555,558,568,596,564,586,575,592,582,565,592,
586,589,575,565,557,582,561,558,596,582,571,555,595,565,554,582,
561,579,574,596,555,572,589,592,565,571,574,562,596,588,568,595
</chunk>
   <chunk x="-880" y="144" width="16" height="16">
582,575,574,596,571,568,596,564,557,579,572,558,596,578,589,561,
588,558,578,568,565,595,572,599,596,582,599,558,589,589,574,554,
574,565,561,554,598,598,588,595,572,564,582,581,586,599,568,578,
565,565,595,562,568,574,592,582,561,564,592,555,557,568,588,581,
588,554,568,575,558,561,562,585,568,557,578,589,592,555,581,571,
555,574,564,581,578,557,585,599,568,595,578,595,568,574,555,558,
555,572,579,555,599,564,598,581,568,599,595,595,564,598,585,568,
585,588,574,555,572,578,585,572,595,589,555,562,558,581,596,581,
592,599,554,579,575,598,564,558,598,582,561,554,596,562,599,555,
592,571,558,564,599,589,558,554,585,561,562,558,585,557,554,568,
588,554,582,574,578,581,554,568,574,565,578,588,598,554,575,568,
582,555,554,585,575,575,557,579,564,572,585,578,578,579,581,574,
592,558,558,578,568,572,592,565,572,579,579,582,588,578,586,565,
592,575,561,599,562,574,581,572,598,595,574,571,586,596,592,575,
574,596,586,588,586,596,578,599,572,586,561,575,581,595,574,585,
588,592,575,592,592,557,554,581,558,565,562,581,554,574,571,561
</chunk>
   <chunk x="-864" y="144" width="16" height="16">
575,555,564,557,571,555,554,572,598,592,564,558,564,562,574,557,
589,571,557,554,561,574,589,596,585,561,581,596,574,574,571,568,
581,571,596,554,572,589,557,598,564,578,574,582,578,579,555,589,
575,592,586,598,578,557,586,588,581,572,564,561,565,558,574,562,
558,588,578,596,589,575,589,568,598,592,589,558,575,571,575,554,
557,589,579,582,588,554,575,555,589,575,555,558,585,595,592,575,
586,596,581,599,561,599,598,575,581,558,565,561,586,582,574,555,
571,565,565,578,558,564,578,564,571,562,562,581,586,578,596,586,
558,557,571,558,589,588,596,592,571,562,581,571,568,565,571,588,
554,581,579,565,595,575,561,582,595,572,588,581,574,588,554,586,
581,555,574,572,589,598,558,589,554,575,595,561,585,568,582,575,
585,572,582,554,578,579,586,562,579,581,586,575,568,586,571,565,
555,579,574,592,589,585,574,586,592,555,562,568,554,575,586,589,
571,595,561,574,558,585,558,586,596,579,595,555,595,582,588,572,
574,585,585,592,595,579,554,598,575,555,568,585,579,561,565,588,
557,555,581,585,592,595,571,596,562,578,579,572,592,579,564,558
</chunk>
   <chunk x="-848" y="144" width="16" height="16">
578,581,582,555,568,562,0,0,0,0,0,0,0,0,0,0,
562,568,578,558,562,585,0,0,0,0,0,0,0,0,0,0,
574,572,561,578,599,555,0,0,0,0,0,0,0,0,0,0,
582,598,571,596,561,557,0,0,0,0,0,0,0,0,0,0,
589,574,565,586,571,574,0,0,0,0,0,0,0,0,0,0,
579,572,589,575,586,572,0,0,0,0,0,0,0,0,0,0,
582,596,557,595,557,585,0,0,0,0,0,0,0,0,0,0,
596,562,592,578,596,554,0,0,0,0,0,0,0,0,0,0,
574,574,575,579,572,571,0,0,0,0,0,0,0,0,0,0,
557,554,581,592,592,579,0,0,0,0,0,0,0,0,0,0,
565,555,586,588,582,555,0,0,0,0,0,0,0,0,0,0,
586,579,586,581,571,574,0,0,0,0,0,0,0,0,0,0,
554,571,578,582,598,588,0,0,0,0,0,0,0,0,0,0,
581,565,582,596,582,588,0,0,0,0,0,0,0,0,0,0,
564,592,588,568,568,582,0,0,0,0,0,0,0,0,0,0,
599,585,585,589,589,589,0,0,0,0,0,0,0,0,0,0
</chunk>
   <chunk x="-1344" y="160" width="16" height="16">
0,0,0,0,564,585,574,581,578,595,588,585,558,558,585,592,
0,0,0,0,599,589,595,586,586,575,555,564,558,557,581,596,
0,0,0,0,595,592,554,558,555,554,562,574,561,564,572,578,
0,0,0,0,578,557,574,568,571,586,558,555,598,595,589,582,
0,0,0,0,572,572,568,555,585,579,554,571,585,557,555,586,
0,0,0,0,582,599,575,568,589,554,596,565,562,558,592,572,
0,0,0,0,598,592,565,599,564,564,596,589,598,575,574,588,
0,0,0,0,574,596,581,555,571,592,565,564,586,581,571,592,
0,0,0,0,586,565,579,574,557,582,582,581,595,586,575,595,
0,0,0,0,558,578,598,562,562,574,557,598,598,582,568,557,
0,0,0,0,578,582,586,592,585,575,574,579,572,574,586,574,
0,0,0,0,554,557,562,561,582,558,578,586,586,578,574,558,
0,0,0,0,599,599,586,554,599,561,557,562,599,588,565,582,
0,0,0,0,572,555,554,599,596,561,555,581,555,592,575,585,
0,0,0,0,564,595,562,585,595,568,555,571,568,595,585,558,
0,0,0,0,596,589,595,572,595,568,586,588,599,575,599,572
</chunk>
   <chunk x="-1328" y="160" width="16" height="16">
581,595,564,596,557,599,585,562,582,596,599,575,557,555,592,565,
599,585,568,561,585,599,565,582,581,568,596,598,585,592,561,578,
595,558,574,572,557,585,572,592,581,596,562,582,574,571,575,599,
592,571,555,585,557,589,578,575,588,596,561,555,578,578,598,571,
592,565,557,582,555,558,554,572,588,568,578,565,554,557,572,578,
599,555,582,578,565,592,558,564,595,595,558,561,595,599,585,562,
592,592,554,581,589,562,555,564,554,575,598,574,598,562,589,596,
589,582,574,596,561,572,581,561,572,585,558,599,565,555,588,592,
595,562,554,564,592,557,562,595,564,585,598,571,565,598,565,598,
578,572,555,588,575,562,592,588,554,554,599,586,574,582,579,599,
571,599,596,579,598,557,554,571,575,579,557,558,579,598,598,586,
561,588,595,557,574,574,557,589,568,575,581,555,596,557,592,555,
554,558,598,596,564,581,598,589,599,582,564,572,596,578,558,596,
586,554,581,585,585,589,598,588,596,572,557,582,579,596,568,581,
572,598,564,585,595,581,572,595,586,562,557,578,592,585,564,579,
568,585,582,574,592,598,588,555,598,562,599,588,578,595,568,574
</chunk>
   <chunk x="-1312" y="160" width="16" height="16">
568,586,592,575,582,555,592,595,579,579,557,572,571,562,582,579,
558,572,575,579,558,565,565,575,588,588,575,582,582,585,578,599,
595,571,599,595,578,564,565,595,592,579,554,571,595,561,571,588,
554,555,578,571,562,595,589,572,571,595,572,585,554,564,564,565,
578,578,595,572,558,575,558,578,589,565,555,574,558,555,574,572,
595,558,575,568,574,592,572,588,578,555,579,568,562,561,595,585,
555,596,561,595,598,572,554,574,598,564,585,557,599,579,561,558,
568,598,598,598,561,568,582,557,574,598,595,579,592,596,564,595,
561,588,564,599,589,575,579,599,562,585,586,574,575,592,592,578,
599,581,581,589,579,589,555,564,564,592,588,588,598,588,586,571,
582,592,558,589,562,582,578,596,586,555,574,564,586,571,585,589,
555,595,565,572,564,571,598,578,588,574,554,592,554,588,582,562,
581,575,574,595,589,572,574,586,598,578,596,562,555,598,595,564,
558,561,585,561,595,599,596,572,568,558,572,578,564,599,561,582,
588,565,558,596,558,585,561,595,557,557,586,565,592,578,575,598,
574,579,574,579,561,585,596,598,564,595,589,578,561,574,568,589
</chunk>
   <chunk x="-1296" y="160" width="16" height="16">
585,582,579,585,564,572,595,574,595,564,596,568,588,592,596,565,
575,599,555,571,571,578,588,572,575,564,562,596,579,572,557,579,
575,575,572,558,565,571,565,581,582,585,589,554,558,588,558,558,
585,596,565,589,589,592,568,561,586,595,579,565,599,562,565,581,
564,572,565,562,565,581,572,599,564,596,562,578,595,571,598,558,
596,572,562,565,581,575,588,595,599,555,565,579,562,572,574,588,
574,595,557,557,558,572,561,588,571,574,558,582,554,599,565,555,
581,585,581,596,592,554,579,595,579,589,571,562,574,562,558,595,
579,599,571,571,599,565,598,585,572,565,589,578,558,582,598,575,
554,555,579,579,568,586,578,575,557,585,595,595,565,596,579,585,
557,565,557,558,571,575,557,582,589,568,582,588,592,564,596,586,
558,578,585,561,588,574,586,599,578,592,561,585,557,562,598,574,
578,558,586,581,592,558,562,585,592,568,564,592,599,564,588,571,
557,598,555,572,581,574,598,588,586,568,555,595,571,588,585,565,
588,599,561,588,555,554,561,581,588,554,555,585,558,599,579,574,
581,575,565,598,579,557,589,596,574,592,572,578,557,568,554,595
</chunk>
   <chunk x="-1280" y="160" width="16" height="16">
588,581,574,555,592,581,557,572,586,598,578,564,555,564,595,588,
554,574,557,596,578,589,595,585,598,564,595,572,568,572,562,582,
557,575,598,558,581,574,586,557,572,592,554,596,581,599,565,586,
598,599,589,554,578,572,562,558,554,596,561,568,585,588,557,596,
581,578,598,575,589,588,564,568,596,557,575,589,575,561,585,579,
557,574,579,595,599,565,599,578,586,598,565,555,586,575,554,562,
557,595,581,568,592,574,558,558,598,562,575,582,581,579,596,585,
585,582,562,585,586,595,568,558,575,586,562,592,558,562,557,555,
572,579,599,574,561,574,561,596,598,575,561,596,596,575,579,592,
574,557,561,575,579,598,571,592,572,579,586,557,555,592,574,586,
574,596,568,572,568,565,562,564,599,592,582,596,572,578,571,596,
558,568,599,588,574,562,598,588,565,558,555,592,595,595,592,555,
561,599,557,568,561,574,565,598,561,582,588,561,595,562,555,595,
595,562,581,561,579,599,565,585,554,562,595,589,554,568,579,571,
579,575,592,555,572,561,592,571,585,595,571,575,599,599,574,565,
592,558,585,589,575,572,589,555,558,582,557,592,578,599,585,578
</chunk>
   <chunk x="-1264" y="160" width="16" height="16">
574,582,596,588,586,596,579,585,568,598,561,555,579,572,598,562,
572,595,557,585,564,574,575,585,595,595,585,592,555,571,586,595,
568,585,568,592,564,554,585,588,588,589,581,598,555,565,555,561,
565,578,582,557,572,571,592,592,585,585,588,564,572,589,564,592,
562,555,554,564,578,588,581,582,582,585,554,578,562,581,596,588,
596,555,572,581,562,585,585,592,579,558,565,582,599,557,565,598,
564,582,572,554,562,568,595,592,578,579,588,578,592,554,557,565,
557,592,585,588,599,578,589,578,588,558,588,575,568,578,579,557,
595,598,592,588,582,572,572,558,571,572,592,555,557,588,558,574,
582,554,586,561,592,598,599,588,599,586,568,561,585,588,579,568,
579,599,562,561,571,571,585,586,555,555,572,596,572,557,554,581,
592,554,554,586,585,574,588,568,575,589,588,558,599,595,581,575,
588,561,571,589,595,585,568,579,599,574,562,555,595,565,562,557,
562,568,579,557,575,582,561,555,574,565,592,585,564,589,562,554,
561,582,582,586,555,582,592,558,579,555,558,586,596,574,572,574,
562,588,572,558,565,558,578,557,585,585,578,588,595,585,581,599
</chunk>
   <chunk x="-1248" y="160" width="16" height="16">
599,599,574,565,599,578,564,579,598,574,578,592,585,572,579,571,
558,579,562,558,557,592,554,579,599,557,562,557,581,564,592,557,
562,581,579,564,585,555,581,578,555,581,582,595,555,555,581,554,
562,589,578,571,582,579,575,554,561,592,572,578,596,589,575,589,
579,596,582,574,568,555,581,565,572,565,555,557,554,589,598,564,
562,561,586,557,571,568,598,575,568,586,562,568,579,582,595,589,
582,582,579,571,579,565,555,589,592,571,579,598,571,596,586,585,
557,578,581,599,578,582,595,574,568,595,588,598,568,578,574,598,
579,554,571,578,562,564,598,588,558,586,578,599,596,568,554,585,
592,554,585,554,595,588,565,589,575,596,568,568,581,558,574,565,
578,565,582,579,586,581,595,555,588,581,598,568,599,555,571,564,
588,571,598,554,595,554,554,561,555,592,596,598,572,592,599,598,
565,581,589,598,572,557,568,588,568,571,581,572,557,564,557,595,
562,592,572,554,574,568,598,557,578,579,598,558,596,557,564,596,
564,568,557,574,579,599,568,579,585,572,595,564,592,592,558,589,
562,588,589,585,581,575,581,554,599,565,592,581,582,582,558,582
</chunk>
   <chunk x="-1232" y="160" width="16" height="16">
555,561,589,571,564,589,562,592,574,599,592,565,565,588,598,0,
571,565,579,598,562,574,574,571,599,557,571,598,598,599,596,0,
555,565,578,585,572,558,572,572,554,564,585,557,586,586,568,0,
564,578,561,557,586,592,598,585,561,582,572,555,596,575,586,0,
582,565,592,579,598,558,579,554,585,558,568,562,575,595,561,0,
589,599,555,579,562,565,565,595,575,592,592,571,578,598,565,0,
578,578,595,581,555,598,585,585,595,564,558,585,585,571,582,0,
562,561,599,555,581,582,579,571,562,568,571,578,598,585,562,0,
592,585,596,581,598,554,571,554,586,568,599,588,588,592,561,0,
554,589,599,572,565,596,599,565,558,585,592,571,564,596,575,0,
562,581,595,571,562,565,596,554,589,582,564,558,571,579,581,0,
575,589,571,564,558,557,572,578,571,595,554,565,554,586,574,0,
596,561,568,554,578,575,555,588,598,595,574,561,555,596,564,0,
588,555,562,571,574,579,582,562,555,572,582,558,575,572,595,0,
564,599,595,578,554,589,565,565,596,557,596,564,578,579,558,0,
557,592,589,585,562,592,565,599,578,574,561,596,589,585,592,0
</chunk>
   <chunk x="-1056" y="160" width="16" height="16">
0,0,0,0,0,0,0,572,581,575,581,572,574,582,592,562,
0,0,0,0,0,0,0,565,585,582,586,588,572,558,598,582,
0,0,0,0,0,0,0,575,562,588,581,575,579,586,555,579,
0,0,0,0,0,0,0,585,574,599,579,595,562,571,579,575,
0,0,0,0,0,0,0,579,568,595,586,599,592,555,554,586,
0,0,0,0,0,0,0,574,598,565,557,586,586,568,555,598,
0,0,0,0,0,0,0,558,578,554,557,598,599,562,582,557,
0,0,0,0,0,0,0,588,571,589,579,579,588,568,571,565,
0,0,0,0,0,0,0,574,568,578,562,598,595,562,596,578,
0,0,0,0,0,0,0,554,578,599,571,585,596,596,558,586,
0,0,0,0,0,0,0,555,557,585,564,568,568,557,581,578,
0,0,0,0,0,0,0,586,568,554,574,568,557,578,598,572,
0,0,0,0,0,0,0,579,554,589,586,562,565,578,575,561,
0,0,0,0,0,0,0,585,578,595,592,557,589,568,572,579,
0,0,0,0,0,0,0,574,582,574,592,554,582,592,558,596,
0,0,0,0,0,0,0,595,557,571,557,582,595,589,572,592
</chunk>
   <chunk x="-1040" y="160" width="16" height="16">
565,579,579,588,575,562,592,582,562,564,558,557,554,554,557,599,
599,578,568,581,585,579,564,564,581,578,578,571,575,561,595,586,
565,592,564,572,588,581,575,599,558,574,595,592,561,589,585,598,
579,586,588,585,579,554,558,558,557,579,585,571,582,554,557,572,
578,574,581,589,595,572,555,564,598,565,554,588,581,574,554,586,
582,561,571,586,586,578,585,558,592,582,582,586,562,599,595,595,
581,581,582,588,592,582,586,554,585,574,585,579,585,555,561,592,
568,571,557,575,571,555,599,595,574,568,578,561,557,599,586,581,
578,589,595,561,579,599,568,554,572,565,592,557,581,572,592,598,
582,582,557,582,585,568,598,557,598,562,562,568,555,579,586,568,
585,555,575,571,557,555,571,568,581,557,561,568,564,572,572,599,
578,555,588,578,596,564,565,574,572,582,558,555,574,565,589,558,
571,599,564,598,588,598,599,596,574,571,585,562,565,575,562,558,
555,595,599,558,574,586,598,595,598,585,595,595,558,561,574,586,
558,557,595,575,586,589,582,561,588,554,596,574,588,581,588,565,
564,571,581,578,589,575,589,579,598,588,555,595,561,588,592,585
</chunk>
   <chunk x="-1024" y="160" width="16" height="16">
568,581,562,598,579,592,568,596,599,581,582,581,585,571,592,557,
554,572,555,575,554,562,585,574,574,565,579,586,599,596,598,568,
595,568,555,585,599,585,558,557,568,554,586,598,562,579,586,564,
585,592,595,574,555,578,598,595,595,598,575,588,581,562,592,578,
565,558,582,578,585,581,585,598,574,599,564,599,562,571,571,557,
599,586,574,558,554,579,598,554,599,589,575,561,598,565,595,565,
585,582,558,565,571,585,592,571,582,557,598,585,581,585,564,589,
598,595,568,568,592,571,588,585,561,598,561,568,582,595,565,596,
572,598,555,575,581,554,562,592,589,586,589,575,562,596,599,582,
575,568,558,582,572,581,599,554,564,579,581,578,582,555,596,574,
575,557,565,582,595,568,579,578,588,568,586,578,585,586,575,586,
596,565,562,557,592,558,579,575,586,585,564,571,585,599,579,565,
572,596,561,575,568,554,557,555,599,588,574,582,572,596,581,554,
557,558,592,554,596,554,589,554,574,558,595,582,565,578,554,561,
598,582,561,575,582,579,568,579,595,579,588,579,571,574,585,598,
586,572,571,558,582,579,575,579,578,588,575,578,595,558,555,558
</chunk>
   <chunk x="-1008" y="160" width="16" height="16">
561,554,562,586,562,562,596,558,575,557,582,589,582,561,586,579,
565,579,575,562,562,554,568,564,554,585,582,578,558,585,564,595,
562,592,598,578,562,565,581,582,575,599,581,574,585,582,574,572,
555,557,557,599,598,595,575,595,585,562,582,579,568,561,575,571,
557,582,575,561,554,571,554,585,561,571,571,571,586,575,592,595,
589,565,589,568,575,561,588,558,557,581,586,568,588,575,558,585,
599,596,555,565,574,574,598,564,561,588,568,575,579,568,592,599,
574,579,581,562,572,575,564,575,564,561,578,555,579,592,599,595,
562,582,571,561,565,554,588,579,596,568,565,571,565,572,568,555,
592,585,562,555,578,565,557,561,596,571,565,578,571,578,574,557,
592,575,554,589,595,599,568,598,557,595,564,565,562,574,596,586,
599,579,565,579,565,585,564,561,575,558,565,585,557,579,579,572,
585,571,562,558,571,578,586,574,572,555,565,575,562,558,555,595,
554,596,571,557,585,582,578,585,555,598,581,565,572,555,558,581,
564,586,568,564,582,571,572,564,561,592,571,574,555,599,574,581,
555,592,579,565,588,578,571,598,588,586,562,562,596,555,558,582
</chunk>
   <chunk x="-992" y="160" width="16" height="16">
578,599,599,579,574,586,589,554,571,586,595,588,585,572,562,557,
572,565,565,572,572,589,578,582,579,596,579,579,568,554,582,592,
598,572,554,575,598,571,557,598,589,578,562,574,564,574,598,596,
571,565,565,589,558,596,585,595,574,598,581,592,554,598,599,568,
579,596,575,598,586,579,564,588,561,572,555,599,579,555,571,581,
589,598,582,596,561,579,562,579,592,588,558,582,585,558,589,565,
599,589,555,596,595,589,585,555,558,581,558,554,592,557,588,554,
599,564,572,581,589,571,557,589,596,596,585,598,599,555,592,599,
561,581,575,596,571,572,562,571,574,557,598,574,571,565,571,582,
599,578,579,568,571,568,592,588,595,585,598,588,572,598,578,572,
585,568,555,598,565,589,557,589,554,558,557,571,588,585,598,582,
564,571,574,554,568,564,582,578,572,582,589,585,572,582,554,582,
579,557,578,579,555,588,565,564,581,564,582,581,562,581,589,596,
581,568,572,595,585,562,562,599,571,571,598,574,575,561,574,564,
595,598,558,596,558,588,581,565,561,582,564,575,561,565,574,568,
585,579,592,558,592,598,555,575,561,578,585,588,578,554,572,572
</chunk>
   <chunk x="-976" y="160" width="16" height="16">
582,595,588,586,582,585,558,564,595,554,592,598,564,596,574,572,
598,561,599,572,599,579,564,554,571,582,557,586,582,581,589,558,
562,557,595,581,582,555,555,571,558,574,571,564,596,596,572,586,
586,571,585,557,582,582,558,562,586,599,571,571,592,565,568,568,
558,579,599,585,562,598,578,589,571,598,586,595,571,568,596,571,
585,581,571,585,572,558,562,588,575,564,582,589,558,557,568,554,
575,555,575,589,596,581,585,568,599,578,561,575,596,581,565,564,
571,568,565,595,558,596,561,595,568,598,595,557,557,598,571,572,
579,588,598,574,586,579,582,588,574,555,596,561,572,581,554,555,
565,599,599,561,565,596,595,588,572,565,582,571,592,568,555,589,
585,572,585,579,588,585,564,592,554,582,579,555,571,599,571,575,
572,574,554,596,557,568,571,572,568,574,575,589,598,585,592,574,
558,558,574,564,581,562,578,579,562,555,599,598,595,571,554,554,
575,572,589,598,565,595,562,572,571,595,589,565,599,598,585,568,
588,592,581,554,578,596,564,574,596,554,555,585,582,554,555,571,
555,592,599,558,562,592,598,571,588,575,574,572,568,596,582,575
</chunk>
   <chunk x="-960" y="160" width="16" height="16">
578,598,568,575,592,565,554,555,592,565,558,592,598,592,574,585,
572,558,586,579,588,589,568,561,568,598,557,564,575,564,598,564,
554,561,557,558,592,592,595,571,595,589,598,582,575,557,586,596,
585,589,579,554,586,579,595,572,589,579,558,572,571,595,579,565,
561,578,575,555,554,588,561,565,581,595,581,595,588,558,585,585,
585,595,578,558,558,554,561,578,588,571,557,562,598,561,589,592,
588,574,564,561,572,557,596,598,585,557,585,598,564,555,562,596,
554,589,599,582,555,598,555,558,558,562,571,592,596,588,571,561,
588,562,568,581,558,596,554,561,586,557,579,596,571,574,571,572,
598,595,592,589,564,572,579,571,572,581,574,599,554,589,589,568,
585,585,554,589,555,599,582,561,554,586,592,595,586,561,586,565,
555,568,557,592,582,599,572,578,561,588,595,558,585,574,561,589,
596,598,562,571,592,568,586,571,579,564,581,564,598,564,562,595,
561,575,557,574,585,561,565,557,558,589,579,572,562,554,598,562,
568,557,579,596,589,558,588,579,596,581,555,561,561,562,568,574,
571,585,585,586,596,555,585,554,564,565,598,599,586,574,568,586
</chunk>
   <chunk x="-944" y="160" width="16" height="16">
568,578,574,565,582,586,562,589,599,581,572,578,581,568,579,586,
561,578,574,562,557,574,554,564,579,574,568,562,568,596,572,558,
574,592,589,578,558,596,572,565,558,561,557,574,589,561,568,572,
595,592,555,565,565,565,565,579,571,574,599,596,595,582,598,571,
595,568,561,586,578,568,586,588,555,578,554,585,558,564,562,589,
555,598,557,561,579,562,575,555,557,571,572,599,585,561,565,557,
599,555,595,578,578,599,562,589,554,561,575,574,592,581,555,581,
579,599,579,571,599,599,574,572,565,596,582,568,555,568,598,574,
598,586,558,588,579,581,585,557,596,557,578,586,575,585,585,592,
588,578,586,572,554,562,589,561,574,571,575,568,568,572,592,582,
585,574,599,598,592,588,595,586,595,561,588,595,565,586,589,586,
575,565,582,571,557,578,572,571,596,588,575,574,572,596,582,558,
589,582,596,596,589,574,575,578,595,572,588,562,558,561,565,596,
592,582,557,562,575,574,557,598,599,599,595,561,579,589,575,554,
565,589,574,564,575,586,586,599,568,571,592,575,598,575,572,595,
568,586,578,582,555,564,588,589,571,575,581,592,568,598,571,588
</chunk>
   <chunk x="-928" y="160" width="16" height="16">
586,561,595,581,562,574,599,561,592,568,572,574,595,579,585,571,
574,564,585,596,581,595,575,555,598,582,572,575,579,581,592,582,
579,581,579,592,582,581,579,589,558,582,579,554,561,575,579,564,
557,555,588,592,554,562,575,575,585,592,589,579,596,588,581,586,
562,586,565,598,558,555,562,598,589,585,598,579,592,588,578,558,
586,578,557,598,568,575,589,568,592,588,585,568,562,595,554,568,
558,592,572,582,561,555,586,586,568,589,564,581,582,579,558,568,
574,581,588,574,557,562,574,578,564,586,581,578,582,572,588,562,
555,585,578,554,579,557,589,572,575,578,582,581,562,572,561,557,
561,599,575,582,595,588,596,579,568,575,568,555,595,581,554,599,
599,585,575,574,598,562,578,555,579,582,595,564,586,565,555,596,
575,568,571,598,575,582,572,595,568,578,564,571,574,598,558,575,
554,589,595,572,596,565,575,595,595,596,571,558,571,588,558,561,
565,575,557,575,599,561,557,564,572,554,579,589,578,588,586,574,
555,582,586,579,572,564,568,582,561,578,598,595,558,581,579,581,
596,585,586,599,581,568,585,578,578,582,586,592,588,586,582,572
</chunk>
   <chunk x="-912" y="160" width="16" height="16">
578,561,568,579,588,579,568,557,568,596,581,579,571,565,568,557,
582,578,586,575,595,582,581,579,599,574,555,574,555,579,598,596,
565,575,575,578,589,578,564,564,565,565,582,599,571,585,562,588,
579,598,571,562,578,589,578,562,598,595,571,575,598,561,557,592,
599,599,565,578,578,575,592,572,562,599,555,579,555,558,582,598,
588,588,588,589,596,562,581,581,585,582,599,589,561,565,565,557,
586,585,579,554,572,561,574,575,568,561,571,588,564,589,558,598,
592,588,565,568,555,599,586,581,568,598,589,557,592,564,589,568,
565,578,572,565,592,571,578,568,557,579,588,581,592,562,562,575,
555,565,558,599,575,558,578,586,558,568,555,598,589,561,571,574,
557,588,558,557,572,595,561,589,558,568,589,596,564,585,557,582,
579,589,571,564,589,554,599,586,579,554,596,599,581,589,565,554,
578,585,562,592,574,598,599,585,558,579,599,565,561,572,596,599,
579,578,599,592,586,585,554,589,574,568,574,589,595,555,581,585,
592,571,581,596,595,596,568,554,581,555,564,599,579,592,585,575,
599,575,579,557,572,571,574,564,589,561,558,599,596,574,568,599
</chunk>
   <chunk x="-896" y="160" width="16" height="16">
581,598,565,588,595,561,575,595,595,592,582,564,558,557,579,599,
598,575,574,592,554,599,562,592,557,574,571,598,595,588,568,579,
561,558,595,589,571,575,585,596,578,578,582,579,574,564,554,554,
561,581,589,589,575,568,554,599,579,562,578,565,572,574,595,558,
582,562,589,561,561,589,574,578,578,561,599,571,564,562,589,596,
562,574,575,589,575,588,572,578,598,564,557,588,588,595,558,561,
568,585,562,574,575,571,588,596,575,588,558,561,558,557,571,574,
586,575,574,564,598,557,575,555,599,588,581,564,568,575,596,558,
581,586,598,574,555,574,568,574,585,586,565,595,596,589,598,557,
578,578,555,554,562,595,598,574,562,589,578,592,564,585,589,578,
574,557,589,582,596,565,598,582,581,574,572,572,558,599,575,571,
578,578,557,579,557,557,574,596,575,562,586,574,579,565,588,581,
568,599,554,599,564,575,586,599,575,581,598,568,586,578,598,578,
578,582,571,555,586,562,572,574,579,579,598,574,554,578,589,598,
562,581,596,595,562,579,588,585,574,589,595,592,585,558,578,574,
585,588,568,599,554,572,592,596,585,574,581,575,561,581,557,561
</chunk>
   <chunk x="-880" y="160" width="16" height="16">
555,558,579,564,595,555,565,572,561,585,562,592,592,578,562,596,
579,586,599,578,568,592,572,561,595,599,582,585,571,554,586,554,
564,574,568,585,571,585,554,564,575,598,596,568,571,578,589,575,
585,581,574,564,575,592,574,561,554,592,588,586,571,578,557,562,
585,565,555,588,599,568,582,589,571,561,571,595,571,599,565,581,
582,596,572,586,598,564,555,565,592,565,596,555,578,578,571,574,
565,579,598,554,557,562,596,562,568,592,564,582,572,579,554,557,
572,571,568,555,581,589,578,555,562,579,555,579,598,574,557,582,
578,565,571,572,564,561,599,564,589,561,585,589,588,561,558,599,
564,558,585,581,574,595,562,555,588,554,596,592,586,586,571,586,
571,578,596,595,564,554,596,586,574,599,557,586,586,564,562,575,
561,596,564,558,578,578,596,558,585,562,554,596,598,554,565,581,
598,574,592,571,561,599,568,562,554,558,579,598,574,586,565,592,
557,588,589,581,578,598,598,581,572,589,554,555,589,585,568,579,
598,558,595,582,598,575,581,586,579,555,562,579,585,599,592,581,
598,572,574,582,592,557,564,575,581,578,582,565,581,558,574,598
</chunk>
   <chunk x="-864" y="160" width="16" height="16">
578,565,599,589,558,562,568,558,562,599,561,571,592,588,585,568,
568,571,561,578,561,579,562,557,588,554,562,568,564,598,554,582,
579,598,554,578,575,558,579,585,589,582,581,592,557,596,581,557,
571,568,555,585,568,595,599,599,595,571,589,555,554,565,568,598,
598,555,564,558,564,554,592,557,579,598,568,598,582,575,568,581,
588,598,574,571,589,586,555,599,565,568,588,575,558,589,575,588,
575,585,558,568,562,562,598,575,574,579,564,578,575,561,579,579,
562,599,582,575,575,589,596,565,571,561,586,592,585,595,571,558,
586,574,588,586,581,598,596,572,575,564,586,598,586,561,561,579,
574,578,561,595,581,586,558,575,586,599,596,572,579,575,571,586,
588,588,575,585,561,579,599,574,578,562,581,557,561,554,599,598,
572,585,595,558,574,595,598,581,554,571,589,562,575,572,595,588,
579,571,554,568,585,585,585,592,554,586,555,581,574,562,588,586,
554,596,575,574,581,599,562,582,568,599,586,575,579,557,572,596,
588,589,581,596,589,558,596,598,589,565,596,598,579,564,582,598,
592,555,558,557,565,558,558,561,598,561,561,578,558,557,581,575
</chunk>
   <chunk x="-848" y="160" width="16" height="16">
561,598,558,575,595,579,0,0,0,0,0,0,0,0,0,0,
579,562,561,586,558,562,0,0,0,0,0,0,0,0,0,0,
582,592,557,565,598,557,0,0,0,0,0,0,0,0,0,0,
562,589,571,568,595,598,0,0,0,0,0,0,0,0,0,0,
574,574,598,575,598,595,0,0,0,0,0,0,0,0,0,0,
555,557,565,581,564,596,0,0,0,0,0,0,0,0,0,0,
554,578,589,588,592,561,0,0,0,0,0,0,0,0,0,0,
554,562,555,586,581,554,0,0,0,0,0,0,0,0,0,0,
598,565,598,595,588,592,0,0,0,0,0,0,0,0,0,0,
588,564,555,568,586,581,0,0,0,0,0,0,0,0,0,0,
574,562,589,596,582,575,0,0,0,0,0,0,0,0,0,0,
585,595,586,579,568,585,0,0,0,0,0,0,0,0,0,0,
575,588,564,568,575,582,0,0,0,0,0,0,0,0,0,0,
561,561,586,574,578,592,0,0,0,0,0,0,0,0,0,0,
592,578,561,575,586,568,0,0,0,0,0,0,0,0,0,0,
586,582,582,561,579,565,0,0,0,0,0,0,0,0,0,0
</chunk>
   <chunk x="-1344" y="176" width="16" height="16">
0,0,0,0,562,561,585,558,578,595,555,561,596,562,554,575,
0,0,0,0,588,592,558,595,575,571,581,575,572,558,562,571,
0,0,0,0,586,579,588,588,575,588,571,588,555,562,598,571,
0,0,0,0,579,599,581,558,581,588,579,557,561,564,557,557,
0,0,0,0,571,588,585,554,555,575,571,568,565,565,585,579,
0,0,0,0,568,555,596,589,585,555,561,557,592,562,555,586,
0,0,0,0,598,571,582,579,599,562,599,589,599,568,554,557,
0,0,0,0,588,585,589,572,598,578,596,589,598,598,557,561,
0,0,0,0,572,592,564,585,582,558,582,565,598,588,561,585,
0,0,0,0,554,589,585,561,596,598,581,586,574,598,582,562,
0,0,0,0,582,585,595,581,565,596,561,595,554,575,565,588,
0,0,0,0,562,574,562,558,572,555,575,589,565,596,557,582,
0,0,0,0,578,564,561,554,599,585,564,595,586,582,575,579,
0,0,0,0,572,582,562,574,599,599,589,572,558,589,598,554,
0,0,0,0,574,562,598,589,562,562,585,565,575,572,562,578,
0,0,0,0,561,589,595,571,581,581,586,575,562,599,558,564
</chunk>
   <chunk x="-1328" y="176" width="16" height="16">
555,561,561,585,565,571,585,568,562,586,557,562,596,574,585,565,
598,555,572,599,596,562,582,572,585,575,589,575,582,571,595,568,
565,558,582,554,561,565,565,558,561,579,562,564,558,599,565,579,
578,568,595,558,558,564,574,561,596,598,561,564,572,572,578,557,
599,592,595,571,565,574,562,571,562,595,581,589,582,558,572,575,
592,562,578,565,562,585,582,574,555,579,588,599,581,588,564,572,
578,578,555,598,595,568,558,585,555,595,565,585,554,578,554,571,
568,598,585,561,568,595,585,588,565,571,571,582,575,562,554,558,
575,554,596,561,558,578,571,585,568,581,588,586,562,565,586,588,
561,554,557,558,585,561,554,579,599,595,562,589,557,579,562,596,
579,599,578,595,598,572,568,585,589,596,579,565,575,564,554,575,
589,564,575,592,588,561,599,555,582,585,575,575,568,586,582,595,
581,599,555,572,555,598,574,588,586,582,575,595,599,592,565,575,
581,558,598,586,592,561,568,585,554,599,568,592,578,599,596,557,
557,599,579,565,555,598,579,596,589,586,598,592,598,565,571,561,
561,558,564,581,588,574,562,568,578,579,562,575,589,574,575,598
</chunk>
   <chunk x="-1312" y="176" width="16" height="16">
557,574,571,568,599,558,571,579,578,568,562,578,581,561,554,557,
572,562,581,589,585,565,598,578,585,589,568,555,588,574,598,592,
588,555,558,578,598,571,575,589,578,561,581,574,578,578,589,581,
586,557,568,574,579,572,555,561,571,586,579,586,578,555,595,581,
561,592,592,599,575,571,582,586,571,599,554,571,564,589,575,568,
575,564,575,581,561,557,585,555,596,561,558,564,575,592,575,579,
589,561,575,589,585,562,586,585,571,586,562,599,579,564,555,586,
558,565,589,581,558,581,571,568,572,595,565,592,568,579,578,562,
592,564,562,561,565,575,599,579,555,581,598,555,595,585,589,575,
596,579,558,599,558,557,562,599,578,568,565,595,571,575,564,564,
561,599,586,589,562,589,586,571,555,592,599,575,565,575,581,565,
575,588,557,588,572,557,565,598,557,561,579,565,581,596,586,592,
565,565,571,592,586,561,582,574,564,579,572,574,581,579,555,599,
572,592,565,571,562,554,572,599,562,554,596,586,554,588,581,585,
586,557,578,561,579,585,599,581,575,592,564,574,589,595,586,588,
596,595,592,579,599,568,598,581,557,558,598,565,589,582,589,564
</chunk>
   <chunk x="-1296" y="176" width="16" height="16">
592,564,557,585,586,565,574,588,572,592,565,558,592,574,596,585,
598,581,574,562,585,555,581,555,574,557,596,598,571,598,586,575,
599,555,568,557,581,586,561,592,592,598,571,554,568,582,562,588,
571,557,579,554,574,581,558,558,589,568,555,581,585,564,586,598,
581,564,564,555,592,596,588,585,595,598,595,571,598,595,555,589,
571,554,579,575,561,572,561,589,599,596,562,589,574,558,571,585,
557,575,558,555,574,599,568,588,555,582,578,586,588,589,564,565,
575,565,572,579,585,572,565,582,555,565,581,571,582,598,592,585,
562,575,581,564,595,592,586,578,585,578,595,561,555,561,572,588,
596,599,586,596,554,592,562,588,599,578,564,571,558,579,568,585,
555,554,595,574,586,554,588,578,588,561,582,586,592,565,564,562,
555,555,598,564,581,562,595,582,571,574,595,554,589,557,562,572,
579,561,555,562,579,574,592,592,574,599,589,561,598,572,586,579,
582,578,568,598,592,562,588,575,589,554,579,554,562,592,572,571,
574,588,571,596,575,585,568,599,558,589,582,572,557,561,562,586,
581,564,589,574,586,561,586,598,564,557,554,588,578,578,568,582
</chunk>
   <chunk x="-1280" y="176" width="16" height="16">
579,585,558,596,561,574,582,586,572,574,595,558,561,557,571,585,
564,574,565,579,586,574,592,555,579,557,555,599,574,582,565,575,
554,596,575,582,581,561,557,575,558,599,572,572,572,558,581,592,
596,558,585,582,585,565,578,599,558,592,596,598,582,589,598,572,
568,586,554,585,562,582,555,568,571,578,555,558,558,586,555,575,
581,561,599,557,599,575,599,595,554,596,589,555,585,578,562,562,
588,598,554,578,558,575,554,561,582,562,585,582,581,562,595,588,
596,574,588,575,595,586,561,574,581,585,575,561,582,571,585,578,
586,565,582,592,575,586,592,588,592,595,599,555,586,557,568,592,
558,598,554,579,557,581,596,595,574,554,598,554,589,596,568,588,
582,561,555,592,581,557,581,579,579,588,585,565,598,572,574,568,
558,557,554,589,599,558,574,568,588,598,565,562,561,589,568,595,
571,575,596,565,558,586,574,581,555,574,588,555,574,585,598,564,
558,598,598,579,596,588,579,558,589,585,578,596,599,598,578,585,
565,572,585,562,588,589,579,574,565,565,595,585,596,561,598,564,
579,579,579,581,571,598,554,575,561,588,575,554,555,589,574,599
</chunk>
   <chunk x="-1264" y="176" width="16" height="16">
592,588,596,568,558,595,575,572,595,572,581,555,575,588,557,589,
598,595,558,555,565,562,575,575,557,575,595,572,586,598,558,571,
589,599,557,579,595,572,585,596,557,572,572,598,582,557,568,571,
592,586,565,562,575,586,588,579,579,561,596,557,581,578,561,574,
579,554,582,598,596,574,581,558,578,575,581,555,586,575,558,596,
564,574,588,596,585,575,555,568,565,586,558,564,596,564,575,595,
579,579,588,596,596,595,596,562,578,596,555,572,578,592,592,581,
582,564,585,558,578,585,592,581,557,592,572,572,599,579,557,598,
586,555,562,575,596,571,557,555,574,592,561,565,572,589,589,575,
585,558,568,579,561,575,579,555,595,599,565,595,564,595,558,598,
557,578,574,565,554,585,572,581,598,564,564,575,568,572,568,586,
596,579,568,564,558,595,574,592,579,596,561,589,596,568,568,579,
568,589,599,554,586,581,599,574,585,595,561,562,571,599,554,596,
589,575,564,589,557,561,586,598,595,581,595,565,557,574,592,578,
557,562,574,574,596,555,585,579,586,579,554,595,557,564,574,599,
585,568,558,562,592,596,582,562,558,588,557,588,571,555,558,581
</chunk>
   <chunk x="-1248" y="176" width="16" height="16">
592,571,585,554,564,555,565,586,599,578,562,557,561,574,598,572,
575,582,565,596,558,581,595,588,598,557,555,572,557,596,571,588,
598,575,575,588,575,599,557,592,586,571,557,592,585,564,596,579,
555,592,574,588,564,588,589,572,586,579,595,568,568,574,588,581,
588,585,598,571,588,586,561,578,582,596,595,555,565,562,599,554,
555,574,557,599,562,579,555,588,592,564,575,595,579,568,574,564,
574,589,568,599,557,575,554,571,571,571,585,582,571,582,596,579,
574,598,578,589,595,592,581,598,596,592,599,565,558,585,558,578,
585,564,578,595,579,595,555,578,596,585,562,586,572,585,565,599,
574,554,582,557,592,582,575,557,574,596,562,572,579,596,564,586,
592,592,568,585,571,575,568,586,586,578,598,596,564,565,582,589,
598,588,558,596,581,564,579,599,555,565,565,595,571,571,554,582,
564,585,575,578,565,564,589,568,582,565,596,578,595,557,561,555,
582,592,568,557,596,574,588,555,585,574,592,588,555,581,599,564,
555,578,555,557,557,588,557,578,568,585,568,571,562,589,562,564,
571,586,586,558,581,592,557,572,598,555,572,572,555,592,586,589
</chunk>
   <chunk x="-1232" y="176" width="16" height="16">
561,581,589,599,562,574,568,572,565,588,557,554,581,592,572,0,
565,585,558,554,564,554,595,585,557,554,564,564,558,582,572,0,
572,557,565,588,585,564,579,561,596,568,572,554,595,557,558,0,
555,572,595,579,586,579,571,562,581,554,562,596,595,561,572,0,
585,555,586,578,575,565,564,574,578,578,571,588,585,572,555,0,
585,557,568,578,596,572,578,555,599,581,579,565,574,575,579,0,
599,585,571,564,564,575,572,585,589,555,599,598,588,568,571,0,
572,581,564,598,554,562,557,555,555,564,574,565,579,581,564,0,
558,554,589,579,595,555,585,564,562,555,578,554,561,568,581,0,
586,595,575,568,592,572,574,572,574,568,582,578,568,557,588,0,
565,585,592,599,562,581,565,586,562,571,586,579,582,579,588,0,
558,558,578,592,578,585,558,568,592,558,579,582,588,562,578,0,
572,581,561,572,565,586,568,582,585,582,578,575,588,581,575,0,
564,581,581,562,586,575,578,557,564,562,592,582,564,565,564,0,
574,582,588,572,592,596,574,599,554,588,558,568,595,581,581,0,
561,572,557,599,586,562,557,565,555,572,599,599,558,574,557,0
</chunk>
   <chunk x="-1056" y="176" width="16" height="16">
0,0,0,0,0,0,0,572,592,581,599,554,582,599,596,572,
0,0,0,0,0,0,0,564,581,586,582,585,574,579,578,564,
0,0,0,0,0,0,0,592,598,595,586,554,571,565,598,592,
0,0,0,0,0,0,0,574,558,582,599,598,564,592,565,564,
0,0,0,0,0,0,0,564,598,598,596,557,578,557,565,562,
0,0,0,0,0,0,0,575,575,557,558,579,568,565,592,588,
0,0,0,0,0,0,0,557,579,574,598,574,582,568,578,564,
0,0,0,0,0,0,0,572,572,595,575,589,578,562,581,565,
0,0,0,0,0,0,0,585,586,572,561,564,564,568,598,564,
0,0,0,0,0,0,0,574,579,596,596,568,565,572,565,574,
0,0,0,0,0,0,0,579,574,555,592,565,582,555,599,588,
0,0,0,0,0,0,0,568,572,564,574,554,581,599,562,565,
0,0,0,0,0,0,0,555,557,568,561,554,561,598,568,586,
0,0,0,0,0,0,0,582,558,572,582,598,564,579,558,581,
0,0,0,0,0,0,0,595,582,589,596,588,561,589,585,595,
0,0,0,0,0,0,0,582,562,558,592,554,562,574,558,562
</chunk>
   <chunk x="-1040" y="176" width="16" height="16">
557,561,557,571,581,554,582,599,585,596,572,582,554,598,579,571,
568,595,561,555,592,592,596,572,588,557,562,575,564,568,581,558,
578,575,554,592,575,599,572,561,571,561,588,565,598,579,561,598,
586,562,555,582,555,557,582,557,561,555,582,582,595,598,558,595,
586,575,582,588,571,574,571,561,562,598,579,554,589,555,589,558,
575,555,558,585,574,565,582,592,554,581,578,554,578,575,575,578,
557,581,578,554,578,599,586,561,565,562,595,557,579,599,596,562,
582,572,582,598,561,581,592,558,579,598,554,568,564,561,578,596,
579,572,557,599,592,588,565,578,581,565,581,592,561,596,558,574,
578,588,561,558,564,578,562,595,565,568,578,565,586,588,557,557,
581,558,575,598,592,596,599,596,581,582,575,568,589,592,578,588,
592,572,599,581,579,596,561,554,598,575,596,581,565,572,588,589,
595,554,581,585,575,586,564,596,572,585,589,592,565,554,575,561,
581,598,554,581,561,568,572,579,585,599,585,557,562,582,596,596,
554,557,599,595,565,592,555,592,578,599,565,554,564,571,578,585,
589,558,588,585,595,555,572,578,589,561,585,561,586,582,579,599
</chunk>
   <chunk x="-1024" y="176" width="16" height="16">
582,599,555,588,564,564,564,572,589,588,585,557,588,599,572,555,
582,579,575,561,558,578,557,565,572,595,599,572,555,555,575,586,
575,579,582,575,596,581,571,571,555,574,596,579,561,572,555,554,
572,595,599,561,599,568,598,572,578,557,578,571,565,578,554,571,
562,598,592,564,581,596,558,579,595,586,572,582,565,564,561,558,
572,568,588,585,588,585,561,588,561,558,572,586,564,579,595,571,
575,598,598,581,588,592,565,579,562,568,595,595,564,592,589,562,
582,575,575,555,582,558,582,596,572,582,595,592,598,595,555,571,
578,595,554,564,554,555,571,596,595,599,589,579,565,574,561,585,
578,555,564,588,554,586,555,572,561,579,596,575,589,598,596,555,
582,555,558,572,586,568,558,572,579,564,574,571,588,557,586,555,
595,562,555,575,555,589,586,562,599,578,586,589,554,571,554,579,
586,588,568,578,562,554,585,588,562,596,582,572,586,599,588,581,
582,572,586,592,575,595,564,586,557,595,565,592,579,568,579,574,
562,598,571,585,564,562,579,579,598,596,592,598,557,586,571,575,
568,572,588,554,571,585,581,599,561,592,585,557,555,585,561,571
</chunk>
   <chunk x="-1008" y="176" width="16" height="16">
586,554,596,588,579,582,589,588,578,555,571,599,585,558,558,586,
565,596,596,579,598,578,557,565,579,585,562,565,596,561,578,589,
582,564,598,574,571,557,581,575,558,592,595,554,574,561,554,572,
561,598,578,589,581,596,557,588,582,592,579,572,589,582,568,581,
557,579,561,596,592,564,588,568,598,589,579,575,599,592,592,561,
589,595,564,568,565,596,571,586,564,568,586,554,571,564,555,554,
586,561,592,572,599,578,568,561,599,585,562,596,564,555,562,599,
575,575,595,562,564,574,568,592,598,582,588,571,588,579,598,592,
598,599,588,586,574,592,575,585,585,554,598,562,558,571,572,598,
596,561,585,599,555,589,571,555,581,592,574,568,558,578,596,554,
586,568,574,564,557,592,582,574,558,555,596,555,572,588,586,596,
579,599,562,598,574,571,586,585,579,558,571,596,557,554,554,574,
558,592,568,588,564,586,571,582,558,558,579,574,555,557,599,571,
595,568,555,578,579,579,557,575,586,585,554,562,592,585,582,599,
585,575,579,585,571,579,554,564,575,588,592,561,568,558,555,595,
592,558,579,578,554,561,565,568,599,586,561,565,578,588,565,598
</chunk>
   <chunk x="-992" y="176" width="16" height="16">
558,579,575,562,589,574,572,575,574,554,568,562,564,585,562,574,
555,564,581,554,574,589,586,581,592,586,578,598,557,575,565,571,
575,561,599,575,599,586,588,582,555,575,568,572,568,589,581,558,
554,555,578,599,581,561,555,592,557,557,599,599,582,595,578,598,
599,574,574,578,589,589,581,596,589,579,598,561,586,568,579,582,
562,581,562,599,581,581,557,557,598,595,555,579,592,571,557,571,
554,554,557,582,586,568,558,585,557,574,592,592,562,599,565,599,
595,575,595,561,557,598,581,598,582,589,578,589,574,555,596,558,
568,575,565,581,592,561,575,555,596,589,589,572,592,578,574,582,
571,599,572,578,598,574,582,575,565,598,554,574,589,595,564,564,
579,581,592,564,581,588,554,588,555,555,565,579,586,575,579,599,
554,581,588,555,592,557,572,554,586,571,588,572,592,568,562,571,
581,555,585,555,585,582,578,572,561,568,554,565,581,572,575,555,
555,572,585,568,568,574,595,598,592,558,568,586,562,565,565,557,
592,599,557,588,564,578,596,596,592,562,589,558,572,565,575,565,
555,568,571,571,571,555,592,578,581,572,564,555,588,561,561,598
</chunk>
   <chunk x="-976" y="176" width="16" height="16">
592,562,565,579,579,592,578,598,586,571,592,572,595,571,588,588,
562,596,589,565,585,565,557,582,598,562,596,595,557,589,557,561,
554,599,579,557,586,595,596,582,555,599,592,561,598,562,561,555,
596,562,561,571,572,598,564,588,596,561,599,582,588,558,586,555,
562,588,592,572,588,598,555,564,564,554,555,574,579,568,564,579,
586,579,582,571,571,586,579,557,564,562,596,555,564,555,579,555,
582,574,578,579,575,592,598,562,598,568,554,582,568,558,561,568,
565,585,599,579,568,561,557,561,564,578,599,565,557,598,589,589,
562,554,596,555,574,592,565,578,571,575,558,582,561,582,557,595,
557,595,582,562,586,575,579,581,599,565,585,596,592,589,558,578,
588,586,581,588,562,564,596,558,564,561,585,557,558,574,582,575,
598,596,588,572,578,554,586,585,585,581,562,596,596,585,557,589,
565,575,586,579,579,581,568,585,581,554,592,571,555,598,571,588,
586,565,558,568,596,592,568,564,571,557,581,579,578,558,557,574,
581,575,589,575,596,599,565,588,571,579,588,568,568,555,572,585,
574,582,565,557,574,557,572,579,574,581,571,592,568,565,599,582
</chunk>
   <chunk x="-960" y="176" width="16" height="16">
574,582,596,582,574,555,592,565,571,595,599,598,585,586,579,555,
578,561,572,578,574,595,585,562,582,575,589,568,557,579,599,586,
599,575,578,579,589,581,588,557,588,579,582,557,568,585,565,568,
599,599,578,564,578,582,579,586,599,555,598,595,568,585,564,574,
598,562,581,555,572,585,562,568,579,557,581,578,558,581,574,578,
589,568,598,588,557,572,575,579,572,572,586,585,572,561,581,572,
595,598,589,596,581,562,574,555,575,562,558,579,554,592,578,564,
565,592,598,592,558,579,565,589,578,581,588,586,574,574,592,557,
571,575,562,558,571,571,578,568,589,564,555,575,592,596,574,575,
595,554,592,572,592,599,589,585,595,578,598,581,582,557,582,555,
571,565,598,578,598,554,572,561,578,595,564,582,564,571,585,564,
555,589,568,595,595,581,565,557,588,575,589,581,596,598,571,592,
578,574,599,568,589,581,578,592,586,557,582,568,568,578,571,564,
568,565,557,582,589,581,581,554,555,599,586,565,571,585,579,585,
595,586,599,592,592,561,565,596,568,564,599,565,582,579,555,578,
581,562,581,564,561,585,575,596,599,562,596,586,585,582,585,555
</chunk>
   <chunk x="-944" y="176" width="16" height="16">
579,562,592,588,589,574,595,568,561,571,586,581,562,565,589,575,
555,572,568,582,585,555,554,599,599,564,592,554,568,596,585,575,
582,554,574,554,575,565,598,588,585,592,562,572,564,586,585,592,
582,582,582,568,578,571,582,586,555,561,575,564,582,557,592,588,
555,599,598,595,585,571,564,582,557,578,572,598,585,595,589,588,
588,564,557,554,596,561,582,571,581,571,572,588,574,565,574,572,
561,585,571,565,562,592,599,598,589,572,555,581,557,571,575,557,
568,557,561,596,554,562,588,557,562,595,582,564,564,578,586,595,
596,565,554,557,581,568,568,558,571,579,595,564,595,582,575,586,
596,581,574,596,554,575,582,599,588,595,572,582,565,571,568,578,
561,558,561,578,558,571,568,561,571,578,555,562,561,564,596,562,
592,562,568,562,575,574,554,558,595,599,589,581,571,592,592,558,
586,599,588,592,562,588,586,595,598,575,578,579,557,561,596,561,
596,568,599,589,592,564,572,561,558,585,555,598,588,555,588,579,
599,581,586,561,555,581,595,579,588,568,595,574,562,578,555,562,
557,588,558,572,568,564,598,579,598,572,557,581,572,598,588,565
</chunk>
   <chunk x="-928" y="176" width="16" height="16">
599,575,568,589,599,586,565,581,565,557,585,555,581,581,579,588,
574,578,562,586,565,561,562,554,564,561,564,579,557,582,598,555,
588,581,582,585,595,586,596,582,581,572,578,571,599,592,595,589,
555,575,589,555,579,558,579,558,564,582,562,585,588,571,562,564,
572,574,578,579,554,595,579,562,599,599,578,574,557,598,599,568,
586,595,592,575,564,598,599,589,562,564,581,578,555,574,562,561,
598,592,565,579,599,564,558,579,595,561,575,592,578,555,574,596,
571,565,571,595,581,565,578,598,599,582,575,575,595,558,581,564,
568,581,574,582,578,565,568,554,596,572,571,579,562,578,586,588,
578,585,555,579,564,564,585,571,582,599,582,582,564,565,562,579,
598,555,582,568,598,588,578,561,575,572,585,586,582,574,568,561,
585,586,568,588,554,571,555,565,554,595,588,558,578,565,578,572,
564,592,571,592,589,599,571,568,562,557,579,558,565,595,582,558,
592,572,585,575,555,554,596,581,568,585,554,592,589,588,589,588,
578,558,599,586,585,558,558,565,558,572,586,571,565,568,564,557,
596,564,561,557,565,599,592,555,571,561,592,568,579,599,599,557
</chunk>
   <chunk x="-912" y="176" width="16" height="16">
565,599,578,562,581,557,585,598,599,592,571,561,571,572,571,589,
564,572,558,558,595,575,595,565,588,589,578,589,582,554,557,554,
555,561,562,575,581,596,579,561,586,592,595,596,564,555,586,579,
572,579,572,588,575,558,579,595,585,554,557,589,595,592,579,558,
596,572,592,554,578,581,582,562,585,571,555,568,589,565,582,555,
574,555,586,564,555,574,592,557,589,561,598,578,555,585,589,588,
581,579,558,581,555,578,588,599,582,589,562,557,598,554,562,595,
578,562,558,595,579,592,582,562,568,571,571,562,586,554,557,592,
589,565,558,564,598,564,582,586,582,555,579,585,564,555,596,561,
554,592,579,558,557,568,558,571,586,579,588,568,561,595,568,568,
599,574,581,588,558,582,568,572,595,574,598,564,571,599,595,592,
585,588,596,585,572,579,571,565,564,581,572,589,572,598,599,592,
572,581,574,589,555,598,589,554,588,555,578,574,588,592,554,588,
585,599,578,562,564,564,572,585,554,565,574,575,589,562,575,564,
588,554,558,598,579,581,578,565,585,568,554,581,555,585,581,579,
574,592,572,571,575,599,592,574,579,575,574,571,581,571,575,582
</chunk>
   <chunk x="-896" y="176" width="16" height="16">
581,565,599,565,579,596,586,592,578,592,595,555,557,579,562,568,
585,571,555,598,595,595,588,562,564,589,561,555,589,571,568,588,
557,554,558,557,581,565,565,585,561,557,588,595,562,561,579,565,
554,596,557,578,555,564,562,579,562,578,596,555,574,562,595,561,
571,588,554,589,581,558,598,578,564,571,585,574,568,558,561,579,
554,565,562,581,595,581,571,562,581,554,554,581,582,572,568,595,
561,575,592,582,595,561,589,589,568,557,565,596,595,557,596,585,
575,581,574,557,572,596,555,578,574,595,572,564,571,558,574,565,
572,586,582,588,561,596,586,555,595,564,564,558,585,588,562,596,
557,565,578,571,565,581,585,574,557,595,562,578,575,574,582,586,
598,582,572,565,579,592,562,586,564,558,589,578,562,571,555,575,
557,561,562,568,572,582,574,595,574,562,562,561,558,585,575,599,
579,581,561,592,592,596,575,592,582,558,555,575,592,585,562,595,
568,561,595,596,596,554,586,595,554,554,589,586,561,579,588,588,
586,558,571,581,582,564,596,568,572,599,582,575,595,571,561,581,
586,575,582,585,565,564,571,562,579,564,562,596,582,575,564,555
</chunk>
   <chunk x="-880" y="176" width="16" height="16">
575,564,598,592,579,588,574,588,562,565,578,588,564,598,561,586,
578,575,561,599,589,599,555,554,557,564,588,599,596,562,578,596,
561,582,582,558,562,571,568,589,589,578,557,572,565,578,565,561,
578,574,598,589,562,585,595,599,588,596,588,578,578,575,589,586,
568,572,579,585,582,586,557,558,561,557,578,588,598,562,555,588,
561,561,582,585,596,557,575,578,581,564,574,578,565,592,572,568,
585,555,554,581,555,585,595,581,595,582,564,586,592,585,564,598,
568,564,572,562,571,598,592,571,565,561,561,592,564,581,596,562,
558,574,588,595,585,592,592,579,558,555,586,578,581,599,565,561,
585,558,568,595,557,578,592,585,562,564,568,598,592,598,565,581,
596,588,585,582,579,572,578,599,581,578,581,592,588,595,586,581,
598,558,586,564,599,585,554,555,565,592,564,582,554,561,564,595,
588,562,596,574,571,562,585,578,574,574,589,575,599,554,564,557,
585,568,598,588,572,571,581,599,582,574,595,557,572,595,595,599,
586,582,598,562,592,578,589,582,588,581,596,565,572,562,574,592,
596,592,588,586,588,582,565,586,572,561,575,581,578,572,572,568
</chunk>
   <chunk x="-864" y="176" width="16" height="16">
575,554,599,572,575,555,582,589,585,599,564,575,568,581,588,572,
599,555,565,598,586,557,574,571,589,588,571,554,557,588,555,568,
598,578,568,568,568,598,599,595,564,592,557,575,571,557,579,568,
571,561,586,596,574,572,568,561,592,554,582,575,574,572,578,562,
581,562,595,557,595,578,575,586,585,592,575,562,578,561,599,554,
596,592,598,555,599,588,575,572,574,599,599,586,561,595,555,595,
557,557,581,558,562,555,579,579,574,595,557,585,579,589,557,555,
586,572,572,598,585,579,555,568,581,575,585,595,575,588,585,565,
581,579,571,596,572,598,554,588,595,585,568,562,582,555,598,564,
557,578,592,568,561,565,596,571,579,581,557,575,555,586,557,564,
599,554,564,588,598,589,561,592,585,555,565,554,596,565,581,599,
588,578,592,557,575,596,558,568,561,557,558,599,562,579,589,557,
575,571,595,585,557,574,564,571,557,562,578,565,592,589,568,571,
598,572,599,585,557,554,581,582,592,599,554,555,592,555,595,595,
579,586,582,555,557,565,589,599,565,561,595,572,557,585,585,585,
571,565,574,554,555,585,589,586,579,582,568,561,581,599,599,598
</chunk>
   <chunk x="-848" y="176" width="16" height="16">
595,596,579,599,586,578,0,0,0,0,0,0,0,0,0,0,
572,592,585,595,555,571,0,0,0,0,0,0,0,0,0,0,
575,555,579,579,561,564,0,0,0,0,0,0,0,0,0,0,
595,589,579,585,568,555,0,0,0,0,0,0,0,0,0,0,
568,565,585,579,588,568,0,0,0,0,0,0,0,0,0,0,
595,564,558,555,599,592,0,0,0,0,0,0,0,0,0,0,
578,588,596,561,579,565,0,0,0,0,0,0,0,0,0,0,
586,582,557,575,574,568,0,0,0,0,0,0,0,0,0,0,
589,555,574,574,599,575,0,0,0,0,0,0,0,0,0,0,
581,564,589,581,585,565,0,0,0,0,0,0,0,0,0,0,
581,572,575,565,555,575,0,0,0,0,0,0,0,0,0,0,
562,554,588,585,555,557,0,0,0,0,0,0,0,0,0,0,
571,598,574,558,561,562,0,0,0,0,0,0,0,0,0,0,
557,589,565,595,557,588,0,0,0,0,0,0,0,0,0,0,
572,588,564,596,582,589,0,0,0,0,0,0,0,0,0,0,
565,572,554,588,588,557,0,0,0,0,0,0,0,0,0,0
</chunk>
   <chunk x="-1344" y="192" width="16" height="16">
0,0,0,0,585,572,554,568,575,561,561,579,578,599,596,579,
0,0,0,0,0,0,565,578,579,592,598,596,588,564,565,581,
0,0,0,0,0,0,598,599,586,592,557,561,579,558,562,554,
0,0,0,0,0,0,571,598,595,557,562,589,568,586,588,572,
0,0,0,0,0,0,561,564,561,582,575,557,592,589,565,598,
0,0,0,0,0,0,586,585,557,562,572,568,564,596,564,571,
0,0,0,0,0,0,595,598,578,574,582,561,572,557,595,599,
0,0,0,0,0,0,595,592,555,571,575,595,596,579,562,585,
0,0,0,0,0,0,568,572,582,579,595,589,554,565,574,555,
0,0,0,0,0,0,578,558,588,575,562,564,578,574,598,592,
0,0,0,0,0,0,585,561,582,579,572,578,588,592,562,595,
0,0,0,0,0,0,579,586,595,572,582,599,558,562,578,574,
0,0,0,0,0,0,565,565,581,579,592,574,592,578,565,557,
0,0,0,0,0,0,581,598,564,588,575,599,578,588,598,562,
0,0,0,0,0,0,562,596,575,565,588,582,562,582,589,557,
0,0,0,0,0,0,592,574,575,596,574,595,585,572,555,561
</chunk>
   <chunk x="-1328" y="192" width="16" height="16">
585,575,581,565,578,572,557,579,561,588,572,557,592,558,564,598,
579,571,595,588,579,599,565,579,585,596,585,588,588,589,568,599,
596,557,579,595,595,558,562,568,579,561,574,592,589,598,554,581,
582,574,571,581,582,568,568,595,575,574,585,554,585,589,582,596,
564,589,574,574,561,561,592,598,585,574,554,586,568,564,571,589,
575,564,581,595,565,589,571,579,572,581,579,588,579,554,568,564,
565,582,557,589,595,568,586,582,595,589,592,592,565,555,598,585,
555,557,579,596,562,568,598,582,586,592,557,599,561,568,572,588,
574,574,579,557,565,579,571,581,588,598,595,581,585,596,582,555,
598,589,581,572,596,588,564,557,574,568,585,598,596,568,564,595,
595,588,571,585,562,585,564,595,572,562,589,561,558,555,561,568,
581,562,586,599,557,579,571,562,557,564,564,575,558,581,599,554,
572,596,578,579,561,574,592,595,599,572,578,596,555,595,599,579,
592,558,561,572,595,599,561,589,595,554,585,557,558,575,598,574,
579,574,582,592,564,582,557,582,592,588,599,586,564,562,585,598,
554,598,596,579,578,564,561,578,575,555,571,571,581,596,564,561
</chunk>
   <chunk x="-1312" y="192" width="16" height="16">
589,574,574,568,585,555,592,579,575,581,581,596,586,575,564,562,
564,578,592,557,554,586,565,595,578,582,561,568,571,574,585,558,
578,561,557,557,598,562,562,554,561,561,554,595,575,564,581,599,
589,557,572,572,574,557,565,554,582,588,574,571,571,575,588,572,
588,578,599,592,586,561,554,572,596,578,568,581,568,599,588,595,
586,596,578,598,592,575,596,562,574,572,558,571,565,562,586,564,
586,565,595,588,578,568,579,581,572,595,574,589,595,557,564,568,
579,562,586,555,572,585,562,572,588,558,558,595,589,592,562,596,
575,595,558,568,568,562,585,581,586,575,554,564,554,561,585,592,
592,562,554,574,565,568,565,588,571,589,596,599,561,554,565,578,
599,561,564,561,596,599,585,554,564,575,595,595,565,564,595,562,
585,588,588,581,595,595,596,595,578,574,589,571,579,554,585,588,
574,578,558,596,578,568,598,557,565,565,596,555,586,578,568,562,
588,582,586,595,589,575,562,585,554,582,564,598,574,554,581,555,
588,596,596,572,588,555,561,582,557,588,568,557,578,589,588,598,
572,581,579,568,557,557,581,586,555,575,596,572,554,598,555,557
</chunk>
   <chunk x="-1296" y="192" width="16" height="16">
565,592,589,585,564,564,568,572,595,595,562,562,562,585,557,554,
572,599,588,586,589,596,555,586,579,575,578,578,561,589,565,571,
565,586,555,579,554,585,578,586,562,579,557,565,564,572,571,564,
582,582,585,554,561,558,565,568,558,588,589,564,596,574,585,588,
555,585,558,595,562,578,595,564,582,572,554,554,581,582,557,555,
592,554,572,582,579,588,588,592,575,564,557,571,589,571,572,595,
585,555,596,555,562,586,562,564,589,561,562,582,588,588,565,557,
586,557,554,578,558,572,592,571,598,557,565,592,554,564,586,585,
568,555,554,599,582,595,579,562,585,581,578,596,579,565,574,578,
574,571,579,595,555,582,574,598,589,554,565,558,599,585,554,557,
574,595,572,574,557,564,581,568,572,558,575,582,578,592,557,572,
592,564,586,598,571,554,564,579,586,565,568,598,595,565,579,585,
571,564,599,579,582,575,598,589,586,578,562,554,586,574,581,572,
557,555,581,596,558,562,561,568,586,571,585,564,598,554,568,561,
561,599,574,572,571,558,557,598,554,565,599,554,598,589,558,592,
585,598,555,589,574,554,557,565,581,585,574,592,558,596,574,578
</chunk>
   <chunk x="-1280" y="192" width="16" height="16">
575,581,564,561,581,595,585,558,562,564,558,572,555,588,599,574,
581,554,579,564,572,561,589,589,557,575,599,574,581,558,595,582,
581,554,598,558,586,595,592,571,588,595,579,588,598,565,572,562,
599,579,562,579,599,554,581,582,585,555,592,581,562,568,595,595,
554,557,581,557,574,585,589,599,579,561,561,596,557,588,557,562,
557,574,571,561,586,554,558,565,595,562,562,598,579,598,578,557,
572,558,585,581,588,589,581,568,554,582,579,578,582,568,598,588,
579,562,596,561,557,562,588,564,589,588,588,575,561,574,579,588,
596,582,589,595,572,572,571,592,585,568,558,575,579,572,562,585,
571,596,586,568,568,578,561,562,575,598,592,558,575,589,595,578,
571,585,555,554,578,574,571,586,589,581,564,565,564,579,554,586,
568,557,555,574,557,558,595,598,598,588,598,579,562,574,572,555,
592,588,558,588,586,596,595,596,568,558,564,557,581,571,575,571,
561,588,572,562,598,585,558,588,578,589,581,582,557,572,571,571,
578,558,589,596,585,565,555,562,561,568,588,582,578,589,585,568,
589,554,572,558,598,588,581,555,578,588,575,575,557,582,562,568
</chunk>
   <chunk x="-1264" y="192" width="16" height="16">
557,598,579,564,565,555,582,562,572,582,581,579,599,574,598,595,
557,561,561,555,586,588,558,554,555,555,581,589,581,586,565,598,
592,588,579,562,572,568,582,582,554,555,589,554,595,574,592,589,
564,598,578,579,555,582,579,581,568,557,562,558,589,589,598,596,
578,586,595,558,592,555,578,575,558,578,554,588,572,589,581,562,
596,598,554,582,572,564,596,554,585,599,565,557,562,575,554,588,
592,555,557,565,562,578,555,581,558,568,592,561,571,557,579,562,
588,562,555,561,568,568,562,568,574,579,568,558,564,574,599,581,
557,555,585,571,595,574,595,579,571,574,561,572,568,574,558,585,
586,595,582,565,575,588,565,575,585,582,588,582,571,586,561,599,
561,565,579,582,562,565,564,588,599,598,582,575,585,589,586,586,
581,596,579,596,586,554,562,564,581,596,554,565,579,558,589,555,
578,574,596,599,562,581,565,578,585,581,582,585,599,557,589,588,
575,581,554,592,574,596,554,599,599,579,585,571,565,582,564,578,
562,557,579,564,558,599,555,568,554,598,578,578,578,582,554,588,
575,574,555,595,589,595,554,596,585,588,554,572,586,582,574,568
</chunk>
   <chunk x="-1248" y="192" width="16" height="16">
592,568,558,568,598,599,565,565,568,579,585,575,586,557,579,561,
585,588,562,596,572,564,578,574,555,558,565,582,561,564,598,599,
589,571,564,568,579,579,564,572,554,554,578,554,572,589,598,595,
589,595,565,592,586,581,562,558,586,592,592,599,578,592,574,586,
571,582,557,599,574,558,561,592,596,572,596,555,585,565,561,599,
558,579,568,574,589,564,571,579,595,592,572,581,555,558,589,558,
568,558,575,581,595,574,561,562,586,572,582,596,568,575,561,554,
595,564,598,598,564,562,564,579,555,575,596,555,599,579,586,574,
592,588,589,571,581,588,578,581,568,565,595,575,586,568,589,572,
588,595,598,582,586,588,564,554,555,578,571,581,595,561,554,588,
582,575,578,582,596,582,581,592,575,574,585,564,558,586,554,595,
564,596,599,586,554,595,558,599,586,582,592,599,578,579,558,599,
572,578,564,598,565,578,599,564,571,585,585,568,578,558,578,561,
592,565,558,558,592,572,585,582,565,558,565,568,581,572,558,588,
581,554,575,557,574,579,561,555,565,572,599,579,565,555,582,579,
575,599,564,596,555,586,581,592,557,568,572,595,582,572,596,564
</chunk>
   <chunk x="-1232" y="192" width="16" height="16">
568,581,562,561,555,599,564,565,595,562,585,572,595,596,588,582,
565,562,596,588,571,582,578,561,565,572,585,568,595,589,575,571,
554,592,589,555,574,562,558,596,599,572,592,598,565,571,564,581,
555,554,592,558,589,561,555,557,596,599,554,575,598,595,574,586,
578,595,589,572,555,586,554,596,596,578,562,565,568,598,579,561,
589,575,571,565,589,568,599,592,581,596,561,581,585,599,575,565,
574,592,562,571,599,578,582,571,599,564,578,558,554,589,554,582,
598,578,568,586,557,555,589,568,564,555,557,595,575,561,595,561,
582,596,561,571,555,558,585,582,568,586,578,562,578,592,565,564,
581,586,568,565,586,565,562,561,582,595,572,582,588,568,579,574,
592,574,582,575,568,595,589,555,596,596,589,596,557,564,598,558,
579,558,557,575,565,581,571,558,568,579,568,575,589,596,564,589,
562,588,565,561,582,592,571,596,595,592,568,571,581,557,554,588,
579,572,588,581,585,555,588,588,564,565,586,581,571,585,561,599,
578,574,558,568,564,574,579,586,589,588,555,578,555,575,575,592,
558,582,571,585,578,592,558,562,586,554,564,596,557,599,557,585
</chunk>
   <chunk x="-1056" y="192" width="16" height="16">
0,0,0,0,0,0,0,558,588,595,578,581,585,589,557,571,
0,0,0,0,0,0,0,571,571,557,561,595,557,581,589,581,
0,0,0,0,0,0,0,581,558,568,581,561,578,571,568,565,
0,0,0,0,0,0,0,589,596,558,561,598,578,586,581,562,
0,0,0,0,0,0,0,571,564,574,574,572,599,565,586,579,
0,0,0,0,0,0,0,588,599,589,557,585,581,568,565,562,
0,0,0,0,0,0,0,561,565,598,592,554,586,598,578,592,
0,0,0,0,0,0,0,575,592,574,555,557,568,596,572,572,
0,0,0,0,0,0,0,554,589,588,581,586,582,572,596,586,
0,0,0,0,0,0,0,565,599,589,586,599,574,575,579,585,
0,0,0,0,0,0,0,575,595,588,599,582,558,596,599,562,
0,0,0,0,0,0,0,557,582,579,585,575,575,586,581,589,
0,0,0,0,0,0,0,575,582,595,585,571,571,564,592,572,
0,0,0,0,0,0,0,578,558,574,598,575,586,586,598,579,
0,0,0,0,0,0,0,585,565,579,588,572,565,596,588,589,
0,0,0,0,0,0,0,578,585,575,568,592,562,568,588,592
</chunk>
   <chunk x="-1040" y="192" width="16" height="16">
579,598,599,596,565,598,574,596,568,578,562,592,596,585,585,571,
568,557,585,575,592,572,582,558,598,598,564,574,562,575,574,586,
555,598,582,578,571,575,585,572,589,561,588,596,562,582,585,557,
575,582,568,575,561,589,586,562,578,596,575,579,571,595,572,578,
575,599,568,557,585,585,581,581,596,585,589,574,589,581,595,588,
558,595,588,557,568,592,582,575,562,582,575,564,554,586,575,595,
588,557,596,568,599,589,589,585,572,568,565,589,578,565,562,558,
578,564,568,572,557,582,589,586,585,599,586,562,581,575,579,564,
554,599,586,588,596,564,557,585,595,571,581,555,554,598,561,582,
596,571,558,578,581,561,579,571,558,578,554,575,586,581,575,586,
574,581,571,586,598,595,586,572,564,592,596,574,561,572,571,578,
555,561,581,565,579,571,558,581,595,596,571,564,562,565,562,595,
561,555,588,598,578,574,557,581,561,582,558,557,564,575,582,562,
586,565,564,557,581,585,582,564,588,599,572,555,585,598,585,582,
585,554,571,555,557,599,571,574,564,598,596,599,571,558,574,596,
598,562,574,578,586,564,558,581,572,557,575,588,585,554,575,578
</chunk>
   <chunk x="-1024" y="192" width="16" height="16">
598,578,571,572,599,598,579,581,585,592,589,571,581,571,575,565,
592,598,554,588,554,554,562,571,557,596,585,562,574,565,581,564,
592,599,555,571,565,568,558,554,581,558,578,574,572,572,586,565,
589,562,564,558,585,575,554,572,575,562,581,595,575,571,554,564,
565,581,568,575,574,572,554,588,568,562,588,578,571,598,599,589,
579,557,565,555,592,592,579,579,561,568,574,562,596,582,586,595,
592,595,586,561,586,568,596,579,579,558,564,574,565,565,571,588,
555,596,555,579,562,588,555,585,592,592,554,572,555,586,562,572,
557,564,588,585,555,578,557,564,582,575,586,579,565,561,575,579,
592,579,599,586,575,586,568,598,575,554,595,592,572,585,572,581,
572,565,572,571,557,595,557,588,562,557,561,568,557,554,575,568,
582,589,579,565,558,578,562,571,588,589,578,557,578,592,568,589,
574,571,582,579,592,575,598,588,555,581,575,581,575,575,571,579,
592,574,557,589,595,598,589,558,555,581,574,578,599,555,596,571,
578,571,561,579,582,562,582,582,582,575,582,592,565,598,588,572,
586,575,579,582,558,572,592,581,561,579,578,586,555,588,557,575
</chunk>
   <chunk x="-1008" y="192" width="16" height="16">
585,596,575,572,557,564,564,592,574,596,581,599,592,557,562,582,
599,595,565,575,555,586,562,596,596,571,581,598,554,592,557,561,
568,562,555,574,571,562,578,579,565,558,595,599,586,555,585,564,
568,589,596,582,589,575,555,585,592,575,562,575,595,589,557,579,
586,592,574,588,588,575,592,561,561,555,585,571,586,555,596,578,
564,592,561,598,574,581,582,554,589,578,592,558,564,598,565,592,
572,555,581,557,564,578,595,582,561,575,588,578,565,574,598,589,
574,581,581,562,589,585,568,598,589,596,555,565,592,572,586,558,
561,562,589,581,589,572,581,555,564,588,555,579,572,565,588,579,
578,572,574,598,565,575,581,592,578,581,578,598,562,558,579,555,
557,568,558,575,562,568,557,588,557,588,574,578,595,565,575,582,
575,586,565,557,564,578,582,585,562,561,592,588,568,579,554,557,
568,554,596,575,562,575,572,557,589,596,579,555,588,585,558,595,
599,598,555,589,586,586,574,588,557,564,565,598,564,599,568,554,
578,592,565,595,564,592,565,571,562,568,555,595,557,592,564,554,
582,564,565,562,564,581,568,598,598,555,595,598,579,568,579,578
</chunk>
   <chunk x="-992" y="192" width="16" height="16">
588,561,557,596,568,571,589,557,578,557,568,588,599,571,588,555,
558,557,568,564,596,561,568,581,562,598,561,561,586,599,554,575,
596,571,598,586,565,586,575,565,582,598,582,592,568,599,585,588,
581,581,579,558,599,565,574,586,598,572,581,565,565,561,598,561,
571,557,557,561,564,588,586,564,557,579,565,572,561,572,568,561,
595,568,578,599,564,598,592,568,554,571,585,581,562,572,562,581,
595,578,598,554,595,578,586,588,561,596,592,579,561,589,571,568,
586,555,582,581,562,568,564,562,586,565,561,579,554,578,572,558,
554,568,581,588,585,558,568,582,557,589,579,562,595,554,586,592,
574,575,558,596,572,599,585,568,565,571,589,572,568,555,586,586,
586,565,572,572,595,578,599,592,564,574,596,557,585,586,557,581,
561,575,571,554,564,574,565,579,579,588,574,571,571,574,564,592,
578,565,586,595,561,568,555,592,579,595,557,596,557,574,592,599,
554,598,596,595,568,586,562,598,555,572,588,557,575,581,575,578,
574,582,565,596,599,599,592,575,568,578,571,564,595,571,555,575,
555,586,561,588,571,581,571,586,564,599,565,554,599,586,578,588
</chunk>
   <chunk x="-976" y="192" width="16" height="16">
592,561,571,574,589,588,572,589,589,575,574,579,581,575,579,574,
564,562,588,592,598,582,598,572,561,599,561,588,589,571,592,554,
581,586,557,557,599,561,585,595,578,574,586,554,557,589,596,579,
565,568,568,588,578,586,558,561,595,557,596,557,589,579,578,588,
585,575,571,582,562,579,578,592,579,582,568,568,572,574,585,562,
561,575,596,596,586,564,572,575,555,574,555,579,585,585,558,572,
578,564,562,598,598,557,568,585,554,585,571,574,599,575,572,586,
585,574,561,578,574,589,581,586,565,596,581,589,561,555,561,596,
558,574,596,561,557,588,579,599,562,568,557,592,562,572,599,588,
582,561,582,581,574,595,572,571,571,598,562,595,581,581,585,585,
572,555,564,555,585,578,581,554,596,568,599,586,581,574,578,568,
578,588,588,588,585,555,581,588,554,585,554,579,588,558,578,557,
574,574,598,579,589,561,562,574,557,598,599,568,568,592,555,586,
592,581,581,585,585,564,586,589,555,599,557,599,558,585,579,571,
571,562,586,579,564,581,582,579,561,557,555,561,558,585,572,595,
574,557,558,578,565,588,588,582,557,585,574,579,586,579,595,585
</chunk>
   <chunk x="-960" y="192" width="16" height="16">
581,575,565,568,598,568,589,562,579,558,562,555,575,571,575,579,
585,565,582,595,582,586,595,555,554,572,554,578,589,579,595,568,
555,555,568,582,575,578,595,561,562,581,589,578,557,571,579,592,
554,586,575,555,554,568,571,595,575,554,575,564,564,555,562,579,
561,598,599,565,579,596,562,586,562,598,598,598,585,581,582,555,
568,592,554,586,586,589,589,554,561,586,564,574,585,588,585,585,
562,599,589,598,598,575,557,599,579,586,598,581,564,581,558,571,
586,581,581,574,592,564,568,596,596,596,557,575,599,578,558,598,
589,565,586,557,588,598,568,554,579,574,581,585,582,574,568,562,
598,554,574,598,558,589,578,581,599,599,555,595,561,555,555,582,
598,595,555,586,568,599,558,557,555,561,554,558,592,565,595,582,
579,598,579,598,598,581,562,589,586,598,568,585,554,564,586,578,
586,558,575,579,557,564,557,568,599,555,589,589,599,562,561,581,
592,596,554,564,557,596,595,585,564,575,554,568,554,562,579,595,
575,588,572,575,588,589,586,574,572,568,571,561,592,558,581,585,
592,598,592,582,598,589,582,586,588,578,571,578,554,562,585,555
</chunk>
   <chunk x="-944" y="192" width="16" height="16">
561,562,598,554,589,586,596,575,574,571,558,595,574,579,588,568,
562,586,585,599,579,572,585,554,575,572,596,572,596,554,578,557,
571,579,586,582,578,568,586,574,592,598,588,582,579,568,586,557,
555,586,595,599,581,554,582,571,574,564,561,558,575,574,599,568,
574,555,588,575,554,598,565,595,582,589,578,585,562,578,572,592,
574,582,578,582,582,599,565,582,572,571,558,582,589,599,578,574,
585,571,579,562,568,596,572,598,585,557,588,586,562,572,585,561,
588,579,561,579,555,579,578,555,581,557,585,557,571,589,555,598,
554,595,575,588,585,595,589,555,585,572,589,586,596,565,555,592,
572,581,582,579,582,575,575,599,578,571,555,585,599,575,578,565,
575,582,564,561,575,578,554,565,589,565,574,565,575,589,582,582,
585,581,561,571,596,565,565,581,596,554,557,565,574,582,557,598,
588,585,589,571,598,554,598,554,592,585,588,575,598,572,571,581,
589,585,554,592,565,578,598,558,554,578,554,565,572,572,579,585,
585,565,554,598,564,562,588,574,571,564,568,596,568,565,568,585,
561,555,571,575,578,595,555,557,595,574,565,568,555,574,574,586
</chunk>
   <chunk x="-928" y="192" width="16" height="16">
586,596,571,565,582,568,572,575,564,564,565,571,574,589,596,561,
578,585,595,555,565,562,574,595,554,562,598,572,586,595,575,568,
592,575,562,572,555,599,572,579,565,596,568,599,565,562,596,589,
564,592,554,574,565,578,599,558,598,554,565,565,558,599,558,572,
565,557,589,574,561,571,589,554,595,568,578,581,589,596,568,599,
592,575,574,578,574,582,598,579,574,568,564,561,574,599,588,598,
564,581,557,557,575,564,575,582,599,588,581,554,571,575,598,581,
554,562,572,555,575,574,589,562,582,599,574,555,582,592,588,599,
592,598,575,585,564,557,596,555,554,561,568,586,589,562,554,568,
562,598,564,582,554,554,599,589,562,561,578,588,592,579,561,557,
596,595,589,585,568,571,558,581,557,555,571,562,596,588,598,595,
588,589,565,574,568,554,572,575,586,574,581,579,586,582,564,588,
596,578,558,575,582,571,561,571,557,596,562,575,555,574,558,599,
561,592,554,557,574,572,586,555,557,596,592,565,564,586,588,562,
595,579,555,571,571,586,598,574,564,585,562,555,564,588,589,571,
561,575,582,581,579,599,565,599,598,564,588,558,599,557,595,595
</chunk>
   <chunk x="-912" y="192" width="16" height="16">
555,598,581,592,562,574,585,562,595,595,596,588,579,571,582,574,
571,554,581,564,595,596,557,562,565,586,579,579,562,565,589,558,
574,599,564,554,599,554,589,582,571,575,561,554,572,589,564,578,
558,561,557,581,592,579,581,581,571,598,585,555,585,574,579,565,
585,598,596,598,565,558,592,589,579,586,574,565,598,572,599,596,
558,557,578,561,575,589,558,568,562,568,578,589,574,579,557,588,
585,589,596,557,585,554,581,589,562,564,554,558,564,558,582,579,
565,575,557,554,592,596,571,579,586,579,598,585,562,555,574,588,
572,568,592,564,581,558,561,568,588,571,581,557,562,561,589,598,
555,558,564,592,579,555,561,554,586,589,599,585,581,564,568,592,
575,561,554,581,595,599,554,557,575,588,579,571,581,581,558,571,
585,599,568,598,575,578,581,564,582,568,564,555,564,578,598,582,
564,598,599,578,586,595,575,598,571,585,586,581,555,589,596,598,
592,575,598,575,571,564,578,557,554,562,557,554,599,562,557,575,
578,578,592,589,581,571,568,557,578,562,599,565,554,579,564,579,
596,571,585,564,565,564,558,568,558,562,572,554,598,586,575,564
</chunk>
   <chunk x="-896" y="192" width="16" height="16">
554,585,586,585,589,586,579,585,582,588,558,598,572,561,578,579,
571,575,578,596,585,558,574,575,561,581,564,568,596,561,599,554,
571,586,574,562,595,579,572,589,558,579,582,574,572,595,586,599,
574,572,574,575,586,562,586,565,554,557,554,571,557,554,588,578,
562,564,568,555,595,554,579,572,561,554,555,564,598,589,578,572,
572,557,586,554,568,574,565,572,568,564,589,571,571,554,598,592,
565,565,589,555,572,571,562,598,555,578,598,578,585,572,585,579,
579,598,562,582,572,585,592,575,589,555,554,582,598,585,586,585,
581,572,561,596,557,572,572,568,562,598,558,599,562,579,585,579,
598,555,558,589,558,575,555,595,568,575,568,565,578,565,574,592,
555,585,595,595,557,588,562,589,581,572,585,564,599,568,564,562,
575,581,561,581,578,582,589,596,562,588,572,557,561,564,598,564,
581,596,574,581,578,557,589,562,554,574,599,568,565,557,555,592,
557,558,557,565,574,578,596,555,579,592,581,599,596,557,574,588,
574,598,578,555,564,574,588,578,562,581,599,564,578,564,596,598,
571,599,586,582,555,589,596,592,561,558,572,554,554,596,571,554
</chunk>
   <chunk x="-880" y="192" width="16" height="16">
585,596,571,575,555,578,592,588,571,554,588,592,592,558,578,586,
564,568,582,582,555,596,588,561,554,562,557,575,578,586,595,564,
561,561,565,557,574,562,589,588,562,579,562,564,555,562,588,555,
572,564,562,565,585,574,592,572,568,574,585,568,554,572,585,558,
554,575,596,578,595,582,595,572,585,568,596,582,596,562,585,564,
575,599,557,554,572,561,565,555,558,592,592,557,585,598,555,571,
599,562,555,574,581,574,589,562,568,592,592,595,571,554,568,572,
557,578,578,592,571,561,555,555,561,572,595,561,589,562,578,564,
565,598,575,565,592,555,599,579,561,598,592,589,561,579,568,581,
568,558,579,558,575,598,582,578,579,562,572,572,564,589,578,571,
565,598,565,554,588,561,586,595,572,598,582,578,586,572,578,554,
565,589,574,557,572,564,581,589,555,595,578,579,557,562,582,582,
554,589,571,579,585,557,588,571,588,558,562,592,572,561,565,578,
575,579,565,571,588,557,598,568,589,582,572,571,554,582,598,555,
558,557,598,575,582,599,586,568,561,574,578,588,572,589,582,598,
571,599,589,571,599,595,572,571,565,578,574,595,592,575,565,558
</chunk>
   <chunk x="-864" y="192" width="16" height="16">
558,575,595,592,561,561,554,574,589,598,596,555,557,571,585,592,
554,555,565,599,561,557,592,578,578,598,579,589,578,562,571,598,
578,555,565,555,596,599,598,572,592,558,578,582,565,598,581,588,
579,558,558,596,581,582,575,599,564,575,592,568,582,598,561,592,
588,564,554,558,557,589,599,586,575,574,588,574,582,565,558,557,
571,558,598,557,581,571,586,585,586,568,592,586,586,554,568,568,
558,568,565,575,558,595,598,595,574,558,571,579,571,568,585,571,
568,598,595,585,578,592,589,579,592,572,595,595,585,558,568,574,
568,589,555,598,586,599,596,568,589,595,579,589,557,579,571,586,
558,596,579,585,555,565,561,592,557,571,582,598,562,598,574,579,
575,557,595,554,565,562,564,564,595,581,574,557,598,572,598,554,
588,586,578,554,554,585,592,565,582,599,582,589,581,555,586,599,
599,592,596,598,564,586,598,574,581,572,599,564,555,562,562,585,
571,568,558,574,595,572,599,558,558,565,564,561,561,578,579,564,
575,557,568,574,575,596,571,574,571,555,598,561,574,582,579,588,
571,557,589,596,599,554,565,575,599,586,574,598,599,561,574,558
</chunk>
   <chunk x="-848" y="192" width="16" height="16">
599,599,554,575,582,578,0,0,0,0,0,0,0,0,0,0,
571,572,565,589,565,582,0,0,0,0,0,0,0,0,0,0,
595,579,598,592,596,581,0,0,0,0,0,0,0,0,0,0,
554,568,562,575,571,598,0,0,0,0,0,0,0,0,0,0,
586,578,564,592,585,557,0,0,0,0,0,0,0,0,0,0,
568,596,572,554,582,581,0,0,0,0,0,0,0,0,0,0,
599,586,557,586,592,557,0,0,0,0,0,0,0,0,0,0,
554,592,588,592,568,554,0,0,0,0,0,0,0,0,0,0,
581,557,575,589,595,588,0,0,0,0,0,0,0,0,0,0,
578,598,596,572,574,571,0,0,0,0,0,0,0,0,0,0,
579,585,582,596,571,568,0,0,0,0,0,0,0,0,0,0,
578,592,598,588,564,579,0,0,0,0,0,0,0,0,0,0,
565,562,561,581,571,557,0,0,0,0,0,0,0,0,0,0,
568,589,585,558,558,571,0,0,0,0,0,0,0,0,0,0,
592,571,575,555,599,586,0,0,0,0,0,0,0,0,0,0,
561,595,557,574,598,585,0,0,0,0,0,0,0,0,0,0
</chunk>
   <chunk x="-1344" y="208" width="16" height="16">
0,0,0,0,0,0,564,586,598,558,565,558,599,562,596,555,
0,0,0,0,0,0,572,571,574,561,561,562,557,554,558,596,
0,0,0,0,0,0,599,588,558,558,564,592,564,589,579,572,
0,0,0,0,0,0,596,598,557,581,561,574,581,585,574,588,
0,0,0,0,0,0,581,588,558,578,598,585,595,585,572,564,
0,0,0,0,0,0,582,596,557,578,598,586,599,555,592,557,
0,0,0,0,0,0,581,595,562,574,589,561,596,581,571,585,
0,0,0,0,0,0,0,0,0,0,0,0,0,0,0,0,
0,0,0,0,0,0,0,0,0,0,0,0,0,0,0,0,
0,0,0,0,0,0,0,0,0,0,0,0,0,0,0,0,
0,0,0,0,0,0,0,0,0,0,0,0,0,0,0,0,
0,0,0,0,0,0,0,0,0,0,0,0,0,0,0,0,
0,0,0,0,0,0,0,0,0,0,0,0,0,0,0,0,
0,0,0,0,0,0,0,0,0,0,0,0,0,562,571,581,
0,0,0,0,0,0,0,0,0,0,0,0,0,554,599,574,
0,0,0,0,0,0,0,0,0,0,0,0,0,575,572,561
</chunk>
   <chunk x="-1328" y="208" width="16" height="16">
574,579,596,582,581,586,557,557,585,562,598,585,596,592,571,588,
571,554,578,596,579,572,575,554,586,555,568,586,571,585,572,574,
568,586,555,595,599,565,581,571,596,555,589,561,596,582,565,574,
561,578,589,571,558,575,599,561,578,564,574,579,586,585,586,592,
557,564,561,599,586,579,585,562,585,575,581,558,582,578,555,588,
557,592,582,571,558,562,596,565,585,579,589,561,596,561,575,575,
598,588,581,574,555,562,579,555,589,574,579,574,592,578,598,585,
0,0,0,0,0,0,0,0,0,0,0,0,0,0,0,0,
0,0,0,0,0,0,0,0,0,0,0,0,0,0,0,0,
0,0,0,0,0,0,0,0,0,0,0,0,0,0,0,0,
0,0,0,0,0,0,0,0,0,0,0,0,0,0,0,0,
0,0,0,0,0,0,0,0,0,0,0,0,0,0,0,0,
0,0,0,0,0,0,0,0,0,0,0,0,0,0,0,0,
579,588,575,572,586,557,579,582,555,568,585,565,588,595,588,557,
595,562,572,564,562,592,589,586,595,564,581,586,558,579,579,579,
564,579,565,598,558,565,568,564,561,582,589,588,578,586,595,585
</chunk>
   <chunk x="-1312" y="208" width="16" height="16">
572,561,558,582,562,575,564,595,589,586,574,585,568,592,558,561,
588,582,595,568,598,568,554,565,599,558,557,564,562,585,575,575,
579,574,586,561,564,578,557,564,598,595,555,557,581,595,585,572,
558,574,595,572,575,572,596,599,564,562,598,572,585,581,564,561,
578,554,581,575,588,555,579,599,596,554,582,561,565,585,582,598,
558,558,589,582,598,562,585,564,565,595,558,571,592,579,581,571,
572,568,574,562,579,561,599,574,555,575,575,575,586,558,574,581,
0,0,0,0,0,0,0,0,0,0,0,0,0,0,0,0,
0,0,0,0,0,0,0,0,0,0,0,0,0,0,0,0,
0,0,0,0,0,0,0,0,0,0,0,0,0,0,0,0,
0,0,0,0,0,0,0,0,0,0,0,0,0,0,0,0,
0,0,0,0,0,0,0,0,0,0,0,0,0,0,0,0,
0,0,0,0,0,0,0,0,0,0,0,0,0,0,0,0,
598,581,572,562,564,568,571,578,598,564,592,585,574,555,554,561,
568,596,574,585,564,557,582,554,582,582,554,578,574,598,565,592,
592,589,554,557,588,595,575,575,585,596,564,588,592,595,564,595
</chunk>
   <chunk x="-1296" y="208" width="16" height="16">
571,562,598,599,557,554,595,588,585,581,572,562,585,595,561,555,
582,555,596,575,579,572,579,565,589,579,588,564,565,564,578,557,
571,574,599,589,596,558,561,554,581,599,579,568,574,598,572,585,
582,575,564,586,568,582,585,575,582,585,574,586,578,565,588,585,
596,562,561,595,554,554,592,561,555,582,562,582,565,578,575,592,
599,572,572,595,568,568,589,557,554,592,561,571,568,588,586,565,
562,599,561,558,581,557,586,599,585,586,561,564,565,555,586,558,
0,0,0,0,0,0,0,0,0,0,0,0,0,0,0,0,
0,0,0,0,0,0,0,0,0,0,0,0,0,0,0,0,
0,0,0,0,0,0,0,0,0,0,0,0,0,0,0,0,
0,0,0,0,0,0,0,0,0,0,0,0,0,0,0,0,
0,0,0,0,0,0,0,0,0,0,0,0,0,0,0,0,
0,0,0,0,0,0,0,0,0,0,0,0,0,0,0,0,
0,0,0,598,581,561,554,579,554,595,554,598,562,571,558,572,
0,0,0,555,579,554,581,565,554,575,598,557,599,581,592,571,
0,0,0,562,579,579,588,565,579,599,585,557,589,555,582,568
</chunk>
   <chunk x="-1280" y="208" width="16" height="16">
555,571,555,588,589,557,554,574,578,555,554,589,592,592,575,586,
595,575,554,578,588,588,589,585,599,598,562,586,596,565,592,568,
599,568,565,561,575,589,561,588,582,595,589,588,598,595,571,595,
564,558,579,599,598,578,596,557,572,586,589,571,555,555,592,588,
562,572,585,568,565,578,598,595,557,599,571,564,562,571,564,565,
571,568,554,578,588,574,599,561,588,586,575,561,572,571,568,578,
595,579,599,564,561,596,568,554,599,557,578,571,581,585,588,564,
0,0,0,0,0,0,0,0,0,0,0,0,0,0,0,0,
0,0,0,0,0,0,0,0,0,0,0,0,0,0,0,0,
0,0,0,0,0,0,0,0,0,0,0,0,0,0,0,0,
0,0,0,0,0,0,0,0,0,0,0,0,0,0,0,0,
0,0,0,0,0,0,0,0,0,0,0,0,0,0,0,0,
0,0,0,0,0,0,0,0,0,0,0,0,0,0,0,0,
596,588,0,0,0,0,0,0,0,0,0,0,0,0,0,0,
581,589,0,0,0,0,0,0,0,0,0,0,0,0,0,0,
581,592,0,0,0,0,0,0,0,0,0,0,0,0,0,0
</chunk>
   <chunk x="-1264" y="208" width="16" height="16">
589,588,562,564,562,562,564,562,572,574,588,574,585,554,592,558,
571,572,596,565,555,565,565,586,588,588,586,582,585,585,599,581,
579,554,595,599,575,599,575,568,586,579,568,574,554,554,589,557,
579,586,561,596,598,589,582,585,568,586,574,568,589,565,595,581,
578,581,574,554,558,586,572,586,598,599,599,599,568,558,581,554,
571,596,572,588,578,574,599,571,596,565,578,596,592,564,558,558,
582,596,596,555,588,557,598,595,581,588,557,599,568,572,555,565,
0,0,0,0,0,0,0,0,0,0,0,0,0,0,0,0,
0,0,0,0,0,0,0,0,0,0,0,0,0,0,0,0,
0,0,0,0,0,0,0,0,0,0,0,0,0,0,0,0,
0,0,0,0,0,0,0,0,0,0,0,0,0,0,0,0,
0,0,0,0,0,0,0,0,0,0,0,0,0,0,0,0,
0,0,0,0,0,0,0,0,0,0,0,0,0,0,0,0,
0,0,0,0,0,0,0,0,0,0,0,0,0,0,0,0,
0,0,0,0,0,0,0,0,0,0,0,0,0,0,0,0,
0,0,0,0,0,0,0,0,0,0,0,0,0,0,0,0
</chunk>
   <chunk x="-1248" y="208" width="16" height="16">
579,579,572,561,592,592,595,598,578,575,599,558,599,595,558,589,
589,598,595,585,562,578,571,589,555,568,561,557,592,586,575,595,
578,562,596,586,595,561,574,592,595,582,581,598,571,554,571,588,
557,558,561,578,582,586,558,578,598,561,596,574,596,598,596,585,
582,558,571,564,574,555,574,578,562,599,554,589,561,571,589,558,
589,588,581,581,568,571,599,595,588,574,572,588,558,568,555,568,
561,554,565,582,582,581,575,588,586,585,588,596,565,554,565,574,
0,0,0,0,581,582,582,582,558,558,582,582,557,581,557,558,
0,0,0,0,0,0,557,557,558,582,557,557,557,558,558,582,
0,0,0,0,0,0,581,557,557,557,557,558,557,557,557,557,
0,0,0,0,0,0,0,581,581,581,581,582,581,581,581,581,
0,0,0,0,0,0,0,0,0,0,0,0,0,0,0,0,
0,0,0,0,0,0,0,0,0,0,0,0,0,0,0,0,
0,0,0,0,0,0,0,0,0,0,0,0,0,0,0,0,
0,0,0,0,0,0,0,0,0,0,0,0,0,0,0,0,
0,0,0,0,0,0,0,0,0,0,0,0,0,0,0,0
</chunk>
   <chunk x="-1232" y="208" width="16" height="16">
579,581,582,589,599,575,579,585,562,595,568,579,582,598,562,579,
595,595,581,582,571,561,592,565,562,555,557,592,586,589,558,564,
571,558,568,558,574,564,565,581,586,582,582,561,554,568,582,564,
561,565,557,596,596,557,568,598,574,561,554,598,575,555,575,571,
572,568,581,574,589,562,586,558,564,589,554,575,561,592,574,554,
554,565,586,589,586,582,568,571,588,564,564,581,554,595,562,557,
564,579,589,565,596,571,585,554,592,589,557,564,557,568,598,572,
558,582,581,582,557,558,0,0,0,0,0,0,0,0,0,0,
582,557,581,557,558,558,0,0,0,0,0,0,0,0,0,0,
557,581,581,557,558,582,0,0,0,0,0,0,0,0,0,0,
581,581,582,581,582,0,0,0,0,0,0,0,0,0,0,0,
0,0,0,0,0,0,0,0,0,0,0,0,0,0,0,0,
0,0,0,0,0,0,0,0,0,0,0,0,0,0,0,0,
0,0,0,0,0,0,0,0,0,0,0,0,0,0,0,0,
0,0,0,0,0,0,0,0,0,0,0,0,0,0,0,0,
0,0,0,0,0,0,0,0,0,0,0,0,0,0,0,0
</chunk>
   <chunk x="-1056" y="208" width="16" height="16">
0,0,0,0,0,0,0,555,565,592,571,554,581,581,572,574,
0,0,0,0,0,0,0,585,574,596,598,581,595,588,571,589,
0,0,0,0,0,0,0,574,564,554,581,554,595,595,561,557,
0,0,0,0,0,0,0,586,599,592,554,582,586,592,572,575,
0,0,0,0,0,0,0,574,592,574,562,589,582,554,575,564,
0,0,0,0,0,0,0,558,574,555,585,578,589,581,596,596,
0,0,0,0,0,0,0,564,562,572,582,554,568,599,575,564,
0,0,0,0,0,0,0,564,572,572,574,575,557,586,578,562,
0,0,0,0,0,0,0,581,554,565,592,555,561,578,598,578,
0,0,0,0,0,0,0,586,596,555,561,564,565,586,575,575,
0,0,0,0,0,0,0,558,598,586,581,588,568,589,575,598,
0,0,0,0,0,0,0,589,565,578,578,596,582,595,554,561,
0,0,0,0,0,0,0,574,579,568,564,582,555,588,557,565,
0,0,0,0,0,0,0,598,562,561,555,558,581,578,572,574,
0,0,0,0,0,0,0,588,581,565,558,572,558,598,581,565,
0,0,0,0,0,0,0,554,558,599,578,579,582,588,586,575
</chunk>
   <chunk x="-1040" y="208" width="16" height="16">
585,558,582,598,595,564,595,564,568,564,582,581,581,565,598,579,
561,595,564,585,595,575,571,574,558,574,561,592,557,571,592,572,
564,579,581,568,555,585,585,555,564,598,575,581,571,589,574,592,
599,574,558,564,596,565,565,592,588,588,595,598,554,578,554,585,
555,592,555,575,555,592,589,592,581,588,574,571,585,592,581,575,
561,558,588,574,561,592,581,596,596,596,575,557,554,564,554,578,
592,558,579,581,557,568,585,598,572,564,558,582,592,589,571,554,
581,585,555,562,568,572,579,571,555,574,585,598,574,589,598,586,
575,575,595,564,578,598,558,588,581,574,578,581,596,562,568,571,
582,588,564,582,581,575,558,565,555,586,555,555,565,562,586,586,
572,596,554,557,555,574,555,595,588,598,575,554,598,565,554,586,
592,579,588,555,572,599,592,589,554,564,575,589,582,592,558,562,
558,599,554,585,589,578,565,572,562,586,561,595,588,558,579,579,
589,571,581,555,599,562,574,599,572,592,599,568,588,596,585,592,
578,595,598,568,588,574,589,554,588,585,599,595,578,554,596,572,
592,554,558,588,582,571,572,575,564,599,585,592,582,589,588,585
</chunk>
   <chunk x="-1024" y="208" width="16" height="16">
599,565,585,586,554,582,599,596,578,561,565,589,585,579,558,579,
565,554,582,582,578,589,572,599,564,557,574,575,599,592,581,585,
555,572,578,575,562,599,582,565,568,562,565,574,596,592,585,554,
589,585,572,595,589,598,598,586,575,599,558,599,588,564,554,595,
595,596,595,578,568,596,588,557,596,564,554,564,565,579,595,588,
582,571,578,568,561,562,596,558,572,578,554,586,589,555,578,554,
555,568,595,568,574,555,555,558,562,557,565,598,596,561,554,565,
585,574,555,586,581,579,564,554,596,585,582,598,572,555,592,596,
554,588,575,585,554,558,585,555,586,578,571,588,568,599,572,558,
588,562,586,562,561,562,598,589,588,588,555,561,578,574,588,555,
592,599,585,598,555,574,561,557,568,565,562,562,565,565,565,565,
578,581,589,586,596,599,578,568,578,581,554,557,579,585,582,558,
568,598,568,596,574,578,557,596,568,571,579,568,592,575,592,581,
562,579,579,562,599,555,588,588,574,564,595,555,574,555,575,568,
558,574,568,582,588,574,578,554,557,572,581,585,572,595,572,575,
579,557,554,561,595,588,592,554,598,562,585,572,599,582,562,564
</chunk>
   <chunk x="-1008" y="208" width="16" height="16">
558,581,561,554,582,554,585,582,575,596,586,568,592,564,586,579,
592,558,558,599,598,579,589,599,561,582,592,598,555,598,595,562,
579,572,564,589,574,568,599,589,586,581,572,565,592,568,562,575,
564,589,572,557,554,568,581,595,599,595,596,595,598,598,592,561,
558,596,557,582,581,558,565,555,571,595,565,571,554,562,565,555,
558,562,586,592,581,596,558,585,582,599,561,554,561,595,565,554,
572,581,578,581,565,596,565,578,555,571,595,599,565,596,585,581,
585,598,557,574,575,582,589,592,599,595,592,578,588,589,586,592,
598,554,571,565,589,589,596,562,595,582,561,578,595,561,586,572,
578,589,565,571,595,599,572,558,592,571,565,592,568,575,562,596,
595,572,571,592,561,572,565,579,588,589,572,571,585,579,565,588,
592,588,599,592,574,555,557,588,557,555,596,561,571,574,585,582,
571,572,554,595,581,565,554,561,572,592,575,579,574,575,572,599,
555,575,572,571,579,589,588,581,595,589,561,579,568,554,596,596,
564,596,579,561,561,579,599,579,581,582,592,578,555,574,574,588,
592,561,562,558,595,579,585,596,581,592,589,579,572,585,581,574
</chunk>
   <chunk x="-992" y="208" width="16" height="16">
557,585,575,581,588,595,554,568,589,588,568,555,565,586,554,595,
596,574,599,588,571,557,579,599,558,592,574,558,586,574,568,565,
574,586,582,595,586,562,578,589,572,571,562,595,586,598,558,572,
598,575,562,596,585,555,585,595,574,554,572,575,582,588,589,562,
589,598,571,588,575,582,554,557,582,575,565,596,599,565,562,558,
588,572,568,568,568,571,562,581,588,588,588,581,571,554,598,578,
562,571,574,582,599,578,574,561,579,586,558,572,578,568,596,571,
596,554,598,564,578,592,581,558,589,592,585,582,562,557,574,592,
574,574,574,565,555,586,578,554,581,596,578,578,579,586,562,562,
568,581,581,574,555,598,555,592,568,589,568,599,581,585,574,588,
571,554,588,598,571,558,574,564,589,554,568,599,574,571,574,592,
588,599,555,585,572,586,585,575,554,586,588,598,564,589,588,558,
596,595,599,595,565,568,585,558,585,596,555,582,561,568,595,565,
555,596,562,586,554,562,574,588,589,554,561,579,554,579,557,579,
564,575,588,579,561,572,564,572,586,565,555,585,585,586,568,596,
589,598,574,592,599,595,561,598,575,564,592,554,575,586,579,574
</chunk>
   <chunk x="-976" y="208" width="16" height="16">
595,565,596,599,565,586,599,598,581,578,558,585,561,574,581,574,
575,598,595,558,589,596,581,586,557,565,554,564,578,555,592,555,
596,581,561,561,599,585,554,586,561,581,588,571,588,592,565,592,
562,557,557,585,558,571,589,596,564,598,589,581,578,582,564,598,
562,592,564,586,555,586,572,592,599,581,589,554,586,589,575,555,
579,565,558,554,588,571,595,575,592,595,582,555,595,586,564,598,
592,565,592,586,588,558,589,595,588,568,589,564,588,555,588,571,
571,574,595,561,599,565,595,572,564,579,574,599,554,557,561,554,
596,581,554,599,589,571,558,574,558,582,595,562,568,578,562,581,
554,596,578,586,568,557,589,555,554,598,575,581,572,581,592,565,
564,575,554,595,592,589,595,581,599,598,575,572,586,592,572,568,
596,575,572,568,557,585,568,572,562,578,578,582,565,558,578,581,
596,565,571,564,578,585,588,555,581,585,561,564,564,564,582,555,
555,596,554,557,564,586,595,571,565,572,586,599,589,579,588,578,
561,578,582,585,585,586,568,592,582,562,575,557,555,574,572,599,
586,582,574,555,582,575,595,589,558,558,596,562,562,581,595,555
</chunk>
   <chunk x="-960" y="208" width="16" height="16">
558,586,555,572,564,574,568,582,586,579,592,561,599,568,561,565,
595,579,571,592,555,578,555,555,598,599,561,555,592,557,557,565,
581,575,555,571,585,574,585,592,558,586,558,599,571,595,588,579,
586,598,588,581,557,562,555,558,561,555,592,586,568,574,595,596,
588,585,572,579,558,561,575,582,582,562,562,574,599,582,561,562,
565,568,555,592,589,582,562,585,579,578,585,572,582,568,571,555,
568,575,574,589,599,571,557,575,561,554,568,558,585,592,572,557,
572,579,581,596,592,568,585,599,582,572,564,578,562,574,555,578,
561,574,575,582,557,599,572,575,571,581,598,582,555,596,568,595,
592,586,568,565,565,562,599,586,558,578,578,592,565,561,589,581,
578,575,599,586,595,564,598,599,557,572,561,595,578,574,562,598,
568,574,555,555,579,592,598,581,575,562,555,592,588,554,595,579,
574,562,579,572,557,564,574,578,571,568,572,565,571,571,575,592,
585,558,557,554,565,574,574,581,588,598,588,554,592,568,572,575,
578,574,562,572,579,557,589,595,598,599,599,561,588,585,592,557,
554,555,596,554,599,588,588,585,592,558,599,565,592,568,557,589
</chunk>
   <chunk x="-944" y="208" width="16" height="16">
588,574,561,572,586,592,574,574,578,564,558,596,557,579,579,596,
564,562,596,574,565,558,558,578,599,585,568,596,596,558,582,598,
592,557,564,582,562,555,589,562,554,581,572,555,581,574,564,578,
588,585,586,582,565,561,575,586,561,574,585,575,574,561,564,588,
579,557,555,599,578,585,557,557,562,592,565,581,599,554,596,557,
562,582,555,562,582,571,578,568,558,589,595,564,599,586,555,557,
568,564,592,586,599,572,555,588,555,565,572,589,588,558,565,598,
595,578,595,599,568,595,564,595,586,595,589,555,562,571,592,554,
585,554,574,586,586,582,574,599,585,572,574,571,582,599,561,562,
561,588,598,565,588,579,599,598,574,595,596,596,589,568,555,574,
557,579,588,579,571,555,598,592,595,561,575,564,565,562,555,578,
554,586,561,586,561,578,581,565,595,585,578,582,572,595,596,581,
557,555,579,554,586,579,575,578,565,579,585,564,554,581,599,582,
595,574,588,588,565,592,599,578,589,581,586,599,561,562,579,555,
554,565,595,555,568,554,595,555,582,599,562,589,562,568,581,582,
589,572,596,554,558,554,564,574,572,568,558,572,589,565,589,561
</chunk>
   <chunk x="-928" y="208" width="16" height="16">
586,598,554,578,596,557,555,589,596,596,596,574,574,558,565,578,
562,572,575,572,575,561,585,555,599,592,581,574,598,561,599,585,
575,588,565,565,578,562,564,582,589,588,599,592,555,582,578,578,
581,592,574,596,558,598,568,562,579,585,592,555,598,579,581,592,
571,555,582,575,581,599,561,574,555,571,571,561,578,596,578,592,
596,568,564,554,561,555,564,557,579,578,579,592,574,557,558,595,
562,595,586,586,564,585,565,599,595,557,598,578,592,574,554,579,
589,596,562,575,572,575,589,554,562,596,562,596,565,592,582,586,
555,562,575,589,557,564,595,578,595,578,599,596,565,565,561,575,
586,599,595,557,586,598,588,554,589,592,599,585,558,568,596,561,
585,562,555,581,578,588,561,561,582,598,596,578,582,574,579,554,
568,579,586,585,564,557,557,568,572,595,578,595,574,579,568,568,
598,582,588,561,555,599,582,575,562,595,571,557,574,561,586,557,
574,555,568,585,585,581,588,562,574,565,574,598,589,562,592,585,
578,558,582,592,589,585,558,554,589,579,588,558,596,568,596,582,
585,557,578,562,555,589,564,596,592,592,557,582,588,581,595,562
</chunk>
   <chunk x="-912" y="208" width="16" height="16">
564,592,585,571,589,592,555,596,595,589,568,554,575,595,574,588,
555,581,599,582,572,561,574,581,582,585,574,574,571,599,599,592,
588,581,561,578,574,595,595,582,565,579,571,562,561,586,557,568,
574,589,571,554,562,571,558,586,581,582,592,581,564,598,592,554,
578,586,589,586,565,598,579,582,562,561,555,564,582,582,582,558,
555,572,578,572,575,554,564,555,557,557,596,589,588,586,599,596,
598,565,596,574,561,579,586,599,595,589,595,599,558,598,571,581,
579,598,568,586,596,554,586,579,557,586,558,575,564,589,561,581,
578,589,568,578,589,599,578,555,574,561,595,557,595,564,555,589,
595,568,579,557,588,588,578,582,595,571,564,558,571,588,565,582,
595,582,572,555,571,598,557,586,558,595,589,581,599,561,557,555,
598,596,571,555,581,589,571,572,557,561,554,565,574,561,564,571,
582,572,572,564,554,586,575,565,592,589,564,592,581,579,596,596,
565,585,565,561,586,596,578,564,578,578,565,572,555,568,554,588,
557,592,579,586,562,564,572,557,561,596,579,572,578,592,555,582,
589,598,562,554,565,582,555,598,565,582,565,568,582,561,558,599
</chunk>
   <chunk x="-896" y="208" width="16" height="16">
581,599,578,586,582,598,561,561,554,598,596,554,575,568,568,589,
572,586,579,599,596,586,581,585,586,575,575,565,554,562,568,585,
558,568,598,564,557,555,585,585,572,561,571,581,598,586,564,561,
574,599,568,581,572,574,599,555,598,586,575,574,571,575,557,589,
555,579,579,589,595,598,572,585,562,571,592,565,564,557,558,564,
588,571,561,558,581,574,554,585,571,557,598,561,579,557,564,586,
581,554,561,578,557,562,578,557,557,595,599,561,596,596,575,598,
572,582,554,588,599,582,579,568,562,561,592,568,574,557,599,585,
592,561,588,554,574,595,588,564,561,571,595,558,585,588,581,596,
558,599,585,561,555,574,564,586,558,595,554,555,572,581,586,599,
588,585,572,585,557,558,589,558,562,571,588,589,574,574,564,592,
578,571,595,565,565,575,588,585,581,582,579,585,595,574,589,588,
578,598,564,558,565,589,589,579,596,598,596,571,578,571,595,581,
596,565,574,565,564,554,585,565,568,588,579,585,592,585,581,561,
574,564,554,574,574,579,599,571,582,589,581,555,599,582,579,579,
558,562,574,585,557,572,572,574,558,562,588,557,562,579,589,562
</chunk>
   <chunk x="-880" y="208" width="16" height="16">
575,568,565,555,554,568,571,582,561,575,562,588,568,585,572,599,
557,564,565,557,582,571,592,582,565,568,571,562,554,558,555,586,
598,557,554,565,581,588,585,571,595,579,596,589,581,571,561,568,
558,575,586,585,599,555,585,595,595,564,581,574,598,564,557,554,
564,596,589,595,588,568,578,574,572,592,557,596,582,574,599,588,
589,574,596,592,578,582,598,571,575,564,598,562,564,558,554,582,
589,595,595,558,595,579,557,579,582,561,579,596,588,574,554,596,
596,589,568,579,562,562,562,558,554,585,554,565,572,595,598,596,
562,568,585,554,598,579,571,562,568,565,578,571,554,599,585,557,
586,582,592,588,595,554,554,557,586,595,562,585,565,582,592,562,
599,581,582,586,585,596,555,588,561,568,592,554,589,585,595,555,
561,565,598,568,557,561,589,581,558,596,574,568,564,578,561,564,
579,555,574,589,558,575,595,581,561,585,581,579,572,581,554,568,
596,578,558,564,596,596,585,554,589,595,579,596,578,557,561,599,
592,562,595,596,589,599,579,581,568,588,596,557,581,562,565,586,
555,561,554,568,555,579,599,554,564,589,561,581,581,588,574,557
</chunk>
   <chunk x="-864" y="208" width="16" height="16">
554,579,592,592,579,568,564,561,585,574,592,581,596,571,562,574,
568,571,574,589,562,554,598,557,586,574,599,554,571,589,598,564,
581,558,579,561,555,579,595,592,574,561,558,572,589,557,562,588,
555,574,564,561,599,557,574,555,555,581,592,574,588,588,554,561,
582,588,595,557,598,579,588,562,558,588,564,571,595,565,578,554,
554,572,582,581,572,558,564,574,588,585,575,596,564,555,574,555,
599,557,579,589,579,585,581,586,574,596,575,596,568,558,562,555,
585,572,558,582,568,561,585,582,558,568,599,581,571,586,581,557,
589,589,575,592,571,554,572,572,571,581,555,592,558,572,581,578,
582,588,595,578,564,561,578,581,598,562,599,562,592,564,568,561,
596,579,592,599,579,579,555,565,592,574,575,575,588,571,585,562,
592,568,557,579,598,564,554,589,592,579,588,578,564,574,554,588,
572,555,572,555,558,586,598,589,557,575,592,575,599,581,598,586,
554,592,586,582,561,565,574,558,595,578,588,557,554,565,586,574,
557,595,579,568,586,585,585,554,575,586,554,555,558,582,564,582,
586,582,568,589,571,592,572,579,561,595,557,581,557,578,589,586
</chunk>
   <chunk x="-848" y="208" width="16" height="16">
564,564,575,592,586,592,0,0,0,0,0,0,0,0,0,0,
589,585,574,596,575,572,0,0,0,0,0,0,0,0,0,0,
596,571,589,561,578,585,0,0,0,0,0,0,0,0,0,0,
558,588,589,572,596,586,0,0,0,0,0,0,0,0,0,0,
572,555,564,585,586,572,0,0,0,0,0,0,0,0,0,0,
575,592,596,599,558,557,0,0,0,0,0,0,0,0,0,0,
571,595,575,578,575,555,0,0,0,0,0,0,0,0,0,0,
565,561,581,568,598,571,0,0,0,0,0,0,0,0,0,0,
574,586,595,574,585,588,0,0,0,0,0,0,0,0,0,0,
554,565,585,598,579,555,0,0,0,0,0,0,0,0,0,0,
592,575,564,582,596,574,0,0,0,0,0,0,0,0,0,0,
564,592,595,595,582,555,0,0,0,0,0,0,0,0,0,0,
599,572,572,574,572,572,0,0,0,0,0,0,0,0,0,0,
588,558,554,575,598,571,0,0,0,0,0,0,0,0,0,0,
554,596,557,558,586,572,0,0,0,0,0,0,0,0,0,0,
571,574,581,589,562,588,0,0,0,0,0,0,0,0,0,0
</chunk>
   <chunk x="-1344" y="224" width="16" height="16">
0,0,0,0,0,0,0,0,0,0,0,0,0,562,557,571,
0,0,0,0,0,0,0,0,0,0,0,0,0,588,589,554,
0,0,0,0,0,0,0,0,0,0,0,0,0,558,565,599,
0,0,0,0,0,0,0,0,0,0,0,0,0,0,0,0,
0,0,0,0,0,0,0,0,0,0,0,0,0,0,0,0,
0,0,0,0,0,0,0,0,0,0,0,0,0,0,0,0,
0,0,0,0,0,0,0,0,0,0,0,0,0,0,0,0,
0,0,0,0,0,0,0,0,0,0,0,0,0,0,0,0,
0,0,0,0,0,0,0,0,0,0,0,0,0,0,0,0,
0,0,0,0,0,0,0,0,0,0,0,0,0,0,0,0,
0,0,0,0,0,0,0,0,0,0,0,0,0,0,0,0,
0,0,0,0,0,0,0,0,0,0,0,0,0,0,0,0,
0,0,0,0,0,0,0,0,0,0,0,0,0,0,0,0,
0,0,0,0,0,0,0,0,0,0,0,0,0,0,0,0,
0,0,0,0,0,0,0,0,0,0,0,0,0,0,0,0,
0,0,0,0,0,0,0,0,0,0,0,0,0,0,0,0
</chunk>
   <chunk x="-1328" y="224" width="16" height="16">
554,561,562,562,558,575,585,558,595,589,586,562,585,595,581,598,
598,557,598,574,568,568,579,585,558,575,565,596,564,558,596,578,
562,582,568,598,571,586,574,585,568,558,579,595,565,558,554,554,
0,0,0,0,0,0,0,0,0,0,0,0,0,0,0,0,
0,0,0,0,0,0,0,0,0,0,0,0,0,0,0,0,
0,0,0,0,0,0,0,0,0,0,0,0,0,0,0,0,
0,0,0,0,0,0,0,0,561,598,585,588,572,572,571,585,
0,0,0,0,0,0,0,0,575,562,586,595,585,598,585,564,
0,0,0,0,0,0,0,0,598,586,588,572,565,568,565,565,
0,0,0,0,0,0,0,0,592,589,598,582,599,586,558,564,
0,0,0,0,0,0,0,0,562,564,562,596,586,595,599,599,
0,0,0,0,0,0,0,0,564,595,588,589,565,581,575,595,
0,0,0,0,0,0,0,0,565,572,568,586,557,568,582,572,
0,0,0,0,0,0,0,0,585,571,571,564,575,598,558,571,
0,0,0,0,0,0,0,0,561,557,589,592,586,592,575,572,
0,0,0,0,0,0,0,0,596,565,598,572,596,582,595,565
</chunk>
   <chunk x="-1312" y="224" width="16" height="16">
596,571,574,554,571,578,582,555,558,589,564,598,555,582,554,596,
599,558,599,582,588,575,555,585,555,582,585,598,579,592,562,585,
598,574,595,585,599,598,558,572,578,598,595,595,578,595,554,581,
0,0,0,0,0,0,0,0,0,0,0,0,0,0,0,0,
0,0,0,0,0,0,0,0,0,0,0,0,0,0,0,0,
0,0,0,0,0,0,0,0,0,0,0,0,0,0,0,0,
588,561,558,592,588,581,598,598,565,598,565,599,0,0,0,0,
558,589,558,588,589,574,589,561,585,582,588,585,0,0,0,0,
575,592,558,588,586,598,565,595,589,558,561,582,0,0,0,0,
564,595,582,582,586,561,558,588,581,558,561,582,0,0,0,0,
586,574,557,562,571,571,585,572,571,581,592,564,0,0,0,0,
588,582,565,571,558,557,596,572,581,575,562,589,0,0,0,0,
564,565,596,596,572,557,599,561,557,574,564,574,0,0,0,0,
589,596,599,568,561,572,565,568,558,585,589,582,0,0,0,0,
558,564,596,599,562,596,596,582,585,561,558,596,0,0,0,0,
568,572,558,596,585,582,585,596,598,592,592,599,0,0,0,0
</chunk>
   <chunk x="-1296" y="224" width="16" height="16">
0,0,0,558,561,581,595,557,585,568,588,571,581,571,565,571,
0,0,0,578,592,558,589,592,595,588,574,571,574,599,555,599,
0,0,0,596,579,589,557,592,561,582,565,588,585,564,589,555,
0,0,0,555,599,575,565,561,592,579,562,595,572,581,595,586,
0,0,0,557,586,558,581,578,571,554,578,579,574,585,557,555,
0,0,0,0,0,0,0,0,0,0,0,0,0,0,0,0,
0,0,0,0,0,0,0,0,0,0,0,0,0,0,0,0,
0,0,0,0,0,0,0,0,0,0,0,0,0,0,0,0,
0,0,0,0,0,0,0,0,0,0,0,0,0,0,0,0,
0,0,0,0,0,0,0,0,0,0,0,0,0,0,0,0,
0,0,0,0,0,0,0,0,0,0,0,0,0,0,0,0,
0,0,0,0,0,0,0,0,0,0,0,0,0,0,0,0,
0,0,0,0,0,0,0,0,0,0,0,0,0,0,0,0,
0,0,0,0,0,0,0,0,0,0,0,0,0,0,0,0,
0,0,0,0,0,0,0,0,0,0,0,0,0,0,0,0,
0,0,0,0,0,0,0,0,0,0,0,0,0,0,0,0
</chunk>
   <chunk x="-1280" y="224" width="16" height="16">
557,578,0,0,0,0,0,0,0,0,0,0,0,0,0,0,
555,565,0,0,0,0,0,0,0,0,0,0,0,0,0,0,
581,565,0,0,0,0,0,0,0,0,0,0,0,0,0,0,
581,558,0,0,0,0,0,0,0,0,0,0,0,0,0,0,
572,589,0,0,0,0,0,0,0,0,0,0,0,0,0,0,
0,0,0,0,0,0,0,0,0,0,0,0,0,0,0,0,
0,0,0,0,0,0,0,0,0,0,0,0,0,0,0,0,
0,0,0,0,0,0,0,0,0,0,0,0,0,0,0,0,
0,0,0,0,0,0,0,0,0,0,0,0,0,0,0,0,
0,0,0,0,0,0,0,0,0,0,0,0,0,0,0,0,
0,0,0,0,0,0,0,0,0,0,0,0,0,0,0,0,
0,0,0,0,0,0,0,0,0,0,0,0,0,0,0,0,
0,0,0,0,0,0,0,0,0,0,0,0,0,0,0,0,
0,0,0,0,0,0,0,0,0,0,0,0,0,0,0,0,
0,0,0,0,0,0,0,0,0,0,0,0,0,0,0,0,
0,0,0,0,0,0,0,0,0,0,0,0,0,0,0,0
</chunk>
   <chunk x="-1056" y="224" width="16" height="16">
0,0,0,0,0,0,0,564,589,575,558,581,586,599,592,561,
0,0,0,0,0,0,0,568,565,588,592,578,575,554,579,561,
0,0,0,0,0,0,0,558,588,557,588,568,578,575,568,574,
0,0,0,0,0,0,0,598,582,555,565,564,588,557,557,561,
0,0,0,0,0,0,0,585,558,579,595,588,599,568,585,554,
0,0,0,0,0,0,0,579,596,599,595,598,565,562,568,572,
0,0,0,0,0,0,0,558,588,595,555,561,582,564,574,599,
0,0,0,0,0,0,0,557,589,598,572,557,575,564,586,596,
0,0,0,0,0,0,0,592,592,564,596,574,555,598,592,581,
0,0,0,0,0,0,0,562,596,588,571,572,565,554,565,581,
0,0,0,0,0,0,0,596,565,562,574,595,554,592,575,558,
0,0,0,0,0,0,0,572,599,571,554,589,555,561,568,564,
0,0,0,0,0,0,0,592,596,565,574,568,572,571,557,562,
0,0,0,0,0,0,0,596,599,574,568,565,582,564,599,554,
0,0,0,0,0,0,0,596,581,558,595,596,596,582,574,555,
0,0,0,0,0,0,0,574,565,582,558,582,564,579,561,562
</chunk>
   <chunk x="-1040" y="224" width="16" height="16">
568,555,585,574,557,592,585,557,564,565,599,555,564,572,575,598,
555,599,585,564,595,578,561,568,595,596,568,575,561,555,558,592,
592,586,555,582,582,578,562,596,574,564,578,581,562,555,565,588,
582,562,572,588,599,574,582,581,561,598,595,572,586,557,554,599,
574,554,575,574,581,586,575,561,554,555,586,579,571,561,564,565,
595,578,579,561,581,565,572,564,588,557,598,554,568,595,558,572,
564,588,565,564,554,581,595,562,572,589,555,578,581,555,595,568,
578,554,595,582,598,581,579,562,578,565,592,581,555,562,595,599,
565,557,599,581,586,596,568,557,589,589,592,557,564,579,557,585,
558,562,578,565,592,558,558,568,585,568,585,579,554,562,585,558,
596,596,589,589,592,562,554,561,572,595,596,574,596,595,582,585,
568,598,561,589,561,581,588,575,554,557,575,561,586,586,586,599,
565,598,592,575,599,558,574,588,571,592,557,581,568,581,554,585,
599,585,575,554,586,579,588,578,598,575,578,561,588,562,579,595,
582,581,585,575,586,561,578,578,589,598,562,558,596,568,581,581,
599,561,554,578,582,564,595,574,564,562,562,586,588,595,562,598
</chunk>
   <chunk x="-1024" y="224" width="16" height="16">
585,598,595,592,586,571,585,599,561,571,581,574,557,599,568,582,
599,578,596,596,558,586,585,596,586,586,564,557,572,585,558,555,
588,568,568,585,568,586,571,585,568,558,561,555,571,581,555,562,
562,586,572,564,582,598,579,574,571,568,589,582,582,562,586,555,
596,578,572,586,586,564,579,558,581,599,589,596,599,558,564,588,
571,581,585,579,572,557,598,596,596,585,588,562,568,575,572,572,
564,599,572,592,575,554,571,581,596,557,595,562,568,564,558,598,
568,574,561,589,574,557,557,568,554,598,575,579,561,598,574,599,
599,571,561,557,555,564,598,586,592,555,578,568,595,568,555,592,
562,579,564,596,596,598,558,581,554,585,565,599,568,562,595,572,
586,574,586,554,562,585,572,596,595,568,554,554,582,592,596,582,
561,586,574,554,571,555,554,572,572,586,586,562,585,581,581,581,
557,575,592,596,555,571,599,564,595,579,588,581,571,599,554,592,
578,557,554,596,596,558,575,564,565,598,571,579,585,564,561,595,
595,562,582,592,589,561,589,561,581,589,575,562,561,599,578,589,
554,578,588,557,574,589,588,554,557,555,599,595,578,586,589,554
</chunk>
   <chunk x="-1008" y="224" width="16" height="16">
558,598,579,598,581,575,589,557,564,588,574,571,582,589,598,571,
571,558,599,596,568,568,564,581,579,589,588,581,565,599,578,578,
574,574,558,571,579,588,578,561,554,571,588,579,586,561,581,595,
595,599,557,598,598,571,579,568,578,557,565,598,579,582,588,595,
554,588,599,561,599,575,582,564,578,561,595,579,582,572,588,574,
581,555,572,554,575,585,565,592,561,582,589,558,557,578,578,561,
585,554,572,579,565,598,561,554,564,555,554,595,581,588,561,595,
599,586,581,579,588,554,568,575,578,579,589,555,592,589,557,595,
598,557,558,585,578,595,572,582,599,561,595,578,565,558,565,595,
561,579,565,581,595,561,557,562,555,579,572,561,588,578,565,575,
599,555,564,592,571,579,586,557,588,581,571,599,588,582,554,561,
578,585,579,574,564,589,585,599,598,557,574,588,562,578,557,568,
581,578,599,572,562,571,579,582,598,599,575,568,596,582,581,557,
564,585,574,561,568,596,582,554,595,588,574,554,596,557,572,599,
574,557,579,588,582,586,564,554,595,588,586,568,595,568,568,571,
588,555,557,596,586,572,562,555,595,592,589,589,561,575,554,579
</chunk>
   <chunk x="-992" y="224" width="16" height="16">
572,589,575,598,592,598,574,578,579,588,554,582,585,558,585,595,
595,565,586,562,598,554,571,589,588,599,572,565,572,582,581,562,
589,599,589,554,588,574,589,589,574,589,555,579,596,588,582,558,
581,572,589,562,574,579,582,571,599,579,595,564,581,571,558,585,
565,598,596,555,588,558,572,598,554,568,581,575,586,578,564,599,
565,578,578,574,561,574,558,558,595,578,568,555,578,585,586,599,
586,555,586,582,599,581,578,562,599,579,599,596,595,596,581,561,
579,599,568,562,595,581,565,581,565,596,592,578,571,564,565,561,
564,582,589,582,568,564,575,571,598,574,589,599,575,582,564,575,
575,592,592,555,596,564,555,588,571,564,589,589,585,586,568,589,
574,598,586,565,571,585,557,595,561,592,588,581,579,574,595,555,
555,579,564,582,575,582,561,558,572,558,565,561,599,554,558,586,
568,578,575,564,565,578,586,572,555,589,599,592,585,575,598,568,
599,579,562,574,568,558,574,574,581,561,581,554,564,555,596,578,
592,589,554,588,557,574,596,572,554,581,582,557,557,564,589,555,
582,561,588,599,596,579,564,586,572,589,581,565,599,568,589,585
</chunk>
   <chunk x="-976" y="224" width="16" height="16">
578,565,598,581,592,557,578,582,557,589,572,575,572,558,572,586,
574,586,555,561,578,571,562,582,565,578,574,557,595,578,595,588,
585,561,572,572,565,572,561,589,588,555,581,571,596,562,598,589,
586,598,586,599,581,596,589,599,554,595,599,599,568,588,554,575,
568,557,561,599,578,586,589,578,565,558,564,598,554,562,578,568,
555,565,588,575,581,565,568,565,558,578,562,589,579,598,595,568,
595,592,565,581,554,568,595,581,562,554,585,578,574,586,586,588,
565,581,582,596,555,555,596,589,575,575,575,599,568,558,586,557,
558,581,586,598,585,579,555,557,572,572,582,588,599,564,585,565,
565,555,554,571,561,557,588,581,562,557,581,588,596,554,585,564,
575,592,595,578,588,574,568,592,598,579,596,588,571,599,564,557,
572,561,582,572,599,582,586,585,585,574,564,585,562,558,568,572,
589,588,599,561,596,585,585,554,568,568,585,595,557,581,588,575,
578,555,572,585,586,582,564,572,578,571,581,595,585,599,578,579,
585,558,589,598,596,589,586,599,558,592,574,592,598,571,588,578,
596,581,582,554,588,562,578,554,565,561,575,565,596,581,561,586
</chunk>
   <chunk x="-960" y="224" width="16" height="16">
557,565,596,592,589,557,575,558,581,575,555,564,565,561,568,581,
585,588,575,585,572,571,558,557,599,595,599,562,555,588,555,555,
592,557,598,599,586,574,579,564,555,579,575,575,574,572,554,558,
581,599,575,595,592,557,578,595,586,562,562,575,575,571,599,599,
596,582,588,557,596,571,554,599,588,588,579,565,585,582,564,589,
592,588,596,575,568,572,579,572,568,582,571,588,598,557,575,564,
581,571,599,579,574,592,589,592,598,588,572,554,571,588,564,562,
579,565,572,564,575,564,565,599,598,586,568,598,574,595,574,578,
562,599,557,581,596,595,564,574,581,564,561,572,582,579,579,589,
596,595,579,578,585,565,599,555,581,575,572,581,558,554,595,589,
595,557,588,562,595,572,572,586,565,571,596,585,554,586,565,578,
592,585,572,558,586,578,554,579,588,572,571,596,571,579,592,565,
572,554,599,561,575,592,555,571,558,598,564,579,557,578,568,572,
568,598,579,582,564,564,595,595,555,581,572,565,585,599,585,575,
572,555,592,575,579,581,557,581,586,572,579,572,554,564,557,581,
585,592,574,586,595,598,582,571,585,595,588,564,554,554,582,595
</chunk>
   <chunk x="-944" y="224" width="16" height="16">
562,592,561,579,586,588,562,565,558,555,589,574,599,561,586,558,
579,578,589,578,571,565,592,572,554,568,578,575,599,589,585,581,
574,585,554,558,558,574,579,592,572,562,557,565,589,558,575,579,
581,562,596,582,554,585,561,575,578,554,579,558,562,558,586,578,
575,561,561,568,574,565,599,599,589,568,579,588,579,565,561,588,
561,595,582,581,581,554,579,557,574,589,568,599,555,588,571,588,
581,596,596,571,571,568,564,554,578,598,572,574,562,598,596,564,
557,558,572,561,571,581,571,555,589,558,581,575,571,595,554,581,
557,579,575,598,582,592,578,579,578,598,579,588,571,596,568,586,
571,586,589,588,575,581,565,571,554,589,568,579,582,582,574,555,
596,571,595,598,568,555,599,572,589,554,586,571,578,561,598,582,
562,571,585,554,596,562,589,588,575,579,596,579,589,561,558,585,
574,588,595,599,564,555,562,592,568,562,592,574,579,582,568,582,
589,585,557,555,598,555,562,558,571,592,554,596,564,596,585,574,
572,589,592,555,595,586,586,562,558,596,581,558,585,588,564,564,
554,575,568,592,589,592,572,592,564,596,572,562,557,554,582,575
</chunk>
   <chunk x="-928" y="224" width="16" height="16">
562,572,574,585,564,555,572,588,565,575,561,571,592,561,562,589,
575,585,558,588,554,586,564,582,582,589,564,557,592,564,557,558,
555,571,562,579,571,558,582,595,554,562,596,592,561,588,578,574,
555,572,598,578,599,588,589,554,589,554,592,564,581,562,588,562,
581,574,596,554,568,571,574,574,599,562,578,565,562,564,562,564,
592,579,574,586,575,575,572,575,582,562,554,562,582,579,554,561,
586,572,588,564,561,562,586,581,589,581,574,599,579,578,599,558,
565,557,572,589,565,572,578,568,565,555,575,561,574,558,575,582,
589,565,586,561,585,564,595,586,571,585,565,557,564,599,599,599,
598,581,578,554,599,564,582,586,579,568,555,554,579,581,572,586,
561,579,554,568,558,555,585,572,599,598,589,599,599,568,598,554,
554,599,561,555,599,596,561,574,575,558,554,599,557,586,557,557,
585,562,557,555,581,564,574,557,575,582,561,588,564,565,568,586,
575,554,588,592,581,575,568,568,595,578,571,592,557,578,588,586,
582,595,557,582,596,558,561,598,575,561,558,592,598,579,596,557,
558,564,592,599,557,586,598,588,571,564,595,562,565,565,574,575
</chunk>
   <chunk x="-912" y="224" width="16" height="16">
592,572,579,581,568,565,562,588,586,554,561,554,568,581,592,574,
554,554,596,589,589,554,561,582,581,568,568,595,581,562,588,586,
571,575,586,562,579,562,579,586,554,592,588,599,554,579,582,585,
578,586,586,574,596,572,568,557,595,585,554,585,571,592,562,568,
565,581,598,555,589,564,582,579,561,555,561,598,572,558,572,586,
598,582,596,564,555,592,555,596,562,554,581,578,595,558,582,574,
572,585,572,578,561,572,554,585,564,554,565,574,574,571,574,572,
558,574,596,555,578,561,581,599,568,589,561,564,592,572,557,581,
588,557,565,578,555,557,599,581,558,565,579,572,581,599,557,575,
555,554,575,588,586,565,564,586,592,571,581,599,561,592,598,579,
558,572,572,588,568,568,588,592,571,578,598,572,579,574,564,564,
555,557,582,592,589,575,574,564,561,586,581,599,557,596,578,568,
571,562,558,568,555,581,582,561,572,582,575,592,571,596,579,555,
562,592,596,589,568,579,585,582,572,595,599,568,592,586,572,588,
554,574,599,575,568,578,575,598,579,595,586,589,571,578,589,561,
596,585,588,558,595,564,582,582,579,555,575,598,555,596,564,561
</chunk>
   <chunk x="-896" y="224" width="16" height="16">
592,555,561,589,568,574,565,565,562,572,592,582,561,579,579,586,
588,554,575,579,578,589,595,585,581,578,555,555,582,562,555,562,
558,589,574,588,599,592,581,598,561,565,571,571,561,561,562,595,
578,598,561,586,572,578,571,557,598,599,564,595,564,572,581,599,
562,557,568,558,582,578,582,564,564,571,558,572,574,592,571,586,
574,571,598,579,565,596,578,581,571,568,588,571,578,581,557,578,
572,568,572,586,582,557,586,574,596,581,571,571,595,564,582,588,
599,585,568,572,588,582,596,598,581,582,585,575,562,561,558,588,
562,562,586,575,585,579,582,575,588,564,598,561,554,592,558,598,
592,562,558,564,589,558,561,588,595,598,575,558,554,599,581,599,
582,564,598,574,554,572,596,562,575,565,568,581,582,557,557,579,
579,592,585,574,558,558,574,589,565,554,585,595,574,558,574,554,
581,579,571,579,579,582,581,578,599,564,564,599,578,574,565,565,
571,582,554,582,561,564,578,558,568,562,565,596,586,571,592,585,
555,557,571,568,564,574,586,572,571,592,589,588,571,574,562,592,
586,581,585,592,598,589,575,595,585,578,572,592,555,599,578,586
</chunk>
   <chunk x="-880" y="224" width="16" height="16">
564,579,595,561,579,555,562,595,572,599,595,581,575,565,574,582,
595,571,585,585,578,596,575,588,595,596,572,599,595,582,589,582,
585,575,579,599,598,579,555,558,592,572,562,588,562,586,572,589,
599,579,565,568,557,592,578,571,555,574,585,599,578,555,579,568,
596,572,579,588,579,557,578,568,578,586,554,595,598,555,558,581,
555,578,579,586,555,589,588,582,568,596,582,555,592,596,582,557,
598,578,579,558,571,561,561,558,572,554,575,555,592,562,561,558,
599,592,596,562,572,554,568,558,579,572,585,558,592,579,585,575,
589,572,565,579,582,592,578,599,598,558,582,568,575,598,586,598,
585,557,598,558,599,589,562,562,571,575,571,596,574,599,585,554,
575,595,575,586,557,564,564,571,574,595,596,579,578,599,592,554,
582,561,554,568,579,596,575,599,555,565,598,585,565,595,582,592,
579,582,596,599,561,581,592,565,571,599,592,589,595,592,568,561,
581,589,589,595,581,596,589,564,568,565,588,561,574,579,595,574,
561,579,574,557,589,592,599,554,558,572,555,575,595,575,596,589,
599,554,578,598,568,572,595,558,578,562,568,581,565,581,581,562
</chunk>
   <chunk x="-864" y="224" width="16" height="16">
596,565,595,582,581,588,585,555,595,599,586,586,571,581,574,571,
558,574,575,596,585,592,578,578,582,578,579,572,579,586,592,568,
586,588,589,586,579,585,562,565,596,574,575,589,568,554,568,579,
557,561,585,588,574,565,571,582,558,561,554,554,561,557,578,596,
554,599,585,565,562,575,585,571,578,598,578,565,564,599,575,579,
574,557,599,562,561,558,592,579,555,558,565,557,589,596,574,572,
558,555,561,565,572,564,592,558,588,555,561,586,578,589,585,561,
599,568,598,568,579,575,578,592,557,578,586,574,564,582,575,554,
562,558,578,599,571,582,555,554,568,599,598,575,571,571,581,562,
581,564,578,572,565,554,554,575,578,596,579,586,574,581,561,586,
595,568,598,588,598,595,557,561,592,598,579,592,554,586,571,572,
599,589,598,571,598,599,579,571,557,554,599,579,592,554,578,599,
561,598,564,575,581,582,586,598,574,582,595,586,582,578,555,585,
585,582,596,557,598,555,564,557,586,596,565,571,557,595,596,557,
555,588,555,561,555,558,581,582,565,572,562,565,564,565,582,575,
558,554,568,599,582,598,575,562,595,582,562,571,571,571,568,572
</chunk>
   <chunk x="-848" y="224" width="16" height="16">
558,582,564,579,571,582,0,0,0,0,0,0,0,0,0,0,
561,592,585,595,579,579,0,0,0,0,0,0,0,0,0,0,
572,557,586,596,578,586,0,0,0,0,0,0,0,0,0,0,
589,582,579,582,585,599,0,0,0,0,0,0,0,0,0,0,
568,575,595,554,595,596,0,0,0,0,0,0,0,0,0,0,
561,561,561,581,557,582,0,0,0,0,0,0,0,0,0,0,
562,574,585,588,596,557,0,0,0,0,0,0,0,0,0,0,
557,557,592,564,581,568,0,0,0,0,0,0,0,0,0,0,
557,578,565,562,575,562,0,0,0,0,0,0,0,0,0,0,
558,582,561,599,554,585,0,0,0,0,0,0,0,0,0,0,
595,572,586,575,568,572,0,0,0,0,0,0,0,0,0,0,
564,572,574,558,557,596,0,0,0,0,0,0,0,0,0,0,
595,599,581,572,557,564,0,0,0,0,0,0,0,0,0,0,
558,582,592,592,555,558,0,0,0,0,0,0,0,0,0,0,
561,599,589,561,596,575,0,0,0,0,0,0,0,0,0,0,
592,575,589,568,581,561,0,0,0,0,0,0,0,0,0,0
</chunk>
   <chunk x="-1344" y="240" width="16" height="16">
0,0,0,0,0,0,0,0,0,0,0,0,0,0,0,0,
0,0,0,0,0,0,0,0,0,0,0,0,0,0,0,0,
0,0,0,0,0,0,0,0,0,0,0,0,0,0,0,0,
0,0,0,0,0,0,0,0,0,0,0,0,0,0,0,0,
0,0,0,0,0,0,0,0,0,0,0,0,0,0,0,0,
0,0,0,0,0,0,0,0,0,0,0,0,0,0,0,0,
0,0,0,0,0,0,0,0,0,0,0,0,0,0,0,0,
0,0,0,0,0,0,0,0,0,0,0,0,0,0,0,0,
0,0,0,0,0,0,0,0,0,0,0,0,0,0,0,0,
0,0,0,0,0,0,0,0,0,0,0,0,0,0,0,0,
0,0,0,0,0,0,0,0,0,0,0,0,0,0,598,0,
0,0,0,0,0,0,0,0,0,0,0,0,0,0,568,0,
0,0,0,0,0,0,0,0,0,0,0,0,0,0,0,564,
0,0,0,0,0,0,0,0,0,0,0,0,0,0,0,0,
0,0,0,0,0,0,0,0,0,561,586,582,565,572,557,575,
0,0,0,0,0,0,0,0,0,579,557,581,571,598,575,562
</chunk>
   <chunk x="-1328" y="240" width="16" height="16">
0,0,0,0,0,0,0,0,592,562,595,562,557,572,599,571,
0,0,0,0,0,0,0,0,571,557,572,562,574,575,581,586,
0,0,0,0,0,0,0,0,568,588,599,558,565,599,562,589,
0,0,0,0,0,0,0,0,562,585,586,568,572,598,592,595,
0,0,0,0,0,0,0,0,599,571,557,575,599,595,562,585,
0,0,0,0,0,0,0,0,561,598,568,586,592,561,558,592,
0,0,0,0,0,0,0,0,589,574,558,564,581,557,588,589,
0,0,0,0,0,0,0,0,596,557,558,574,557,575,575,575,
0,0,0,0,0,0,0,0,572,565,585,572,568,581,562,575,
0,0,0,0,0,0,0,0,568,589,599,572,596,585,599,599,
0,0,0,0,0,0,0,0,0,0,0,0,0,0,0,0,
0,0,0,0,0,0,0,0,0,0,0,0,0,0,0,0,
0,0,0,0,0,0,0,0,0,0,0,0,0,0,0,0,
568,0,0,0,0,0,0,0,0,0,0,0,0,0,0,0,
572,589,561,554,557,589,588,588,555,598,589,598,588,592,589,554,
589,554,582,582,579,554,578,589,581,555,565,558,572,596,599,599
</chunk>
   <chunk x="-1312" y="240" width="16" height="16">
599,582,582,568,595,599,557,596,571,575,565,595,0,0,0,0,
565,568,582,572,582,565,574,574,574,574,596,558,0,0,0,0,
589,595,561,561,598,564,557,598,599,562,595,589,0,0,0,0,
595,574,568,565,575,572,564,599,557,561,598,592,0,0,0,0,
557,592,568,581,581,564,588,564,592,561,586,557,0,0,0,0,
596,581,581,599,561,564,599,598,575,592,568,562,0,0,0,0,
561,558,595,558,568,558,564,568,568,598,589,558,0,0,0,0,
586,558,598,557,575,589,592,565,595,568,575,589,0,0,0,0,
596,581,571,561,572,582,589,598,589,561,599,568,0,0,0,0,
571,592,589,574,572,575,568,581,564,582,564,592,0,0,0,0,
0,0,0,0,0,0,0,0,0,0,0,0,0,0,0,0,
0,0,0,0,0,0,0,0,0,0,0,0,0,0,0,0,
0,0,0,0,0,0,0,0,0,0,0,0,574,572,598,561,
0,0,0,0,0,0,0,0,595,598,574,596,0,0,0,0,
598,555,595,557,585,588,598,596,0,0,0,0,0,0,0,0,
585,554,571,554,589,554,0,0,0,0,0,0,0,0,0,0
</chunk>
   <chunk x="-1296" y="240" width="16" height="16">
0,0,0,0,0,0,0,0,0,0,0,0,0,0,0,0,
0,0,0,0,0,0,0,0,0,0,0,0,0,0,0,0,
0,0,0,0,0,0,0,0,0,0,0,0,0,0,0,0,
0,0,0,0,0,0,0,0,0,0,0,0,0,0,0,0,
0,0,0,0,0,0,0,0,0,0,0,0,0,0,0,0,
0,0,0,0,0,0,0,0,0,0,0,0,0,0,0,0,
0,0,0,0,0,0,0,0,0,0,0,0,0,0,0,0,
0,0,0,0,0,0,0,0,0,0,0,0,0,0,0,0,
0,0,0,0,0,0,0,0,0,0,0,0,0,0,0,0,
0,0,0,0,0,0,0,0,0,0,0,0,0,0,0,0,
0,0,0,0,0,0,0,0,0,0,0,0,0,0,0,0,
0,562,592,558,571,581,0,0,0,0,0,0,0,0,0,0,
598,0,0,0,0,0,572,564,0,0,0,0,0,0,0,0,
0,562,582,572,599,0,0,557,585,592,0,0,0,0,0,0,
586,562,0,0,557,598,557,564,0,595,598,0,0,0,0,0,
565,562,581,596,0,0,568,599,586,581,581,596,0,0,0,0
</chunk>
   <chunk x="-1056" y="240" width="16" height="16">
0,0,0,0,0,0,0,599,585,575,568,592,572,581,588,592,
0,0,0,0,0,0,0,568,555,557,555,581,595,582,555,581,
0,0,0,0,0,0,0,585,592,568,568,596,599,561,571,595,
0,0,0,0,0,0,0,575,554,562,592,571,555,581,581,592,
0,0,0,0,0,0,0,599,558,582,581,564,588,599,589,564,
0,0,0,0,0,0,0,578,557,582,585,568,568,572,589,598,
0,0,0,0,0,0,0,561,599,592,589,598,578,561,554,585,
0,0,0,0,0,0,0,586,557,599,574,557,575,581,565,571,
0,0,0,0,0,0,0,571,589,599,557,582,599,572,571,558,
0,0,0,0,0,0,0,589,565,561,592,561,599,598,555,582,
0,0,0,0,0,0,0,565,574,585,574,575,589,558,564,582,
0,0,0,0,0,0,0,565,579,564,575,565,575,592,558,581,
0,0,0,0,0,0,0,561,598,599,582,588,562,564,558,572,
0,0,0,0,0,0,0,564,561,564,596,586,582,565,568,592,
0,0,0,0,0,0,0,575,578,575,592,562,589,564,596,598,
0,0,0,0,0,0,0,582,558,557,568,565,592,578,595,558
</chunk>
   <chunk x="-1040" y="240" width="16" height="16">
588,558,554,581,582,585,586,592,571,586,589,557,588,578,588,581,
561,554,596,598,554,578,558,585,585,571,599,589,589,574,565,598,
555,595,572,572,589,579,574,562,582,555,599,558,562,585,598,598,
575,568,565,596,555,568,564,562,575,564,599,589,598,582,565,574,
561,565,598,562,588,554,582,562,557,561,588,575,581,586,571,562,
558,586,554,558,565,555,581,599,589,599,562,554,596,599,595,557,
589,561,571,564,586,572,558,564,579,562,595,554,588,574,582,592,
554,592,554,564,599,555,581,596,578,558,554,561,568,568,592,575,
585,588,575,579,585,589,578,565,582,555,581,589,589,581,589,571,
554,581,561,596,568,574,555,572,574,564,565,561,585,579,562,579,
575,564,565,561,554,562,581,555,588,571,571,582,586,581,579,599,
558,562,592,589,599,596,565,572,588,561,585,585,571,595,574,588,
571,557,596,564,589,564,592,562,555,589,585,582,578,557,571,596,
565,588,578,564,586,574,555,574,572,589,592,579,586,599,586,557,
561,572,555,592,598,555,564,562,588,565,557,564,561,579,558,571,
558,557,557,582,555,599,578,575,585,586,595,565,585,564,581,581
</chunk>
   <chunk x="-1024" y="240" width="16" height="16">
554,568,572,554,582,564,565,561,562,565,586,557,571,581,561,578,
596,562,579,571,586,574,596,562,581,572,588,571,578,599,568,561,
565,561,598,595,574,568,589,562,581,578,571,596,582,586,589,575,
592,589,578,574,586,578,555,578,565,568,586,579,558,585,565,558,
578,572,564,586,574,561,564,565,598,558,557,579,554,557,598,575,
589,581,595,572,562,558,599,564,562,574,555,557,582,557,565,582,
589,579,595,595,595,564,574,596,568,555,572,558,561,579,568,572,
555,565,575,574,574,575,582,561,555,585,595,562,558,588,585,565,
562,582,571,555,598,589,558,572,596,565,581,572,599,589,581,562,
555,561,595,572,599,578,561,571,564,562,575,592,579,599,572,578,
554,598,572,561,562,578,564,586,575,596,588,562,555,554,561,564,
572,555,578,596,599,568,575,596,554,565,588,585,599,579,561,561,
558,579,575,561,558,568,598,554,579,579,554,596,599,599,578,558,
571,579,561,557,561,588,592,572,585,565,557,561,599,579,589,557,
574,586,561,585,588,555,592,589,578,564,592,574,589,554,581,578,
581,579,574,572,586,589,571,568,585,579,564,599,555,568,568,568
</chunk>
   <chunk x="-1008" y="240" width="16" height="16">
575,599,582,596,557,595,554,581,575,575,582,554,598,589,579,582,
558,562,579,558,578,561,595,599,592,595,581,568,562,579,555,581,
588,581,555,555,565,598,554,575,561,558,596,565,564,565,578,571,
565,595,565,586,581,562,568,585,565,586,558,558,564,572,582,581,
578,588,578,599,586,564,585,575,557,586,582,598,582,589,589,572,
575,592,575,571,578,574,579,564,571,554,579,571,585,554,575,562,
568,589,558,562,596,558,588,596,582,589,564,558,561,579,598,555,
575,592,568,579,582,581,575,565,586,574,561,558,568,599,589,575,
582,589,596,592,592,571,585,592,578,596,564,578,586,561,555,598,
565,588,554,579,564,561,595,565,595,558,557,588,564,561,579,592,
572,588,564,575,586,585,565,558,571,575,599,565,564,558,562,595,
568,592,555,596,582,598,557,564,571,571,565,571,578,579,557,574,
585,585,598,589,565,596,588,574,564,579,561,568,558,582,561,571,
558,558,558,575,595,578,598,598,581,554,598,554,588,592,572,582,
588,554,565,579,579,575,598,599,578,578,588,592,555,554,596,555,
571,575,557,585,589,575,574,581,586,596,555,558,598,578,578,596
</chunk>
   <chunk x="-992" y="240" width="16" height="16">
581,571,595,571,578,555,555,554,586,555,558,565,599,595,568,558,
565,571,555,557,568,598,579,598,561,557,585,562,578,568,558,554,
595,568,586,586,582,568,554,598,555,575,564,598,592,578,574,564,
568,592,586,574,557,558,598,588,596,558,581,596,575,588,572,599,
565,575,595,565,564,571,599,555,585,598,555,565,575,578,578,595,
582,555,572,572,555,575,554,568,558,581,578,562,574,586,558,589,
574,588,588,581,568,586,598,564,568,575,562,562,558,595,555,561,
555,581,595,554,581,578,558,561,589,574,598,589,599,558,568,589,
592,586,581,575,575,596,592,578,588,575,571,564,575,596,558,589,
564,589,596,561,598,595,586,592,588,562,554,564,557,568,561,596,
571,571,581,572,595,565,571,564,564,596,565,572,589,599,574,578,
574,561,564,558,568,589,564,582,565,582,555,561,579,574,599,574,
582,592,568,565,561,592,581,578,595,596,596,592,562,579,561,598,
582,572,555,574,582,561,598,586,599,578,571,564,557,571,555,581,
564,554,554,581,554,557,555,579,554,562,596,585,589,579,598,588,
598,557,571,568,565,596,582,586,575,589,585,572,565,588,554,595
</chunk>
   <chunk x="-976" y="240" width="16" height="16">
565,568,575,578,585,598,598,555,564,592,554,571,592,561,598,558,
565,574,565,596,571,558,578,585,565,558,568,581,554,557,571,568,
564,595,595,585,561,586,558,557,599,585,558,592,568,588,554,599,
555,568,568,596,596,596,565,585,565,558,578,562,555,578,588,564,
561,574,574,581,555,565,578,596,589,565,582,555,595,564,579,568,
554,554,562,586,558,562,561,558,557,568,555,572,558,564,571,596,
571,586,589,581,581,571,585,599,589,579,592,598,565,568,575,598,
571,554,585,588,554,557,595,564,568,595,562,595,589,568,554,574,
557,568,579,581,588,578,598,589,554,557,579,555,558,578,588,585,
574,564,588,592,589,564,581,578,557,592,596,585,599,558,581,578,
589,565,557,589,561,596,564,589,568,586,588,582,561,572,574,555,
586,561,568,572,595,588,579,581,579,579,557,574,564,554,589,561,
595,596,555,561,571,565,578,598,585,561,599,562,578,582,575,554,
589,592,572,582,592,571,588,562,561,582,561,561,574,568,554,557,
589,555,557,554,561,568,572,557,598,586,568,561,589,572,561,585,
565,564,564,557,586,589,598,558,571,581,572,582,579,588,592,578
</chunk>
   <chunk x="-960" y="240" width="16" height="16">
596,574,554,571,575,599,574,595,564,564,574,562,562,572,564,582,
585,596,574,581,568,586,555,564,595,561,571,581,595,588,557,558,
565,562,574,586,568,582,595,571,581,589,595,568,592,575,578,579,
557,575,596,568,592,586,592,554,596,598,595,554,574,586,588,575,
578,574,562,582,575,581,585,575,579,581,564,572,585,571,586,555,
558,557,568,582,581,588,565,599,586,555,565,571,595,574,562,578,
579,582,582,588,599,586,599,558,572,564,589,554,582,558,562,574,
565,554,558,585,579,592,589,571,595,578,572,571,554,575,579,595,
565,561,565,557,578,592,578,581,562,595,595,598,564,598,572,558,
575,599,588,585,554,574,595,595,572,571,561,578,598,572,565,565,
572,598,561,564,575,581,596,565,586,586,579,562,572,575,599,599,
558,572,575,555,599,585,581,557,571,586,579,574,568,578,592,557,
579,585,588,581,575,595,579,571,579,592,565,574,558,599,555,555,
565,578,565,555,572,582,579,555,581,564,589,554,568,582,598,592,
571,598,574,581,585,598,578,579,568,588,562,574,586,572,557,588,
557,596,575,554,581,582,558,582,586,561,592,558,599,598,574,581
</chunk>
   <chunk x="-944" y="240" width="16" height="16">
589,561,554,574,564,585,564,579,555,585,589,589,564,581,557,599,
592,568,557,561,554,558,575,575,555,586,574,568,575,555,581,565,
599,575,572,558,572,575,586,581,596,579,575,579,592,555,579,582,
586,595,565,554,574,585,575,579,561,565,562,592,596,581,599,582,
568,578,589,574,579,596,568,589,574,574,578,586,572,557,574,561,
579,592,572,558,555,564,571,578,585,558,579,574,555,598,555,562,
581,596,558,568,578,558,558,565,571,586,568,586,596,575,589,592,
561,571,558,581,558,595,582,592,557,568,595,565,586,568,595,581,
598,596,564,562,575,555,575,564,564,585,585,596,578,595,579,596,
575,571,561,596,572,579,565,572,586,568,558,599,571,596,581,578,
582,592,558,575,574,585,598,557,558,598,599,568,575,571,571,574,
558,586,554,554,581,586,574,596,589,572,579,598,585,595,561,599,
565,586,599,582,578,557,558,579,598,598,558,579,561,581,589,574,
575,565,554,582,562,554,572,574,581,571,557,586,558,598,555,564,
595,557,558,599,554,575,565,595,561,598,588,599,578,581,554,562,
568,568,588,598,579,586,599,599,557,586,582,578,571,595,565,557
</chunk>
   <chunk x="-928" y="240" width="16" height="16">
571,596,592,595,596,564,558,564,561,581,564,578,575,568,557,586,
564,578,596,582,574,561,564,579,568,579,571,558,592,589,572,568,
599,599,554,586,574,574,589,561,599,588,574,565,578,595,557,582,
585,575,592,572,554,557,579,558,578,582,598,572,574,579,589,571,
561,582,558,558,598,596,599,564,572,589,596,571,595,565,588,571,
555,554,599,561,592,572,592,599,571,599,572,578,575,562,579,558,
596,578,554,562,581,596,582,588,572,578,557,555,574,585,592,588,
574,555,574,595,592,599,558,596,562,598,562,568,574,596,554,598,
588,557,575,555,598,557,598,599,561,574,598,589,555,586,585,579,
581,586,596,581,585,555,588,596,588,562,561,598,554,578,585,588,
564,564,558,565,589,589,581,581,571,572,596,575,562,562,596,555,
599,571,572,572,557,598,595,581,555,579,595,579,586,571,571,571,
599,585,589,575,572,581,574,558,571,558,579,558,599,586,578,596,
568,596,554,579,574,554,596,578,598,571,589,558,574,578,589,558,
555,571,579,554,558,555,586,561,561,578,557,595,564,568,585,596,
565,554,557,596,572,581,568,595,596,582,595,589,562,598,572,558
</chunk>
   <chunk x="-912" y="240" width="16" height="16">
571,599,598,554,578,558,575,554,579,585,578,579,572,568,578,575,
578,558,598,558,554,592,572,589,568,579,599,571,599,586,561,585,
592,568,581,588,598,589,588,555,571,596,586,586,589,579,586,571,
599,599,589,575,554,579,586,575,575,562,596,575,575,565,565,571,
571,562,589,555,554,564,588,561,555,572,554,592,557,554,598,562,
575,596,575,595,588,599,595,585,561,565,562,598,585,575,562,592,
554,598,572,558,562,555,564,554,565,581,578,595,555,572,588,585,
555,562,579,565,581,571,582,564,554,586,585,555,582,555,555,599,
586,592,599,557,582,568,564,561,562,595,575,558,599,555,599,562,
599,561,578,578,581,565,598,561,588,571,554,592,565,568,565,555,
585,585,578,598,588,558,575,554,568,575,557,555,564,596,596,574,
586,581,572,585,592,555,561,589,557,579,581,557,592,568,596,579,
554,588,555,574,585,554,561,592,564,586,557,596,571,579,579,586,
588,592,599,554,561,555,579,558,572,578,574,585,564,588,572,595,
589,585,554,561,558,589,564,554,586,575,575,564,555,581,574,557,
592,581,598,557,582,578,554,578,589,595,596,554,592,564,599,572
</chunk>
   <chunk x="-896" y="240" width="16" height="16">
557,572,554,574,589,592,598,571,586,571,575,572,575,592,575,588,
568,581,592,571,581,595,588,571,562,575,572,565,562,579,592,578,
561,554,578,574,586,588,568,579,598,596,595,588,589,579,562,586,
555,562,578,557,582,561,598,562,562,582,586,564,565,581,575,565,
579,589,575,565,582,582,582,581,579,555,579,579,589,568,579,592,
579,592,568,572,592,555,568,561,595,586,558,589,558,599,561,564,
554,579,599,595,589,588,558,582,574,588,575,581,589,595,582,562,
574,564,571,579,575,568,558,572,575,596,568,565,596,565,585,599,
599,579,579,571,582,585,575,588,592,579,589,562,574,565,579,581,
598,578,555,557,589,579,578,564,579,581,561,572,562,585,592,595,
585,582,574,582,571,562,588,554,557,554,557,571,574,554,592,596,
554,564,568,562,595,557,564,565,572,557,562,571,571,592,554,571,
571,592,589,554,572,592,574,575,574,581,561,579,586,598,574,598,
589,574,562,592,571,582,586,557,565,557,558,581,575,564,574,578,
582,579,586,572,595,572,588,564,574,586,598,555,595,579,572,596,
561,581,557,562,579,581,568,565,555,561,554,562,568,561,555,595
</chunk>
   <chunk x="-880" y="240" width="16" height="16">
598,565,579,565,596,568,561,588,579,572,581,558,561,572,592,555,
562,571,557,586,572,588,557,589,574,598,554,585,561,578,578,592,
579,596,564,565,562,562,554,575,588,588,558,595,555,561,585,562,
572,592,564,561,578,572,555,579,571,599,561,572,585,579,585,585,
557,595,585,588,557,568,578,574,595,592,574,585,589,555,557,599,
579,592,581,575,564,568,575,565,575,564,575,564,578,589,585,595,
568,571,568,571,568,574,572,581,564,561,595,555,571,565,555,572,
568,572,558,564,558,557,592,579,582,558,579,557,562,568,598,581,
582,598,578,582,588,595,558,571,575,564,581,599,561,571,555,599,
574,586,574,568,561,579,582,564,565,585,575,575,588,554,562,595,
598,581,571,565,598,572,592,582,571,592,571,582,592,564,581,588,
598,565,588,589,588,586,595,596,581,586,565,582,589,585,586,598,
572,572,599,596,568,555,565,586,571,598,589,596,555,596,596,565,
575,562,578,574,558,596,579,592,561,571,565,586,592,598,582,571,
592,592,578,558,575,565,557,564,562,574,586,557,561,575,568,599,
558,562,578,561,592,555,572,592,568,574,562,581,558,578,581,571
</chunk>
   <chunk x="-864" y="240" width="16" height="16">
564,578,562,582,555,555,581,562,595,557,571,575,592,595,574,592,
586,588,558,592,579,579,592,575,581,599,574,598,564,599,575,557,
589,599,596,585,555,561,572,595,554,557,574,586,585,571,561,595,
578,579,585,564,568,582,557,592,582,596,592,557,572,595,554,572,
565,599,588,585,554,571,575,565,585,595,565,572,572,592,574,574,
592,557,588,564,595,586,568,574,554,598,582,557,565,558,578,596,
564,588,598,565,561,596,581,592,581,565,598,581,598,598,554,581,
565,586,589,598,554,561,561,598,558,582,562,568,561,596,588,595,
581,586,581,562,564,555,558,596,579,595,562,578,585,561,578,571,
557,557,575,595,562,571,554,554,555,555,557,596,555,578,561,588,
558,585,565,585,598,565,596,592,579,554,564,588,586,578,574,554,
578,599,555,579,581,562,579,598,574,575,561,588,578,579,575,555,
557,599,562,562,571,596,586,578,598,565,579,582,578,554,592,555,
558,586,599,558,575,592,581,589,564,562,582,564,595,562,598,592,
565,586,565,579,598,564,572,557,561,586,596,574,596,555,575,558,
598,561,582,558,588,575,581,598,557,557,588,565,596,582,558,596
</chunk>
   <chunk x="-848" y="240" width="16" height="16">
585,582,562,579,586,562,0,0,0,0,0,0,0,0,0,0,
585,585,598,561,588,574,0,0,0,0,0,0,0,0,0,0,
564,581,568,564,588,582,0,0,0,0,0,0,0,0,0,0,
578,561,557,562,589,561,0,0,0,0,0,0,0,0,0,0,
555,581,564,564,572,589,0,0,0,0,0,0,0,0,0,0,
574,558,561,571,562,572,0,0,0,0,0,0,0,0,0,0,
592,568,561,595,571,557,0,0,0,0,0,0,0,0,0,0,
572,581,564,588,558,595,0,0,0,0,0,0,0,0,0,0,
562,555,564,571,588,596,0,0,0,0,0,0,0,0,0,0,
598,558,588,557,574,572,0,0,0,0,0,0,0,0,0,0,
555,589,585,599,575,592,0,0,0,0,0,0,0,0,0,0,
588,596,596,579,558,554,0,0,0,0,0,0,0,0,0,0,
557,578,554,589,554,564,0,0,0,0,0,0,0,0,0,0,
565,572,568,589,561,571,0,0,0,0,0,0,0,0,0,0,
572,586,568,578,592,592,0,0,0,0,0,0,0,0,0,0,
568,599,565,557,588,595,0,0,0,0,0,0,0,0,0,0
</chunk>
   <chunk x="-1360" y="256" width="16" height="16">
0,0,0,0,0,0,0,0,0,0,0,0,0,0,0,0,
0,0,0,0,0,0,0,0,0,0,0,0,0,0,0,0,
0,0,0,0,0,0,0,0,0,0,0,0,0,0,0,0,
0,0,0,0,0,0,0,0,0,0,0,0,0,0,0,0,
0,0,0,0,0,0,0,0,0,0,0,0,0,0,0,0,
0,0,0,0,0,0,0,585,571,565,592,588,592,571,574,557,
0,0,0,0,0,0,0,578,599,575,589,558,596,578,581,558,
0,0,0,0,0,0,0,598,564,572,575,565,565,564,581,579,
0,0,0,0,0,0,0,568,575,588,599,557,588,565,581,572,
0,0,0,0,0,0,0,571,585,589,554,574,571,562,565,599,
0,0,0,0,0,0,0,599,585,561,561,568,579,554,588,598,
0,0,0,0,0,0,0,565,574,571,574,598,579,589,599,558,
0,0,0,0,0,0,0,558,599,572,571,579,575,562,574,586,
0,0,0,0,0,0,0,554,562,599,575,565,599,589,562,561,
0,0,0,0,0,0,0,579,558,578,554,575,561,599,596,554,
0,0,0,0,0,0,0,586,564,588,554,568,571,561,574,565
</chunk>
   <chunk x="-1344" y="256" width="16" height="16">
0,0,0,0,0,0,0,0,0,555,571,578,595,599,582,599,
0,0,0,0,0,0,0,0,0,561,561,562,598,572,571,572,
0,0,0,0,0,0,0,0,0,574,572,588,586,589,586,562,
0,0,0,0,0,0,0,0,0,575,596,592,565,599,596,585,
0,0,0,0,0,0,0,0,0,585,585,574,585,554,599,599,
586,582,565,565,572,581,558,561,555,571,572,599,585,572,572,585,
558,598,564,595,558,589,595,571,581,574,568,598,599,588,592,599,
592,561,595,574,574,598,572,565,568,596,557,581,585,596,564,561,
579,579,592,575,579,589,599,568,585,581,555,586,589,572,557,574,
568,575,558,554,558,558,575,581,595,557,575,581,596,565,562,557,
562,565,589,572,565,557,565,574,557,572,592,561,568,599,585,572,
588,571,582,582,558,586,571,592,592,565,595,586,586,557,564,558,
574,565,596,572,554,586,598,582,589,588,572,561,574,564,565,574,
557,554,596,579,554,595,586,554,565,578,595,585,596,598,589,599,
564,582,582,582,586,596,568,572,595,568,589,571,579,596,592,586,
579,596,588,588,568,554,582,588,596,562,574,585,565,557,564,571
</chunk>
   <chunk x="-1328" y="256" width="16" height="16">
592,561,565,575,595,596,575,575,599,582,555,596,599,582,596,588,
565,565,589,588,575,562,565,588,595,554,588,568,557,589,555,585,
561,575,564,596,589,574,574,592,554,568,578,554,561,586,554,562,
562,595,586,596,574,558,555,598,592,558,557,557,572,598,575,598,
564,588,562,574,555,562,596,568,558,588,595,578,596,558,586,596,
595,595,574,558,582,586,562,599,574,596,592,588,589,557,561,592,
571,585,592,578,588,574,581,568,596,557,581,596,555,592,564,592,
555,562,568,581,581,586,572,557,564,572,592,572,564,589,596,582,
565,585,585,586,564,579,562,588,585,558,568,572,562,554,579,588,
595,578,558,588,557,557,571,595,599,578,579,554,595,554,592,589,
596,565,598,575,558,561,557,554,568,571,579,585,589,599,575,582,
558,562,571,564,592,588,582,564,562,555,557,572,572,592,578,588,
586,586,575,595,595,599,578,557,564,555,581,561,582,564,568,575,
572,586,568,555,572,558,589,572,596,582,565,562,565,572,585,558,
592,555,562,572,599,596,592,581,586,558,578,565,582,571,555,582,
585,582,562,581,571,589,575,555,564,561,599,579,557,586,589,599
</chunk>
   <chunk x="-1312" y="256" width="16" height="16">
585,564,568,585,555,595,0,0,0,0,0,0,0,0,0,0,
599,571,565,585,598,558,0,0,0,596,598,596,568,599,588,565,
554,588,572,575,581,586,588,599,572,568,589,575,571,562,595,582,
554,554,564,555,578,571,596,575,554,588,599,571,599,571,596,596,
582,557,554,568,596,557,562,562,585,598,568,599,561,568,558,599,
554,595,561,589,585,589,554,578,596,561,564,596,592,595,555,589,
588,568,575,562,595,595,588,582,578,564,564,574,574,554,558,588,
582,574,585,589,586,585,568,599,592,557,575,557,589,565,558,554,
579,562,578,555,555,598,596,595,588,596,579,582,588,565,558,599,
578,585,581,564,564,572,582,568,557,596,568,595,596,581,578,558,
592,582,574,565,596,581,585,562,589,595,592,571,562,572,555,588,
571,557,564,592,599,588,574,574,561,555,571,572,595,595,578,598,
596,579,554,598,588,589,595,568,558,595,564,554,585,557,599,595,
592,598,592,558,592,571,588,554,579,588,582,575,564,581,555,582,
598,565,578,572,554,579,571,599,572,571,575,589,588,585,581,592,
585,596,581,595,568,599,557,558,599,585,598,574,572,592,558,581
</chunk>
   <chunk x="-1296" y="256" width="16" height="16">
599,592,0,0,0,565,599,581,0,0,562,596,0,0,0,0,
575,586,575,568,595,598,592,585,0,574,592,598,571,0,0,0,
571,565,586,599,558,572,561,558,561,0,558,586,0,571,0,0,
586,586,598,568,596,582,598,557,565,592,586,558,588,568,596,571,
582,571,592,598,554,581,582,589,574,574,596,572,581,554,565,599,
554,554,598,585,561,589,585,586,562,581,585,585,598,562,599,592,
564,599,581,562,554,574,592,571,575,561,565,579,579,575,586,599,
568,554,596,558,596,581,595,595,599,589,562,558,557,561,586,572,
582,585,586,564,599,554,568,571,564,595,596,588,589,574,568,598,
575,595,582,592,582,558,595,555,598,589,588,574,575,582,558,558,
568,595,579,579,579,579,589,557,554,588,572,557,555,578,555,574,
595,598,599,595,555,588,585,598,571,579,562,581,586,582,589,565,
562,572,586,582,598,585,565,595,588,592,562,592,588,595,582,599,
561,592,572,599,565,588,581,579,579,592,565,561,562,582,575,571,
565,562,554,571,578,596,558,574,582,564,562,578,558,572,574,581,
565,554,574,585,562,586,582,558,562,599,571,562,557,599,561,561
</chunk>
   <chunk x="-1280" y="256" width="16" height="16">
0,0,0,0,0,0,0,0,0,0,0,0,0,0,0,0,
0,0,0,0,0,0,0,0,0,0,0,0,0,0,0,0,
0,0,0,0,0,0,0,0,0,0,0,0,0,0,0,0,
554,588,554,0,0,0,0,581,572,575,579,564,589,568,592,582,
554,562,586,0,0,0,0,588,596,598,589,592,595,561,571,588,
592,588,564,581,572,557,578,558,571,578,586,588,579,586,568,554,
558,589,592,588,585,595,579,579,578,586,568,571,595,578,586,581,
579,565,596,588,579,596,574,561,585,555,582,555,572,596,558,562,
564,564,578,562,598,561,565,595,598,589,562,572,564,572,555,561,
578,592,581,572,564,581,568,561,564,578,561,572,561,578,599,578,
571,574,572,572,582,598,571,585,574,574,562,592,574,581,574,582,
561,599,575,565,592,589,574,561,598,568,564,568,558,565,568,558,
562,581,561,595,589,595,555,562,554,565,585,582,568,581,575,572,
572,578,557,564,565,568,574,574,586,578,568,588,586,578,578,565,
562,586,596,572,562,578,571,557,592,554,557,581,564,571,582,558,
582,586,554,592,589,586,554,582,574,599,574,596,582,588,599,555
</chunk>
   <chunk x="-1264" y="256" width="16" height="16">
0,0,0,0,0,0,0,0,0,0,0,0,0,0,0,0,
0,0,0,0,0,0,0,0,0,0,0,0,0,0,575,575,
0,0,0,0,0,0,0,0,0,0,0,0,0,0,574,571,
558,581,582,581,557,558,568,564,558,575,578,558,557,555,588,582,
557,557,589,574,589,582,599,561,575,565,558,595,568,595,574,589,
598,585,598,558,554,581,581,579,574,575,579,555,558,578,579,572,
582,581,592,585,589,565,555,585,592,562,586,589,555,562,554,585,
571,579,562,588,598,574,561,592,589,582,574,572,581,575,564,581,
574,561,585,589,558,558,582,575,586,595,572,592,571,598,595,558,
564,558,585,564,561,572,579,564,595,599,564,586,568,596,588,564,
592,555,599,564,565,572,582,598,561,578,565,585,571,586,565,598,
596,564,561,555,588,582,561,592,592,586,581,574,558,564,562,588,
572,595,589,562,565,581,562,579,578,561,596,554,595,586,564,596,
592,572,578,558,555,592,562,588,579,589,598,589,562,564,588,561,
561,599,595,564,589,565,568,582,557,592,561,568,557,571,592,579,
574,585,598,565,578,585,557,565,592,555,579,586,564,557,596,562
</chunk>
   <chunk x="-1248" y="256" width="16" height="16">
0,0,0,0,0,0,0,0,0,0,0,0,0,0,0,0,
574,558,598,599,579,599,588,568,571,558,557,589,598,574,581,565,
599,565,565,571,558,575,561,578,558,554,582,554,589,581,558,586,
579,568,557,596,562,554,571,574,598,564,564,596,585,575,568,557,
571,555,555,557,578,554,596,555,561,562,598,565,581,555,558,571,
589,588,581,571,565,575,558,589,558,586,585,568,562,595,572,585,
592,575,554,554,592,589,557,575,588,595,599,592,586,562,585,557,
572,578,558,561,558,585,582,588,589,592,585,586,596,592,581,568,
589,565,572,565,561,582,582,568,585,572,564,561,565,564,557,571,
582,585,588,585,599,561,581,586,565,558,572,581,558,555,561,555,
582,578,561,557,572,568,595,568,574,599,557,557,595,586,589,592,
585,579,598,592,571,571,599,581,564,578,572,575,574,574,582,572,
589,561,586,574,565,581,588,579,582,586,586,599,554,571,574,572,
554,595,598,554,596,561,589,598,562,564,596,575,596,596,596,574,
582,568,575,582,588,586,579,562,558,598,598,586,578,578,558,557,
554,596,582,582,555,558,565,581,562,595,554,557,579,565,571,568
</chunk>
   <chunk x="-1232" y="256" width="16" height="16">
0,0,0,0,0,0,0,0,0,0,0,0,0,0,0,0,
554,574,588,579,599,568,575,557,568,565,599,558,562,595,592,571,
589,596,557,589,579,572,564,565,568,589,562,595,585,561,554,558,
595,558,582,562,561,557,582,586,554,595,565,565,571,564,598,571,
561,585,588,571,599,574,565,595,596,555,555,592,592,562,588,579,
579,595,582,581,564,562,558,581,596,581,589,586,598,579,564,558,
561,568,581,595,564,595,571,581,586,578,558,595,554,562,599,595,
579,592,565,588,568,598,565,562,565,574,592,598,588,554,574,562,
599,581,585,571,558,562,558,589,558,571,575,572,578,585,572,565,
589,598,598,595,579,586,574,557,558,599,581,592,572,585,596,581,
565,571,579,555,592,596,562,589,565,596,572,557,572,579,595,565,
571,585,557,575,589,574,596,554,571,565,572,562,565,599,574,562,
554,557,562,562,581,557,595,581,558,585,589,571,555,588,588,578,
575,588,592,578,588,568,572,564,561,585,554,568,562,582,585,565,
558,562,568,588,561,586,586,562,595,596,565,592,578,561,574,568,
588,558,578,561,589,572,571,554,582,568,578,554,555,581,582,558
</chunk>
   <chunk x="-1216" y="256" width="16" height="16">
0,0,0,0,0,0,0,0,0,0,0,0,0,0,0,0,
596,568,558,575,581,568,562,589,0,0,0,0,0,0,0,0,
582,578,568,565,579,598,565,568,0,0,0,0,0,0,0,0,
599,599,554,588,598,565,557,565,0,0,0,0,0,0,0,0,
565,572,564,586,592,595,561,571,0,0,0,0,0,0,0,0,
575,579,599,586,558,557,572,588,565,558,564,558,585,561,586,588,
554,579,592,598,572,554,595,562,572,588,595,554,588,585,581,557,
558,565,574,592,568,599,578,598,572,574,586,574,596,554,555,555,
575,571,575,595,564,572,585,586,581,585,595,574,595,579,586,598,
565,599,575,568,582,575,558,562,589,598,586,581,579,555,568,571,
564,572,561,589,554,571,574,586,558,575,572,558,598,571,582,585,
598,571,574,588,555,557,561,585,599,557,589,578,586,568,568,589,
571,571,592,592,599,585,592,571,568,571,586,554,555,558,571,585,
596,575,562,579,554,562,596,558,562,562,598,557,595,581,558,574,
578,554,578,586,598,571,581,589,596,575,586,561,575,579,565,598,
555,565,555,574,574,565,586,578,589,585,592,581,578,581,581,581
</chunk>
   <chunk x="-1200" y="256" width="16" height="16">
0,0,0,0,0,0,0,0,0,0,0,0,0,0,0,0,
0,0,0,0,0,0,0,0,0,0,0,0,0,0,0,0,
0,0,0,0,0,0,0,0,0,0,0,0,0,0,0,0,
0,0,0,0,0,0,0,0,0,0,0,0,0,0,0,0,
0,0,0,0,0,0,0,0,0,0,0,0,0,0,0,0,
588,599,581,598,571,596,565,582,581,572,589,564,572,598,578,588,
588,554,589,555,579,578,585,581,592,588,595,575,585,561,565,596,
595,561,568,554,585,598,599,564,596,598,579,578,558,572,554,585,
588,568,582,589,555,578,599,595,595,572,596,596,585,558,589,582,
592,575,561,554,575,565,578,572,565,595,562,571,575,596,585,568,
575,581,557,571,557,574,595,568,574,599,557,582,575,586,595,557,
585,555,571,575,578,579,582,558,586,586,574,586,555,596,558,571,
598,565,557,589,564,568,562,555,558,581,562,579,598,586,562,595,
598,572,575,565,592,592,562,582,568,586,588,596,578,596,596,578,
568,557,572,568,565,599,572,595,578,558,554,572,565,592,574,598,
557,599,562,581,565,598,596,579,554,599,555,555,586,596,598,578
</chunk>
   <chunk x="-1184" y="256" width="16" height="16">
0,0,0,0,0,0,0,0,0,0,0,0,0,0,0,0,
0,0,0,0,0,0,0,0,0,0,0,0,0,0,0,0,
0,0,0,0,0,0,0,0,0,0,0,0,0,0,0,0,
0,0,0,0,0,0,0,0,0,0,0,0,0,0,0,0,
0,0,0,0,0,0,0,0,0,0,0,0,0,0,0,0,
598,579,574,592,562,564,598,554,568,596,578,598,564,599,558,574,
557,554,599,599,579,557,558,592,554,596,557,585,596,557,575,581,
574,582,562,575,562,579,578,564,562,555,582,599,571,598,598,561,
565,561,582,554,578,585,568,555,599,579,589,588,554,561,599,562,
595,578,558,558,581,588,557,588,572,581,589,575,565,581,596,575,
588,564,598,571,585,589,585,581,582,564,582,596,562,578,581,575,
558,585,574,554,571,586,586,557,575,595,595,568,572,578,562,568,
574,555,579,579,589,585,574,581,558,562,555,599,562,575,592,578,
596,554,582,598,589,571,586,562,582,598,565,575,562,589,554,595,
585,596,568,565,558,565,598,599,557,554,581,586,588,562,581,599,
578,571,561,575,578,578,598,589,568,578,574,586,588,579,586,572
</chunk>
   <chunk x="-1168" y="256" width="16" height="16">
0,0,0,0,0,0,0,0,0,0,0,0,0,0,0,0,
0,0,0,0,0,0,0,0,0,0,0,0,0,0,0,0,
0,0,0,0,0,0,0,0,0,0,0,0,0,0,0,0,
0,0,0,0,0,0,0,0,0,0,0,0,0,0,0,0,
0,0,0,0,0,0,0,0,0,0,0,0,0,0,0,0,
575,592,557,572,568,562,578,588,565,595,581,554,579,596,0,0,
575,579,558,588,582,598,592,588,571,564,554,586,575,554,0,0,
589,595,592,581,571,564,575,588,575,592,564,585,578,564,0,0,
588,554,574,592,578,592,575,579,555,558,574,564,562,595,0,0,
588,554,561,557,578,561,572,596,579,588,582,571,555,596,0,0,
557,565,568,555,564,557,586,596,558,596,562,589,562,557,0,0,
599,579,579,582,599,598,599,588,564,571,586,585,579,562,0,0,
561,599,568,582,582,575,589,579,574,599,571,589,599,561,0,0,
585,555,574,585,565,592,568,588,585,562,557,561,574,561,0,0,
595,555,599,589,562,596,572,579,578,588,588,555,557,572,0,0,
564,575,558,565,581,561,589,581,582,582,599,557,581,596,0,0
</chunk>
   <chunk x="-1088" y="256" width="16" height="16">
0,0,0,0,0,0,0,0,0,0,0,0,0,0,0,0,
0,0,0,0,0,0,0,0,0,0,0,0,0,0,0,0,
0,0,0,0,0,0,0,0,0,0,0,0,0,0,0,0,
0,0,0,0,0,0,0,0,0,0,0,0,0,0,0,0,
0,0,0,0,0,0,0,0,0,0,0,0,0,0,0,0,
0,0,0,0,0,0,0,0,0,0,0,0,0,0,0,0,
0,0,0,0,0,0,0,0,0,0,0,0,0,0,0,0,
0,0,0,0,0,0,0,0,0,0,0,0,0,0,0,0,
0,0,0,0,0,0,0,0,0,0,0,0,0,0,0,0,
0,0,0,0,0,0,0,0,0,0,0,0,0,0,0,0,
0,0,0,0,0,0,0,0,0,0,0,0,0,0,0,0,
0,0,0,0,0,0,0,0,0,0,0,0,0,562,592,565,
0,0,0,0,0,0,0,0,0,0,0,0,0,562,582,596,
0,0,0,0,0,0,0,0,0,0,0,0,0,575,586,592,
0,0,0,0,0,0,0,0,0,0,0,0,0,565,555,581,
0,0,0,0,0,0,0,0,0,0,0,0,0,599,586,561
</chunk>
   <chunk x="-1072" y="256" width="16" height="16">
0,0,0,0,0,0,0,0,0,0,0,0,0,0,0,0,
0,0,0,0,0,0,0,0,0,0,0,0,0,0,0,0,
0,0,0,0,0,0,0,0,0,0,0,0,0,0,0,0,
0,0,0,0,0,0,0,0,0,0,0,0,0,0,0,0,
0,0,0,0,0,0,0,0,0,0,0,0,0,0,0,0,
0,0,0,0,0,0,0,0,0,0,0,0,0,0,0,0,
0,0,0,0,0,0,0,0,0,0,0,0,0,0,0,0,
0,0,0,0,0,0,0,0,0,0,0,0,0,0,0,0,
0,0,0,0,0,0,0,0,0,0,0,0,0,0,0,0,
0,0,0,0,0,0,0,0,0,0,0,0,0,0,0,0,
0,0,0,0,0,0,0,0,0,0,0,0,0,0,0,0,
598,561,565,561,588,564,575,568,574,595,555,575,562,581,574,574,
586,585,568,558,578,595,568,581,579,586,582,572,592,588,586,557,
599,598,571,592,585,592,579,578,554,598,581,588,588,589,592,574,
572,589,579,568,582,598,596,592,571,555,579,578,574,585,578,568,
582,598,586,589,572,557,596,574,588,589,554,554,581,598,595,571
</chunk>
   <chunk x="-1056" y="256" width="16" height="16">
0,0,0,0,0,0,0,589,578,574,557,599,589,574,572,582,
0,0,0,0,0,0,0,585,555,574,564,581,558,562,588,581,
0,0,0,0,0,0,0,585,585,558,586,581,562,561,582,564,
0,0,0,0,0,0,0,571,578,555,571,557,575,582,565,592,
0,0,0,0,0,0,0,589,568,572,572,596,586,572,571,581,
0,0,0,0,0,0,0,564,558,582,575,581,568,585,571,589,
0,0,0,0,0,0,0,598,571,586,568,558,592,558,565,582,
0,0,0,0,0,0,0,571,557,557,575,574,599,585,585,599,
0,0,0,0,0,0,0,562,558,562,562,571,554,575,581,596,
0,0,0,0,0,0,0,574,582,596,571,575,561,599,581,568,
0,0,0,0,0,0,0,599,598,557,589,588,571,572,571,599,
595,599,572,581,555,565,585,561,558,592,585,595,574,568,585,588,
558,588,588,575,589,571,581,562,598,572,575,574,561,557,596,571,
579,585,565,574,562,575,564,579,598,564,578,578,589,598,592,595,
572,574,568,575,578,599,579,554,582,589,558,585,588,572,599,589,
555,562,558,557,582,565,561,589,581,561,579,598,592,562,581,585
</chunk>
   <chunk x="-1040" y="256" width="16" height="16">
588,572,595,599,592,555,585,562,579,565,589,574,571,586,582,564,
572,568,571,558,555,557,592,599,596,572,575,581,568,575,581,564,
564,595,581,561,578,555,588,572,598,598,554,574,586,599,562,599,
564,581,579,589,554,564,565,598,564,589,586,571,565,554,598,564,
585,581,571,562,565,599,564,571,578,592,561,588,561,579,596,554,
588,579,558,588,565,557,561,571,589,598,558,599,562,582,579,561,
588,578,578,596,554,558,588,554,592,565,588,562,586,562,589,579,
592,575,558,575,571,558,581,571,565,574,579,596,596,574,574,558,
582,595,596,558,582,561,578,574,578,571,599,588,581,558,599,595,
564,572,561,555,558,564,592,581,554,557,578,562,571,565,564,586,
555,562,582,595,578,586,572,554,561,572,582,585,592,561,596,578,
574,579,555,589,599,574,588,582,558,568,562,578,579,582,564,596,
575,565,588,581,565,581,565,586,585,596,562,596,575,572,592,571,
578,554,599,589,586,588,596,558,568,586,572,557,595,579,598,575,
586,582,554,596,558,599,574,585,582,582,564,579,561,554,582,561,
582,565,578,586,562,579,565,596,554,585,564,575,586,588,574,554
</chunk>
   <chunk x="-1024" y="256" width="16" height="16">
561,596,598,561,581,598,578,578,555,585,575,555,592,557,592,554,
581,554,578,595,575,574,579,574,599,596,586,565,595,565,585,598,
562,588,579,557,575,557,586,564,574,578,557,588,588,557,561,575,
598,586,586,555,578,575,599,599,562,564,595,596,579,589,568,598,
574,595,592,589,568,595,599,562,588,579,582,561,579,599,555,557,
579,599,568,582,558,562,571,564,599,564,572,589,554,588,574,564,
571,575,572,554,598,562,595,572,581,596,558,599,575,585,562,592,
562,585,572,575,581,588,571,579,572,596,599,595,595,585,564,599,
589,578,582,595,586,581,592,579,574,578,595,561,568,557,562,582,
599,572,582,595,581,589,575,562,562,572,574,574,585,581,557,579,
554,592,599,581,562,555,557,558,574,572,578,558,568,554,562,598,
561,585,568,565,598,578,596,558,574,558,598,595,588,588,562,554,
561,578,586,554,558,572,574,558,586,561,589,562,579,558,581,579,
588,581,589,579,565,565,579,572,598,599,554,596,574,599,561,572,
557,574,574,589,592,562,579,578,582,595,554,599,558,554,595,582,
588,596,555,574,585,596,572,561,571,574,579,568,599,561,595,554
</chunk>
   <chunk x="-1008" y="256" width="16" height="16">
572,571,592,589,572,562,558,564,585,588,598,588,555,582,572,568,
581,562,568,585,585,575,585,592,574,596,596,599,574,557,572,574,
588,582,585,598,558,565,598,592,589,589,596,585,582,598,598,598,
565,579,571,595,557,561,586,592,558,565,578,585,568,589,598,581,
558,564,582,554,575,582,557,592,588,571,562,564,598,588,554,554,
588,568,592,578,574,575,572,568,561,589,579,585,579,585,596,575,
582,555,596,568,599,578,574,572,585,582,595,558,589,574,562,562,
574,562,575,585,574,565,575,596,588,582,574,582,557,595,588,562,
582,574,582,589,586,599,555,557,564,562,581,589,564,571,596,596,
585,586,595,581,571,571,564,596,561,592,557,578,568,565,599,571,
598,572,596,575,585,572,592,579,554,574,564,579,554,562,568,585,
561,586,598,582,575,581,572,558,562,578,582,571,595,595,564,585,
555,564,599,585,588,561,575,558,558,588,562,599,596,599,565,579,
555,581,596,562,575,586,571,588,578,575,564,558,564,557,596,582,
562,554,578,555,568,596,558,558,589,585,574,595,599,586,571,578,
561,571,579,582,585,572,565,599,562,561,562,588,586,565,592,555
</chunk>
   <chunk x="-992" y="256" width="16" height="16">
592,582,586,572,572,598,592,578,585,558,588,561,574,561,586,554,
574,596,565,555,598,599,571,561,561,595,596,565,554,557,592,588,
579,571,589,565,555,564,561,586,561,574,586,599,564,586,582,568,
586,586,564,588,598,589,596,568,554,586,572,562,599,565,575,564,
564,558,586,586,588,564,592,579,557,585,558,589,568,555,582,565,
588,581,578,588,585,586,585,595,554,554,581,575,582,572,582,562,
574,568,561,572,558,586,578,575,561,555,588,564,555,596,564,571,
588,585,581,554,588,578,555,585,578,568,575,572,579,564,589,554,
598,585,572,555,599,578,581,555,557,582,596,555,595,572,568,578,
588,572,572,586,565,598,564,586,565,589,578,579,582,585,588,586,
571,558,595,585,575,575,564,595,581,596,562,568,588,579,558,558,
554,579,558,596,585,598,574,572,586,574,564,561,578,557,558,575,
595,555,574,554,568,598,578,574,596,571,595,571,595,589,555,572,
574,558,572,578,579,586,595,558,598,557,564,562,561,595,571,595,
557,595,588,575,579,586,572,596,565,557,595,557,578,557,578,592,
574,581,555,598,595,589,581,599,565,592,579,561,575,578,588,575
</chunk>
   <chunk x="-976" y="256" width="16" height="16">
581,561,595,572,585,575,574,558,586,581,557,592,582,581,596,572,
599,579,599,592,581,564,598,555,588,582,568,571,558,599,581,589,
575,564,589,568,568,596,596,581,598,581,575,595,574,558,555,589,
575,562,564,592,589,572,579,558,578,568,564,575,588,575,598,565,
588,578,579,575,571,557,575,585,555,599,565,572,579,582,572,582,
568,557,571,558,596,565,589,581,571,598,599,595,557,578,588,568,
562,564,585,564,582,585,595,571,575,595,592,568,598,585,564,564,
581,595,579,585,581,596,562,595,571,585,585,598,557,596,589,592,
579,558,585,596,575,561,599,562,565,596,575,558,575,579,575,581,
585,595,571,581,595,574,564,596,598,555,562,592,578,585,588,561,
578,599,568,599,555,557,578,589,554,582,588,588,562,598,586,599,
595,588,598,571,578,589,595,568,582,589,581,564,562,582,565,582,
565,578,562,562,592,568,581,579,565,599,575,579,595,555,574,586,
592,555,565,596,582,558,565,598,568,565,555,571,574,574,595,596,
582,586,571,595,598,596,568,596,596,555,599,554,596,574,578,565,
554,586,568,586,585,571,572,588,585,596,588,554,558,599,575,555
</chunk>
   <chunk x="-960" y="256" width="16" height="16">
595,596,561,564,578,565,562,586,568,582,574,581,571,574,589,579,
572,574,557,586,564,598,558,571,555,557,586,561,571,586,557,586,
592,557,554,565,565,575,578,582,572,575,589,589,554,586,588,596,
562,557,572,565,578,557,599,558,581,595,595,575,574,554,557,578,
557,581,554,585,574,571,586,578,575,585,565,571,554,554,561,571,
599,565,598,588,592,586,561,572,592,585,558,571,557,586,589,585,
582,564,589,578,562,557,585,558,582,588,599,565,561,554,571,598,
595,575,592,564,582,581,579,596,586,555,575,595,575,596,555,574,
595,554,589,571,586,596,589,574,595,568,561,562,595,575,561,582,
574,579,558,572,564,575,598,595,575,558,554,575,599,572,572,586,
581,585,598,579,585,586,595,562,571,565,595,582,596,575,555,589,
596,562,568,565,592,582,582,598,572,599,571,599,568,596,558,561,
561,586,565,574,568,564,562,582,578,574,555,599,562,596,561,554,
574,599,555,568,579,564,581,561,592,596,568,586,575,572,599,595,
555,596,588,582,568,565,571,596,557,588,595,578,588,562,561,565,
596,574,596,581,595,574,574,588,571,578,572,588,596,561,568,564
</chunk>
   <chunk x="-944" y="256" width="16" height="16">
578,589,596,562,571,558,574,568,564,581,557,589,596,564,578,554,
582,595,555,579,585,561,578,555,585,588,575,586,555,572,582,588,
595,586,589,558,582,574,562,554,595,585,575,579,574,578,574,564,
571,589,554,562,581,581,598,581,596,564,595,579,578,579,586,595,
574,557,581,579,571,585,579,555,564,575,588,575,586,585,575,581,
568,589,585,558,575,565,571,564,599,582,557,572,558,592,592,568,
595,592,595,575,581,579,555,578,575,581,572,589,561,589,588,574,
578,579,562,572,595,589,599,575,555,585,564,585,568,565,568,561,
564,581,596,589,578,578,571,557,592,592,575,599,598,565,555,586,
599,572,568,574,571,555,571,582,578,586,579,564,575,581,595,586,
596,574,555,562,582,588,568,571,588,565,561,586,574,565,582,595,
572,578,579,586,562,585,596,598,578,579,565,562,562,598,555,574,
572,592,571,558,565,574,586,596,582,562,598,575,571,595,575,558,
562,565,588,554,595,575,557,598,554,571,571,578,595,565,554,598,
595,579,557,568,568,554,581,557,595,574,599,571,598,596,595,555,
598,582,595,589,555,592,571,571,589,555,585,574,599,572,598,555
</chunk>
   <chunk x="-928" y="256" width="16" height="16">
596,578,589,588,599,564,585,578,585,561,599,582,592,562,592,572,
595,564,592,557,586,578,555,557,598,557,588,564,579,558,585,562,
574,586,592,557,562,579,571,571,574,588,561,575,595,582,582,585,
599,568,557,571,561,582,598,589,589,557,555,561,589,586,582,589,
564,574,571,596,575,588,581,561,582,561,582,558,582,579,557,575,
557,558,565,585,562,599,555,574,579,585,582,558,592,589,565,579,
558,564,578,572,554,564,588,582,568,579,557,586,562,575,571,595,
598,561,581,579,555,579,575,596,565,564,596,557,575,571,574,561,
592,571,581,575,592,592,574,598,588,578,555,589,599,565,571,554,
558,588,575,599,564,564,572,579,554,575,582,558,554,588,588,581,
564,578,582,557,562,581,599,596,585,557,568,564,592,562,564,582,
589,562,585,561,572,579,585,557,582,582,554,564,596,586,596,557,
561,557,564,582,585,557,595,554,555,595,555,564,588,575,589,558,
572,578,557,564,582,595,578,599,565,588,578,582,596,581,555,568,
555,561,582,582,564,568,592,596,588,596,589,555,596,562,574,571,
557,579,565,564,588,595,558,564,564,574,596,595,565,562,592,596
</chunk>
   <chunk x="-912" y="256" width="16" height="16">
589,588,599,565,595,586,588,561,595,592,557,564,564,557,574,561,
589,571,581,571,575,588,574,589,595,561,581,582,561,595,557,571,
586,585,555,582,574,588,574,588,558,565,589,557,572,585,592,592,
558,578,589,558,571,588,561,592,595,565,555,595,572,572,588,596,
557,588,578,581,557,562,564,557,555,599,565,579,598,575,574,579,
568,572,588,598,585,555,571,595,596,579,558,588,579,575,564,571,
562,562,589,558,589,582,585,572,568,599,561,561,562,596,558,572,
598,561,582,598,599,568,558,565,555,568,598,575,555,588,595,585,
599,598,596,558,574,586,592,575,562,564,572,586,579,568,568,592,
555,562,589,582,554,586,557,562,578,595,555,588,588,579,574,599,
565,557,598,588,568,596,562,581,554,586,575,555,561,578,571,582,
589,564,574,565,596,572,562,595,579,585,589,599,592,588,561,574,
589,558,588,572,568,554,554,562,558,574,561,565,562,557,555,558,
598,581,571,582,595,596,588,589,565,579,589,555,598,572,592,599,
588,572,572,589,598,598,582,571,596,561,596,579,581,554,575,585,
574,558,574,554,586,562,588,568,592,557,554,574,574,571,572,555
</chunk>
   <chunk x="-896" y="256" width="16" height="16">
598,592,555,565,586,562,582,575,599,592,564,599,586,598,561,574,
574,589,599,568,586,581,565,581,554,579,558,554,599,592,565,557,
579,574,555,558,585,565,589,571,564,571,564,588,599,588,595,592,
599,558,579,557,589,555,598,596,561,575,599,571,596,588,581,557,
565,575,571,561,565,562,599,578,599,581,588,588,595,599,588,579,
586,575,565,555,564,562,581,557,586,562,599,599,574,557,558,568,
582,572,558,592,568,595,555,565,565,579,565,572,574,575,571,555,
571,575,574,579,565,572,574,568,596,572,599,585,588,588,571,579,
588,565,565,554,581,554,586,564,562,586,598,595,579,562,598,571,
555,555,581,568,557,585,598,585,554,586,592,554,596,592,574,586,
568,598,592,579,562,571,554,574,565,571,582,579,585,564,578,571,
588,572,579,557,585,579,571,579,572,599,564,562,557,554,586,595,
599,589,599,589,564,598,592,557,596,561,568,574,599,599,585,561,
582,588,554,585,555,574,599,589,571,554,571,555,581,595,585,565,
581,582,578,557,554,581,578,599,595,599,581,598,571,554,592,585,
599,592,595,561,572,588,595,599,592,581,564,598,562,598,572,565
</chunk>
   <chunk x="-880" y="256" width="16" height="16">
578,568,598,554,575,578,564,599,561,557,564,589,582,596,572,555,
596,578,572,595,588,588,589,565,575,574,595,599,596,565,596,571,
572,599,555,557,581,555,562,571,557,555,571,554,571,582,558,586,
565,579,588,579,598,575,599,571,557,561,554,574,598,555,578,555,
592,598,588,586,575,564,554,557,562,585,592,596,582,565,575,557,
586,582,599,599,558,581,581,581,592,564,579,572,595,557,596,589,
596,565,578,571,557,578,572,555,596,586,598,575,585,578,572,578,
561,586,598,596,592,589,568,564,557,574,574,598,565,554,572,596,
596,575,599,575,571,579,581,578,586,585,564,582,589,578,581,575,
568,579,571,581,554,581,565,557,595,585,596,588,592,595,565,572,
565,595,589,558,557,555,579,588,586,586,575,571,596,555,596,586,
592,574,571,557,561,592,562,586,554,572,558,565,562,588,588,568,
596,575,582,568,564,596,579,595,582,554,574,558,578,561,588,579,
574,585,554,574,564,554,555,555,589,561,575,595,558,588,598,568,
585,565,595,561,565,599,589,561,592,598,582,575,582,555,555,585,
586,589,599,554,585,554,561,596,575,581,562,564,564,596,586,581
</chunk>
   <chunk x="-864" y="256" width="16" height="16">
557,595,586,565,555,568,595,598,571,568,564,579,555,575,599,586,
571,575,561,554,561,555,579,557,589,579,575,579,562,554,561,557,
598,582,571,598,575,574,574,562,579,558,589,598,574,557,599,575,
555,557,568,554,565,596,579,598,586,582,571,557,592,585,582,554,
572,595,554,578,592,582,571,592,585,561,596,582,596,586,592,572,
568,599,561,564,585,572,586,585,596,589,592,582,571,571,558,588,
568,554,596,562,568,568,572,595,572,571,581,598,585,578,588,582,
581,595,579,555,555,572,598,557,595,599,562,596,557,574,571,568,
568,565,568,598,568,562,574,554,554,586,557,558,585,555,572,561,
586,562,595,595,575,557,562,598,586,557,592,582,598,598,585,598,
572,582,586,572,575,558,571,592,599,561,592,561,565,582,595,599,
568,562,571,578,557,574,588,568,561,564,589,572,574,562,575,589,
575,572,582,571,596,574,575,558,571,571,558,581,554,589,564,578,
581,578,568,572,561,562,568,554,598,572,557,589,572,586,572,555,
558,574,579,571,586,598,598,595,554,572,595,599,596,585,589,557,
575,592,558,592,554,574,582,585,586,554,589,575,558,598,585,585
</chunk>
   <chunk x="-848" y="256" width="16" height="16">
564,595,554,555,564,562,0,0,0,0,0,0,0,0,0,0,
562,562,599,561,554,558,0,0,0,0,0,0,0,0,0,0,
574,558,598,599,558,554,0,0,0,0,0,0,0,0,0,0,
582,572,557,598,581,588,0,0,0,0,0,0,0,0,0,0,
582,599,595,589,575,585,0,0,0,0,0,0,0,0,0,0,
599,599,568,565,561,558,0,0,0,0,0,0,0,0,0,0,
598,575,599,557,568,564,0,0,0,0,0,0,0,0,0,0,
558,571,592,571,574,561,0,0,0,0,0,0,0,0,0,0,
568,578,586,581,589,592,0,0,0,0,0,0,0,0,0,0,
579,554,555,598,586,557,0,0,0,0,0,0,0,0,0,0,
555,586,598,585,574,599,0,0,0,0,0,0,0,0,0,0,
564,562,568,581,596,586,0,0,0,0,0,0,0,0,0,0,
598,555,586,598,571,596,0,0,0,0,0,0,0,0,0,0,
586,558,558,596,599,579,0,0,0,0,0,0,0,0,0,0,
592,572,572,555,596,585,0,0,0,0,0,0,0,0,0,0,
557,595,578,588,586,561,0,0,0,0,0,0,0,0,0,0
</chunk>
   <chunk x="-1360" y="272" width="16" height="16">
0,0,0,0,0,0,0,578,586,557,598,581,586,598,575,589,
0,0,0,0,0,0,0,557,595,589,562,555,582,572,558,565,
0,0,0,0,0,0,0,582,596,596,562,585,562,574,589,589,
0,0,0,0,0,0,0,582,568,571,589,572,558,562,568,582,
0,0,0,0,0,0,0,589,581,599,575,592,595,586,554,571,
0,0,0,0,0,0,0,582,595,598,599,586,558,585,555,564,
0,0,0,0,0,0,0,588,582,592,579,589,598,561,565,555,
0,0,0,0,0,0,0,598,589,598,557,586,582,581,596,599,
0,0,0,0,0,0,0,558,565,568,586,589,582,595,555,581,
0,0,0,0,0,0,0,599,557,599,581,599,558,585,558,578,
0,0,0,0,0,0,0,571,581,574,555,555,558,595,564,557,
0,0,0,0,0,0,0,554,564,564,575,564,571,554,554,599,
0,0,0,0,0,0,0,561,562,588,557,595,568,564,585,554,
0,0,0,0,0,0,0,596,592,581,554,598,558,575,562,592,
0,0,0,0,0,0,0,592,578,589,575,574,565,558,564,578,
0,0,0,0,0,0,0,599,554,578,575,589,561,598,574,558
</chunk>
   <chunk x="-1344" y="272" width="16" height="16">
589,557,588,592,585,582,557,595,598,585,581,571,562,572,555,586,
596,578,564,592,565,572,574,557,572,581,579,571,592,596,588,589,
586,568,582,571,589,595,574,561,585,561,571,557,555,561,589,581,
596,599,586,564,564,588,578,561,574,564,575,562,586,599,595,561,
565,592,561,582,575,558,571,554,585,588,578,578,557,564,554,599,
574,581,582,582,574,572,561,558,557,554,589,554,558,596,598,582,
595,595,565,578,561,574,595,585,579,554,568,571,561,575,575,554,
564,554,588,564,589,555,562,579,589,564,568,555,564,572,561,557,
586,598,565,568,581,564,596,589,581,579,586,585,596,575,558,599,
565,588,598,572,592,572,565,585,554,586,579,572,558,555,599,582,
568,592,585,575,586,592,599,596,581,581,586,565,561,558,562,562,
582,575,568,572,598,599,582,574,571,572,571,557,599,581,586,589,
596,572,595,555,599,564,571,554,581,561,578,571,579,554,554,575,
564,589,557,586,589,592,581,571,596,578,586,572,592,574,555,562,
592,579,592,598,588,555,599,599,564,562,562,588,592,596,555,562,
595,581,595,561,564,568,595,589,578,572,575,599,554,578,596,579
</chunk>
   <chunk x="-1328" y="272" width="16" height="16">
586,579,555,574,586,598,555,562,555,571,595,589,565,578,585,585,
582,599,585,571,582,592,555,558,561,592,581,592,565,574,557,586,
575,571,586,586,598,568,581,581,582,572,575,581,572,571,596,599,
586,592,574,572,555,565,562,585,581,579,561,557,588,582,588,585,
571,572,592,565,582,564,572,555,586,579,589,582,562,599,568,564,
574,581,564,568,565,586,598,595,564,598,582,557,554,572,561,572,
592,596,592,564,557,571,582,574,581,579,568,561,564,564,596,554,
574,557,575,599,592,595,572,581,585,598,596,575,558,561,579,592,
562,581,599,598,558,595,575,565,589,581,564,586,575,562,562,579,
571,579,579,574,585,589,586,554,596,595,588,558,581,588,582,592,
581,586,572,555,565,595,561,582,555,599,558,581,582,562,589,555,
589,571,578,578,586,586,585,565,571,557,586,557,582,599,557,564,
595,572,564,564,574,585,581,572,557,568,578,581,557,575,588,561,
574,565,554,568,572,568,578,588,586,599,589,599,582,575,595,557,
557,568,568,575,586,568,555,558,592,582,568,578,554,575,585,575,
564,599,588,572,575,554,588,557,568,579,562,598,568,589,582,581
</chunk>
   <chunk x="-1312" y="272" width="16" height="16">
599,582,592,598,561,554,579,558,599,595,581,588,554,571,586,565,
574,568,555,555,568,557,565,588,581,586,596,595,592,564,586,579,
555,585,596,589,574,555,589,572,558,596,557,595,581,557,592,588,
562,599,555,554,589,586,579,581,581,599,586,575,592,595,592,558,
595,598,572,588,589,585,596,558,596,572,555,565,571,568,568,598,
579,586,582,568,598,578,554,598,568,588,589,598,554,595,585,578,
578,586,574,599,554,557,592,572,588,596,595,592,561,588,581,557,
585,564,586,578,582,561,578,596,585,574,574,579,558,579,579,565,
565,592,598,568,581,581,562,568,599,589,582,596,578,596,572,562,
589,555,558,581,585,568,575,585,564,579,575,565,561,582,565,585,
588,565,589,555,599,571,599,598,555,572,596,572,595,564,572,592,
588,581,565,598,561,562,588,595,575,589,568,585,596,554,572,598,
557,586,596,571,592,575,578,588,564,562,575,574,554,598,588,581,
581,589,579,568,568,585,561,561,592,592,555,578,574,557,568,568,
575,562,565,554,585,575,555,562,557,596,575,574,574,557,581,574,
578,555,562,574,558,572,558,581,579,596,575,561,582,596,592,564
</chunk>
   <chunk x="-1296" y="272" width="16" height="16">
578,588,564,572,582,582,586,588,585,588,565,586,596,578,555,558,
557,572,572,599,589,579,568,565,562,571,572,561,564,575,578,596,
592,572,564,554,574,598,579,554,596,558,572,564,571,561,596,592,
565,589,564,581,555,557,568,554,572,599,558,588,572,598,555,571,
579,572,599,592,562,572,575,596,586,592,598,561,558,581,595,596,
572,598,599,572,565,599,599,574,585,579,592,588,578,555,562,578,
581,557,586,555,562,555,558,554,554,588,564,562,581,564,588,581,
561,599,574,575,578,561,585,568,575,588,578,579,598,555,558,598,
561,578,586,572,582,595,557,558,562,585,568,564,568,582,572,555,
555,579,596,571,574,572,596,565,555,562,595,595,572,578,588,598,
592,589,558,562,575,589,555,564,592,568,595,565,581,578,555,558,
589,564,579,558,592,555,568,564,596,562,582,599,564,579,564,557,
581,554,589,595,565,571,582,598,595,598,579,554,575,578,554,588,
554,581,554,564,588,589,558,579,588,574,568,555,557,575,589,599,
571,574,568,588,561,582,557,586,557,562,561,562,571,562,581,571,
585,599,582,562,561,596,575,585,561,588,568,599,557,595,581,575
</chunk>
   <chunk x="-1280" y="272" width="16" height="16">
598,565,568,596,588,564,557,554,565,596,589,571,564,579,592,582,
588,595,565,582,571,596,586,582,579,581,562,557,562,578,574,568,
561,582,599,585,586,562,595,562,582,555,579,554,558,586,592,574,
595,581,588,578,564,572,554,562,589,589,557,581,585,572,592,585,
557,585,561,595,565,575,575,578,568,564,588,562,568,568,595,564,
574,592,581,595,598,589,557,555,599,555,581,571,555,557,561,558,
557,568,588,561,579,564,555,561,589,575,572,574,568,579,555,595,
565,562,579,588,586,592,581,595,554,555,558,574,565,565,571,586,
574,561,586,585,581,589,595,578,589,598,571,579,575,592,561,598,
574,581,585,555,574,579,586,571,579,586,557,564,589,555,592,582,
589,558,565,598,558,558,579,581,596,562,568,578,565,598,557,578,
571,557,585,574,562,596,582,554,558,592,571,582,561,599,596,596,
564,589,596,564,554,579,562,565,586,558,568,588,562,564,596,565,
565,571,589,592,582,586,571,579,589,568,555,598,586,592,596,598,
565,565,564,575,561,571,575,564,592,557,579,599,596,588,598,564,
586,562,557,572,586,578,558,578,586,585,557,588,595,554,588,589
</chunk>
   <chunk x="-1264" y="272" width="16" height="16">
562,554,558,568,575,596,595,581,565,589,596,589,554,565,554,574,
574,557,581,571,595,596,596,565,572,581,581,588,558,581,565,599,
561,565,582,562,585,562,568,589,555,557,564,582,599,557,595,579,
554,585,572,596,581,571,562,596,598,555,585,575,588,571,558,558,
585,586,586,578,581,565,572,557,589,589,579,589,554,582,582,582,
581,585,581,599,565,561,562,578,589,596,599,561,574,564,564,572,
557,586,574,555,575,574,572,564,589,592,596,588,571,575,581,555,
554,585,589,572,557,592,588,588,557,562,575,589,557,565,595,585,
575,575,568,557,571,565,572,571,595,565,596,592,588,568,557,575,
557,565,585,571,561,586,592,565,598,562,568,588,599,585,555,572,
596,588,555,572,585,575,596,572,581,596,589,554,557,596,565,595,
574,585,562,574,554,598,586,565,558,581,561,586,596,571,562,582,
575,554,581,572,557,575,557,599,571,579,595,582,582,568,579,581,
561,561,581,598,598,562,565,585,588,589,557,571,586,589,558,561,
586,574,555,562,599,589,579,595,555,579,586,582,599,571,582,562,
561,578,581,585,578,582,572,561,572,586,581,558,595,589,562,582
</chunk>
   <chunk x="-1248" y="272" width="16" height="16">
596,557,585,561,599,578,595,592,564,578,561,586,571,598,585,565,
588,561,565,557,555,562,578,578,599,555,586,596,561,562,574,557,
588,599,595,592,574,599,575,574,562,575,578,579,598,557,564,581,
571,596,582,592,581,561,561,564,565,568,562,555,578,554,565,589,
564,578,599,585,585,578,589,572,571,572,562,599,588,592,561,572,
571,574,557,572,586,568,585,572,598,571,578,581,564,588,599,574,
599,585,562,595,555,565,592,555,578,585,555,581,555,568,562,565,
588,557,586,564,571,579,599,585,571,581,554,558,586,554,585,562,
562,568,589,596,554,585,582,588,564,561,585,558,598,575,557,574,
574,568,579,596,565,575,585,578,568,586,568,582,558,579,568,598,
568,586,557,586,588,568,557,599,568,555,574,578,572,586,598,578,
554,578,562,582,596,586,596,589,561,595,561,592,589,557,596,581,
596,596,564,595,585,579,596,557,575,565,558,592,588,557,564,578,
561,568,596,571,579,585,582,592,596,575,582,586,581,588,595,586,
585,599,562,558,564,568,589,596,585,585,564,565,562,572,565,554,
562,579,561,575,588,578,571,589,598,595,595,596,562,565,574,581
</chunk>
   <chunk x="-1232" y="272" width="16" height="16">
586,595,562,555,592,599,557,572,574,574,578,555,581,585,596,572,
582,565,555,581,554,554,578,589,578,585,585,595,588,599,558,582,
578,558,572,575,588,561,557,557,596,585,579,561,592,588,579,574,
558,558,574,589,572,575,564,568,568,557,575,592,568,578,579,592,
595,562,564,599,586,571,599,598,568,555,558,585,579,578,571,596,
575,554,562,588,568,579,558,588,568,564,557,564,598,561,561,585,
595,571,582,589,595,582,592,598,561,585,575,574,598,578,557,555,
572,579,575,596,579,554,558,595,589,588,586,561,554,557,572,579,
562,582,565,572,582,561,599,581,554,575,575,592,596,586,598,588,
581,585,588,572,599,599,582,571,571,557,596,599,555,588,579,572,
585,598,571,589,575,558,582,574,598,561,582,579,596,564,575,572,
589,579,581,555,564,589,575,585,557,557,582,555,586,575,557,574,
565,572,586,592,555,585,555,568,585,592,589,588,557,595,562,579,
565,571,557,598,592,589,571,592,571,599,554,572,564,554,571,557,
588,581,565,599,589,596,558,589,557,596,571,557,585,596,565,572,
561,579,574,574,565,599,561,555,571,574,582,557,572,555,564,596
</chunk>
   <chunk x="-1216" y="272" width="16" height="16">
568,585,595,565,554,592,595,592,575,555,555,581,564,574,568,561,
568,589,554,574,575,592,592,586,558,581,589,568,555,585,599,582,
592,562,555,568,588,572,595,598,572,562,589,579,598,595,592,574,
582,598,568,555,572,596,564,598,589,588,588,579,568,586,558,571,
592,568,575,589,575,582,572,596,581,582,575,555,579,598,595,589,
579,575,557,599,592,562,555,561,574,581,581,599,585,557,585,599,
572,575,561,599,574,595,564,557,558,579,574,595,572,592,574,581,
558,554,589,554,561,578,572,568,582,578,574,568,599,586,578,564,
558,571,562,561,572,561,581,578,571,586,588,589,596,554,557,596,
565,596,598,574,589,599,595,571,579,555,598,555,554,578,571,589,
585,575,586,581,596,592,581,585,575,562,596,599,575,562,575,581,
582,589,598,578,575,579,579,582,554,599,561,562,572,589,599,585,
581,555,568,575,592,575,578,561,561,564,558,579,586,572,571,568,
561,586,575,574,561,585,581,581,598,554,586,588,582,575,582,571,
554,589,557,596,555,581,561,595,581,598,574,558,581,582,568,571,
578,599,592,558,596,596,562,599,575,562,592,571,592,585,562,586
</chunk>
   <chunk x="-1200" y="272" width="16" height="16">
589,557,578,578,564,574,599,579,581,568,581,568,558,595,589,581,
579,565,575,592,585,588,585,588,589,562,555,596,599,561,568,585,
575,565,557,561,579,598,554,558,588,572,586,582,554,595,572,558,
564,589,571,558,579,557,579,568,596,564,579,581,568,568,565,596,
581,565,596,599,565,586,592,557,575,589,574,586,586,561,554,565,
588,571,581,586,596,574,596,572,558,571,561,565,554,581,595,589,
595,562,555,555,588,554,561,565,582,586,589,564,592,574,598,582,
598,562,592,572,574,588,562,562,558,571,571,585,589,561,562,557,
595,571,571,561,592,562,562,561,571,585,582,595,599,596,562,555,
555,561,555,582,558,575,579,596,586,562,562,578,558,579,564,592,
581,581,588,557,571,585,557,579,581,572,578,561,581,564,579,558,
568,554,598,562,555,571,585,582,561,599,564,581,554,579,555,561,
571,589,598,572,586,582,574,557,575,596,572,589,586,574,575,582,
588,598,557,596,598,554,574,595,558,574,572,555,578,582,574,554,
558,586,596,565,588,571,589,561,595,586,595,582,555,592,586,561,
582,578,578,565,578,555,555,595,561,589,592,568,595,595,585,595
</chunk>
   <chunk x="-1184" y="272" width="16" height="16">
568,588,564,554,568,592,599,588,585,585,555,578,561,575,561,595,
586,592,592,557,579,595,558,562,568,589,585,571,568,581,592,572,
557,598,572,564,564,571,561,599,578,568,579,572,571,575,568,555,
595,585,588,598,598,572,596,575,572,585,565,561,595,574,572,564,
592,571,562,595,555,598,589,572,572,578,574,555,586,581,555,557,
579,575,574,574,564,574,585,598,588,562,564,554,554,586,595,575,
557,562,571,582,571,555,586,595,582,564,561,572,564,561,568,555,
596,574,554,575,596,568,592,571,588,586,595,571,585,595,568,555,
596,575,592,599,572,589,588,585,555,558,578,564,555,588,568,561,
572,588,595,572,598,595,572,592,586,585,574,579,558,568,574,596,
554,578,561,558,581,596,586,558,557,565,599,574,571,555,565,571,
585,578,595,558,565,578,572,599,595,578,578,582,574,575,571,554,
578,571,564,582,596,598,578,595,585,599,555,592,596,598,595,564,
581,572,588,574,578,575,588,592,595,585,557,568,565,558,571,585,
595,588,589,579,585,586,557,586,558,585,564,598,578,565,595,561,
562,568,585,582,561,572,568,565,575,595,575,558,575,572,599,561
</chunk>
   <chunk x="-1168" y="272" width="16" height="16">
558,561,599,562,599,575,561,582,564,589,557,578,585,598,0,0,
592,596,557,578,564,562,596,585,581,581,575,592,575,568,0,0,
572,574,564,595,564,571,586,578,564,595,579,596,598,575,0,0,
592,581,598,565,579,582,558,589,599,561,575,589,565,562,0,0,
557,574,581,589,571,568,561,598,581,575,586,561,565,596,0,0,
585,571,586,598,565,598,596,581,599,592,589,564,596,571,0,0,
558,554,579,574,599,572,585,598,579,578,579,561,575,554,0,0,
599,579,579,595,585,596,578,599,554,598,595,578,555,588,0,0,
574,564,562,592,592,582,588,595,579,585,558,555,557,561,0,0,
574,575,564,572,561,589,568,578,592,555,568,561,562,598,0,0,
595,586,572,596,562,579,581,557,582,585,558,572,554,555,0,0,
568,585,598,574,574,582,578,564,558,581,568,599,564,585,0,0,
595,565,599,561,565,557,581,568,557,586,582,562,568,568,0,0,
575,561,588,554,574,589,571,554,596,558,581,575,578,581,0,0,
565,599,568,561,598,555,598,572,558,565,575,572,572,554,0,0,
588,582,554,581,568,585,568,596,595,579,596,578,557,588,0,0
</chunk>
   <chunk x="-1088" y="272" width="16" height="16">
0,0,0,0,0,0,0,0,0,0,0,0,0,555,554,595,
0,0,0,0,0,0,0,0,0,0,0,0,0,589,578,571,
0,0,0,0,0,0,0,0,0,0,0,0,0,595,599,565,
0,0,0,0,0,0,0,0,0,0,0,0,0,572,588,589,
0,0,0,0,0,0,0,0,0,0,0,0,0,595,598,596,
0,0,0,0,0,0,0,0,0,0,0,0,0,575,599,586,
0,0,0,0,0,0,0,0,0,0,0,0,0,561,574,565,
0,0,0,0,0,0,0,0,0,0,0,0,0,585,565,578,
0,0,0,0,0,0,0,0,0,0,0,0,0,578,564,575,
0,0,0,0,0,0,0,0,0,0,0,0,0,574,578,596,
0,0,0,0,0,0,0,0,0,0,0,0,0,596,554,596,
0,0,0,0,0,0,0,0,0,0,0,0,0,557,575,579,
0,0,0,0,0,0,0,0,0,0,0,0,0,568,561,585,
0,0,0,0,0,0,0,0,0,0,0,0,0,562,599,572,
0,0,0,0,0,0,0,0,0,0,0,0,0,598,582,599,
0,0,0,0,0,0,0,0,0,0,0,0,0,586,579,555
</chunk>
   <chunk x="-1072" y="272" width="16" height="16">
592,555,572,575,575,598,578,565,585,595,585,585,558,554,555,565,
586,564,572,554,572,599,582,598,588,554,557,586,568,579,558,578,
578,572,562,578,578,572,561,582,598,574,598,561,578,565,585,595,
572,574,574,581,592,582,565,586,582,581,578,596,575,558,554,585,
554,596,598,555,568,599,571,565,586,558,557,589,581,561,581,581,
565,572,579,578,565,578,598,598,598,592,564,581,572,596,598,598,
555,557,579,562,562,599,562,596,572,581,554,578,564,592,596,575,
599,571,579,568,564,554,595,575,592,581,581,575,572,582,589,582,
598,555,565,581,555,574,581,588,586,592,599,564,572,578,565,575,
598,582,575,582,558,579,582,554,598,579,598,581,592,557,574,555,
579,592,558,557,579,585,555,565,586,561,562,574,562,596,562,599,
595,592,599,575,561,568,596,581,599,599,562,561,598,581,574,572,
596,588,599,582,568,588,572,568,562,564,579,575,568,578,595,589,
572,568,572,562,579,595,562,564,598,595,568,561,581,561,554,568,
579,578,581,588,578,585,564,585,561,582,588,596,564,564,561,586,
599,554,565,564,555,564,574,557,592,581,565,561,599,579,581,581
</chunk>
   <chunk x="-1056" y="272" width="16" height="16">
574,562,585,596,555,595,568,572,586,589,585,565,589,585,595,575,
575,588,554,588,582,554,588,572,554,589,558,562,599,557,592,572,
588,575,596,582,596,588,578,572,555,579,568,558,586,589,564,585,
582,588,581,561,558,575,555,565,562,574,598,598,558,596,555,555,
562,575,599,581,554,599,592,599,568,579,554,558,588,589,598,588,
585,561,568,575,586,564,575,588,596,561,571,588,581,581,586,554,
595,575,592,564,575,565,596,592,572,588,585,555,589,575,599,586,
562,568,592,581,598,585,588,557,595,588,575,599,564,571,588,595,
572,599,595,581,557,592,586,586,588,564,565,585,554,555,555,572,
585,599,598,598,562,558,578,592,571,571,555,589,585,581,574,589,
596,579,575,589,564,581,595,579,575,578,572,595,561,582,555,571,
582,568,568,592,571,581,574,586,585,581,564,599,565,579,588,588,
588,598,586,568,586,598,589,565,574,564,579,592,575,596,586,555,
599,561,564,574,555,599,575,554,562,599,574,554,568,555,581,572,
586,557,564,565,555,554,592,561,564,571,598,596,588,558,565,578,
585,592,558,588,581,558,578,595,557,554,596,564,582,568,568,568
</chunk>
   <chunk x="-1040" y="272" width="16" height="16">
558,575,599,557,568,558,564,574,555,582,586,568,555,585,561,595,
574,558,564,579,558,596,565,595,599,568,575,571,579,558,592,582,
589,588,557,589,574,554,585,588,585,561,575,589,558,558,561,582,
565,558,558,554,585,578,585,554,585,564,589,558,585,599,565,592,
574,568,574,568,581,596,571,595,579,589,586,585,562,579,579,574,
596,582,585,565,598,579,595,557,555,574,572,585,588,554,572,568,
582,595,575,562,592,555,578,571,579,557,558,554,554,582,582,554,
568,565,598,562,558,589,585,574,586,585,598,555,578,565,579,596,
586,585,586,572,572,579,595,565,557,572,595,579,574,564,585,572,
572,575,582,596,571,571,578,598,581,558,581,568,565,595,555,579,
579,555,562,598,582,585,596,561,565,589,586,557,565,574,557,572,
571,579,562,562,565,582,562,558,599,592,586,555,596,579,582,586,
554,558,561,582,568,581,596,564,592,575,595,557,599,575,599,564,
555,586,557,585,598,581,599,558,555,572,585,578,586,562,595,578,
561,568,571,558,592,599,568,572,586,588,579,582,588,555,585,586,
565,598,588,586,578,581,557,562,586,557,598,564,558,589,599,564
</chunk>
   <chunk x="-1024" y="272" width="16" height="16">
554,578,571,557,578,586,589,561,596,568,585,557,579,554,564,582,
592,564,561,595,588,578,565,561,555,588,588,595,572,571,574,572,
581,564,578,589,557,568,561,554,557,592,598,599,588,598,555,589,
564,555,599,585,582,582,579,565,595,578,598,554,589,574,565,571,
574,578,599,599,554,574,592,595,578,585,557,578,562,586,599,557,
596,589,574,578,596,585,554,599,598,564,599,565,579,578,558,554,
588,586,582,562,555,582,578,555,557,595,582,565,592,571,565,596,
575,579,586,568,568,596,586,586,575,557,595,592,562,564,561,581,
592,565,575,555,598,586,564,586,589,595,578,562,579,579,582,599,
557,588,562,568,596,596,585,581,585,558,555,558,562,585,568,568,
586,589,582,561,586,585,579,561,596,561,561,555,575,572,555,579,
585,565,579,579,575,595,575,598,558,595,554,596,581,557,561,571,
599,572,557,554,572,574,565,571,592,572,595,562,565,596,568,555,
557,571,592,592,557,574,562,592,582,558,596,579,596,588,568,579,
574,598,558,558,592,589,578,564,596,565,596,561,588,562,561,572,
574,571,565,582,585,581,557,558,558,592,565,565,554,568,564,595
</chunk>
   <chunk x="-1008" y="272" width="16" height="16">
568,557,561,595,562,554,572,554,558,582,596,572,564,575,571,575,
571,568,571,585,581,578,599,579,554,589,596,585,558,579,578,565,
598,598,554,598,562,565,558,562,565,592,554,588,575,568,572,561,
564,554,586,586,585,599,589,564,564,571,555,588,555,575,578,582,
582,568,554,557,592,568,588,579,598,595,568,561,579,561,555,564,
562,589,578,565,571,585,558,585,578,596,562,572,561,561,599,558,
581,572,599,565,562,592,578,557,554,581,571,562,558,565,585,595,
599,565,571,574,582,595,572,586,574,599,589,572,578,555,598,568,
561,579,558,565,589,588,558,596,589,572,572,562,585,589,572,555,
574,572,589,585,572,565,562,585,561,586,589,595,578,599,595,557,
572,554,595,568,595,575,589,564,595,564,578,589,554,578,575,554,
572,581,595,562,592,554,582,581,561,558,599,581,589,598,592,585,
572,592,599,571,572,565,598,592,554,565,596,596,572,581,571,557,
561,568,589,555,589,562,562,586,574,595,555,558,581,598,564,578,
578,578,581,586,599,568,561,581,574,562,585,588,574,565,571,561,
578,578,564,555,575,579,578,581,578,571,554,575,564,571,568,595
</chunk>
   <chunk x="-992" y="272" width="16" height="16">
586,588,579,564,572,554,555,575,586,582,571,572,568,585,562,571,
555,554,557,562,582,599,588,588,592,557,554,588,554,557,581,589,
588,588,579,554,568,586,596,592,599,568,565,562,599,561,574,598,
598,557,592,581,581,565,558,578,585,554,598,571,586,595,581,564,
582,558,588,585,561,578,585,561,575,555,568,572,592,575,585,579,
571,581,595,561,581,598,599,596,564,581,578,585,582,586,588,562,
578,568,599,585,555,581,598,588,589,575,582,571,572,581,578,579,
571,586,562,562,578,578,557,557,571,596,564,578,585,565,568,579,
586,581,571,564,562,581,598,572,555,582,558,572,589,578,588,582,
557,554,574,596,555,586,596,557,571,588,596,565,585,596,571,568,
562,572,575,598,589,565,586,561,598,588,557,595,582,574,575,581,
595,598,555,596,557,595,579,578,557,574,555,562,581,592,557,568,
588,581,582,568,564,588,562,558,562,585,574,599,575,581,565,575,
599,578,588,599,572,555,554,568,598,598,555,555,571,571,596,571,
564,574,589,565,582,572,561,592,572,581,599,592,571,557,561,575,
574,572,571,571,581,592,571,595,592,564,586,582,586,571,557,555
</chunk>
   <chunk x="-976" y="272" width="16" height="16">
554,571,599,562,581,554,554,585,572,578,562,588,571,574,586,571,
588,557,589,588,592,598,561,564,588,555,598,555,585,581,595,571,
568,596,565,564,565,592,562,564,589,564,599,578,565,592,581,555,
586,562,568,554,599,589,592,572,586,578,561,564,558,589,585,572,
582,572,558,562,595,561,555,592,596,555,578,579,571,568,554,557,
588,574,592,571,575,592,586,592,598,572,599,571,575,568,554,574,
565,599,574,582,568,568,599,564,598,589,564,578,592,598,557,555,
557,555,555,589,585,599,582,568,557,574,561,574,555,564,554,578,
562,572,568,596,596,568,555,592,558,592,589,574,572,578,564,555,
572,599,592,565,592,596,586,586,561,557,574,586,579,575,582,564,
578,581,586,599,575,562,592,599,579,562,589,586,588,581,571,561,
574,595,557,595,555,558,585,589,578,558,589,581,586,564,575,581,
575,598,557,562,565,589,564,582,581,564,558,589,596,575,561,596,
564,588,596,579,571,561,562,555,558,586,555,561,596,579,561,595,
571,588,558,578,592,555,578,588,578,586,575,554,589,575,568,571,
579,562,578,596,579,571,555,588,571,555,554,572,557,579,561,595
</chunk>
   <chunk x="-960" y="272" width="16" height="16">
571,572,571,598,596,588,579,574,568,561,581,582,581,557,581,574,
588,579,562,574,565,586,557,554,564,572,579,581,595,598,574,586,
574,579,568,592,554,575,555,598,564,588,562,561,598,565,574,581,
578,579,558,564,595,588,592,571,588,564,571,575,562,589,586,579,
579,565,595,588,579,575,561,564,575,598,575,598,555,565,579,562,
555,555,565,564,595,598,562,599,582,582,574,557,565,585,585,554,
588,555,592,595,562,575,561,578,558,582,599,568,558,571,561,571,
555,558,558,589,574,554,564,574,579,579,582,554,592,574,572,595,
579,586,599,588,572,555,579,561,585,598,571,564,574,574,558,582,
568,595,558,558,575,578,558,592,561,568,562,579,568,557,575,595,
561,598,574,598,598,554,557,565,564,568,578,561,558,571,574,589,
554,555,558,598,561,565,574,588,595,575,565,581,588,564,586,585,
588,581,575,586,588,565,558,586,562,581,586,555,574,568,558,571,
564,585,561,562,578,586,565,596,565,585,572,564,578,589,589,581,
586,555,579,578,572,599,586,561,586,585,581,595,561,572,564,581,
568,581,564,562,586,554,565,554,558,585,562,555,596,596,565,574
</chunk>
   <chunk x="-944" y="272" width="16" height="16">
595,557,589,596,575,596,592,596,568,585,588,579,592,564,574,588,
564,575,574,574,581,555,574,582,589,574,581,582,599,564,585,557,
554,557,571,585,589,557,555,592,596,557,585,586,588,579,596,557,
598,598,558,582,568,598,571,571,558,557,554,574,595,571,589,558,
572,575,598,562,589,558,574,574,581,575,558,561,557,574,561,579,
572,579,568,554,562,564,588,568,595,558,589,585,554,575,599,565,
557,592,564,565,578,596,575,578,588,582,578,574,582,572,596,558,
599,578,561,596,579,581,581,558,562,596,585,572,599,582,564,562,
581,555,592,565,592,557,598,599,598,588,578,572,571,562,596,589,
599,562,554,578,589,586,572,575,554,579,598,561,565,598,571,578,
561,561,581,575,572,557,558,586,596,557,589,586,572,585,585,558,
579,565,596,555,592,581,578,554,571,555,579,598,561,565,598,578,
574,555,582,568,561,596,592,586,568,588,568,554,599,555,581,561,
575,578,558,599,564,585,564,589,564,557,561,586,599,568,555,588,
592,586,565,596,561,561,565,595,589,598,589,578,575,589,557,595,
588,558,562,598,578,595,574,592,564,578,574,565,572,561,581,562
</chunk>
   <chunk x="-928" y="272" width="16" height="16">
555,571,574,562,554,564,565,582,558,562,589,568,568,585,595,568,
599,572,581,572,579,554,579,561,564,596,558,557,574,572,585,588,
595,578,596,558,575,588,582,564,568,554,574,579,575,562,588,574,
582,599,595,598,599,561,571,582,588,575,582,589,555,572,585,585,
588,575,598,596,581,557,564,564,571,564,561,599,588,568,575,561,
557,598,565,598,595,555,595,582,585,562,557,575,596,561,588,558,
598,558,582,581,572,589,598,568,555,595,598,568,588,565,558,575,
582,558,589,554,568,595,554,568,558,568,586,578,588,575,578,568,
582,574,578,588,574,554,571,578,557,582,571,565,554,575,598,568,
562,558,595,562,575,555,554,589,578,571,574,585,568,565,562,557,
599,592,555,572,571,596,554,588,599,558,561,588,598,579,565,561,
568,564,589,581,575,582,579,582,571,571,592,596,572,586,565,586,
558,578,585,589,586,575,565,561,592,571,588,599,589,588,581,588,
599,575,586,586,589,562,557,595,596,558,572,574,595,598,565,554,
579,561,558,588,562,561,599,582,595,557,575,564,557,561,564,558,
585,571,555,582,581,554,596,555,565,558,555,554,574,585,592,598
</chunk>
   <chunk x="-912" y="272" width="16" height="16">
555,554,595,564,595,595,596,581,555,595,589,579,585,571,572,558,
558,599,581,562,598,582,585,586,586,596,564,595,596,589,579,596,
568,565,571,555,572,596,595,554,592,585,579,589,586,564,574,555,
554,582,564,575,554,575,585,568,562,564,554,562,557,564,589,562,
575,598,596,592,585,554,568,599,554,574,586,585,595,581,571,555,
589,561,557,565,564,558,592,572,586,575,598,565,555,554,592,568,
562,578,562,588,596,558,561,579,565,599,574,581,592,555,572,599,
589,598,586,568,598,565,575,564,568,585,555,599,571,599,555,558,
586,554,574,589,571,575,571,555,554,582,557,571,579,592,561,586,
582,558,592,588,596,581,598,571,558,588,582,579,588,599,586,578,
578,585,581,558,585,582,568,557,589,562,598,554,568,589,592,571,
561,579,588,596,589,568,588,557,572,595,562,599,596,574,565,562,
589,574,592,596,555,565,555,581,586,568,568,561,581,558,588,574,
555,571,586,586,595,582,599,592,586,585,557,561,595,558,586,588,
565,599,585,574,554,574,572,581,571,558,596,582,555,562,592,598,
565,572,568,561,589,598,564,554,586,592,578,572,598,562,585,564
</chunk>
   <chunk x="-896" y="272" width="16" height="16">
579,596,558,574,585,592,575,592,585,588,574,582,554,564,595,571,
561,579,586,554,564,564,555,571,575,568,596,595,574,571,571,558,
558,579,585,579,585,574,575,586,585,575,589,555,574,564,585,578,
558,571,564,564,557,574,585,565,596,581,568,564,588,572,596,588,
558,589,598,574,571,595,581,598,558,579,565,574,558,586,595,592,
572,561,595,599,571,599,586,555,581,585,588,598,586,574,574,564,
579,595,575,562,582,579,581,598,558,588,598,578,582,562,579,578,
588,595,558,558,581,596,561,554,581,598,575,595,565,589,562,589,
582,568,558,588,581,564,554,599,582,592,555,574,596,579,596,581,
557,568,574,568,588,558,574,579,581,557,582,579,578,596,571,575,
568,562,557,585,586,596,588,575,598,568,574,579,586,555,598,574,
572,579,558,596,574,585,572,581,572,571,557,585,582,578,562,555,
557,568,585,554,565,596,557,574,557,555,598,596,568,579,565,599,
579,581,598,581,572,561,578,586,554,598,592,589,558,565,592,581,
558,571,575,586,558,578,578,558,599,554,571,595,589,579,599,561,
572,568,586,568,575,589,588,588,561,581,572,592,596,585,581,565
</chunk>
   <chunk x="-880" y="272" width="16" height="16">
586,592,555,554,579,575,595,565,579,596,564,578,557,588,574,572,
578,588,585,557,596,582,592,564,565,572,564,555,586,589,588,575,
558,588,588,578,568,579,571,592,592,598,598,579,592,561,588,595,
564,575,579,586,572,582,592,558,555,579,561,589,582,578,557,582,
578,555,571,585,582,592,586,585,586,599,589,592,574,585,558,561,
555,585,572,554,558,565,592,581,589,585,565,592,578,564,585,581,
589,598,592,586,589,564,592,588,585,564,561,562,582,555,598,578,
599,585,554,579,572,585,558,557,564,571,589,557,586,596,588,575,
582,578,568,557,581,586,568,568,564,578,595,557,599,578,595,579,
572,586,558,561,582,596,572,595,586,585,565,568,582,579,554,585,
592,571,595,592,554,592,588,554,596,561,574,586,572,585,571,599,
561,586,572,592,572,579,562,592,596,599,581,599,571,598,575,578,
586,565,555,574,574,578,586,571,598,595,571,568,572,582,571,585,
572,574,561,565,589,565,554,598,588,564,572,586,585,595,575,561,
578,574,568,595,572,579,595,599,572,575,581,595,588,558,589,578,
554,575,572,562,555,589,592,565,571,565,554,557,558,588,574,578
</chunk>
   <chunk x="-864" y="272" width="16" height="16">
588,582,575,554,557,562,599,592,578,588,581,599,571,585,581,562,
582,562,562,595,555,565,579,565,596,595,568,579,555,575,565,565,
558,575,588,571,554,571,579,561,558,558,555,562,589,557,557,586,
565,595,565,572,574,557,598,558,564,578,598,592,564,571,578,555,
596,592,596,571,581,571,555,554,588,564,581,557,557,558,588,564,
555,564,562,574,585,596,557,588,592,575,579,574,599,578,571,588,
555,579,562,592,558,555,592,598,582,574,558,581,589,579,575,564,
562,599,554,568,568,558,562,555,582,562,575,557,598,565,574,571,
561,572,598,565,555,561,586,561,589,561,592,555,574,565,562,599,
598,596,575,586,585,574,592,599,588,599,589,562,585,586,595,555,
578,565,565,588,558,558,568,599,596,581,575,568,564,582,585,571,
575,599,599,555,558,589,588,581,562,575,558,581,596,586,574,579,
564,588,595,557,568,565,585,582,572,572,555,572,555,582,596,562,
574,571,572,578,579,596,585,595,598,589,581,586,596,554,581,592,
585,574,578,578,598,589,568,596,598,571,557,558,571,554,568,565,
555,562,565,565,592,578,557,588,595,598,568,596,561,588,558,581
</chunk>
   <chunk x="-848" y="272" width="16" height="16">
572,565,565,571,596,574,0,0,0,0,0,0,0,0,0,0,
578,562,595,561,571,564,0,0,0,0,0,0,0,0,0,0,
598,592,558,561,564,582,0,0,0,0,0,0,0,0,0,0,
599,595,578,588,554,581,0,0,0,0,0,0,0,0,0,0,
562,586,588,599,565,595,0,0,0,0,0,0,0,0,0,0,
561,596,596,571,581,598,0,0,0,0,0,0,0,0,0,0,
555,557,579,599,565,562,0,0,0,0,0,0,0,0,0,0,
592,589,554,565,599,585,0,0,0,0,0,0,0,0,0,0,
554,598,562,599,586,586,0,0,0,0,0,0,0,0,0,0,
582,558,561,561,585,572,0,0,0,0,0,0,0,0,0,0,
586,562,586,598,585,588,0,0,0,0,0,0,0,0,0,0,
574,564,596,555,588,564,0,0,0,0,0,0,0,0,0,0,
572,599,585,581,589,574,0,0,0,0,0,0,0,0,0,0,
578,579,596,571,564,561,0,0,0,0,0,0,0,0,0,0,
555,578,592,575,595,592,0,0,0,0,0,0,0,0,0,0,
592,564,564,598,557,568,0,0,0,0,0,0,0,0,0,0
</chunk>
   <chunk x="-1360" y="288" width="16" height="16">
0,0,0,0,0,0,0,595,555,575,555,554,599,596,554,572,
0,0,0,0,0,0,0,581,564,568,595,588,571,595,571,571,
0,0,0,0,0,0,0,585,557,585,596,565,557,579,595,555,
0,0,0,0,0,0,0,599,558,582,562,589,558,555,575,574,
0,0,0,0,0,0,0,561,571,579,595,565,572,558,595,598,
0,0,0,0,0,0,0,558,579,554,572,565,555,579,592,555,
0,0,0,0,0,0,0,575,571,579,582,598,588,565,555,598,
0,0,0,0,0,0,0,561,554,555,578,574,585,589,586,578,
0,0,0,0,0,0,0,564,578,588,592,588,589,595,574,562,
0,0,0,0,0,0,0,592,564,596,564,599,574,561,585,575,
0,0,0,0,0,0,0,599,572,564,578,588,596,586,555,579,
0,0,0,0,0,0,0,554,589,572,574,588,574,599,572,596,
0,0,0,0,0,0,0,599,589,586,562,562,585,598,568,599,
0,0,0,0,0,0,0,585,592,582,565,579,565,574,599,571,
0,0,0,0,0,0,0,575,578,589,592,571,578,554,561,557,
0,0,0,0,0,0,0,582,582,582,578,589,562,572,575,561
</chunk>
   <chunk x="-1344" y="288" width="16" height="16">
558,555,572,595,557,599,564,585,574,568,575,575,557,575,588,558,
599,562,596,574,588,574,581,555,585,588,592,596,557,561,575,582,
598,554,554,589,571,572,596,562,558,558,558,554,557,571,565,565,
596,574,582,554,572,562,555,561,557,582,596,562,565,592,582,599,
575,558,557,561,596,582,555,564,555,555,582,568,564,561,585,572,
595,581,589,574,568,564,574,596,558,562,564,575,582,575,595,565,
582,575,574,574,582,579,589,557,595,568,592,588,589,599,564,557,
592,585,568,564,586,557,598,598,592,588,599,565,579,579,598,592,
574,595,554,574,565,575,578,575,554,598,581,579,592,564,586,564,
555,558,579,599,554,568,558,579,574,554,595,554,557,592,595,588,
598,582,557,592,568,598,561,558,555,581,586,579,589,562,582,589,
588,598,578,562,586,589,578,564,586,599,562,568,596,575,589,589,
596,582,592,572,564,565,588,595,592,589,586,568,557,586,561,572,
575,574,579,562,575,585,578,574,598,555,564,579,564,586,557,564,
564,562,581,555,586,585,582,588,589,599,582,592,574,582,589,579,
586,562,586,568,585,564,561,592,564,565,555,554,598,581,565,595
</chunk>
   <chunk x="-1328" y="288" width="16" height="16">
568,598,581,558,579,554,561,585,565,554,595,562,568,581,596,578,
599,592,596,554,557,554,598,599,579,554,596,588,598,599,589,554,
571,557,565,588,585,568,589,564,554,564,561,582,557,561,564,595,
586,598,589,586,599,579,562,578,596,586,557,589,586,562,554,574,
558,585,598,561,598,585,578,582,565,581,581,562,579,586,571,572,
575,582,568,586,562,588,595,554,557,599,598,599,564,574,555,571,
596,575,557,582,564,561,598,581,582,578,589,571,574,586,572,571,
558,582,564,571,582,586,557,562,568,586,599,557,568,595,592,571,
562,561,571,555,596,572,558,557,588,557,561,595,592,578,588,586,
568,585,575,564,586,581,575,554,599,572,565,564,581,562,558,564,
568,562,571,574,564,592,557,575,581,586,555,561,582,561,586,564,
598,581,568,558,572,568,578,595,599,565,585,562,582,592,575,586,
586,558,589,572,571,572,562,582,578,568,599,561,588,585,558,599,
581,562,592,586,589,561,568,574,596,564,564,589,574,574,586,572,
589,568,589,582,596,585,595,571,598,581,595,554,564,568,579,555,
589,571,592,582,564,568,589,558,585,558,555,561,582,564,585,557
</chunk>
   <chunk x="-1312" y="288" width="16" height="16">
575,561,578,581,575,575,595,558,554,554,589,595,554,564,565,561,
595,578,557,575,588,582,555,592,562,565,599,564,571,585,561,586,
574,575,599,555,574,558,562,592,568,572,599,592,568,568,561,572,
581,562,558,557,589,596,585,557,562,572,589,562,592,574,558,558,
581,571,572,588,596,595,592,574,568,588,557,564,599,578,579,579,
564,579,592,585,589,574,599,574,589,598,586,575,582,574,562,595,
596,565,586,575,568,581,575,564,581,595,599,564,558,589,595,561,
557,581,571,574,565,554,564,568,579,561,578,554,561,575,562,598,
586,561,554,592,598,557,598,579,586,592,596,579,578,575,572,574,
585,595,579,579,568,599,598,595,571,579,565,595,585,571,585,581,
558,589,568,554,585,579,565,598,598,578,565,554,554,579,579,564,
555,592,581,575,599,595,558,588,588,579,592,561,596,561,598,575,
571,557,581,596,564,574,554,575,598,581,598,599,562,582,595,554,
571,592,571,558,571,574,582,586,574,558,579,582,555,586,564,558,
557,574,582,565,568,598,581,582,589,598,568,571,571,574,586,598,
598,592,568,575,562,574,562,564,572,562,589,596,571,568,565,571
</chunk>
   <chunk x="-1296" y="288" width="16" height="16">
579,599,595,596,581,561,592,568,558,564,595,588,574,575,592,586,
579,589,562,561,554,571,557,564,586,581,575,568,557,592,586,564,
557,568,578,598,592,578,554,554,571,575,561,571,574,586,596,568,
562,574,558,578,596,555,595,565,579,565,564,568,581,572,596,564,
571,596,565,595,575,586,575,564,596,579,564,568,561,557,582,582,
586,585,582,574,589,574,572,596,589,589,562,574,592,575,558,581,
574,592,555,558,579,574,595,571,579,571,557,588,592,582,564,568,
578,561,574,599,579,579,574,588,596,598,596,555,578,578,572,554,
561,554,598,578,589,561,554,554,561,565,564,592,565,574,564,595,
596,575,575,575,595,582,557,561,579,579,564,598,581,562,562,589,
562,571,588,554,562,595,581,555,558,568,592,578,589,562,571,595,
579,561,554,554,554,581,589,589,557,581,595,599,579,572,588,554,
555,598,599,581,568,596,595,596,575,554,588,568,555,574,585,586,
598,588,571,588,581,554,561,578,555,557,562,588,595,596,578,598,
574,574,589,555,575,558,561,562,571,578,595,579,585,554,596,575,
558,585,595,589,595,561,557,554,589,571,562,581,585,592,588,586
</chunk>
   <chunk x="-1280" y="288" width="16" height="16">
554,554,579,592,562,558,557,599,588,588,586,599,598,574,565,596,
575,595,582,579,581,565,579,568,554,558,564,554,554,578,579,565,
592,564,582,596,586,578,555,592,589,562,578,581,558,555,578,571,
581,595,564,574,582,595,598,554,554,599,588,564,572,596,581,598,
568,598,585,558,586,598,562,564,579,574,568,599,571,599,564,575,
571,555,554,561,598,555,589,581,592,557,585,592,586,589,561,592,
578,561,599,585,564,592,596,572,575,579,571,582,555,588,571,575,
586,596,575,555,568,557,592,578,586,581,586,592,581,558,588,571,
574,585,568,581,554,568,562,557,575,572,592,554,598,585,598,555,
574,554,571,598,581,555,588,582,585,575,598,554,581,582,599,562,
579,568,585,581,558,565,562,598,571,598,572,572,595,574,578,598,
561,558,589,565,578,595,575,561,598,564,596,596,562,589,558,568,
581,578,586,589,592,558,599,595,574,554,557,574,574,586,568,572,
585,599,555,568,564,598,571,574,589,565,572,586,586,596,598,568,
557,557,571,555,596,588,598,581,596,561,561,589,581,589,555,589,
581,562,558,572,557,568,596,589,562,598,557,586,557,564,582,595
</chunk>
   <chunk x="-1264" y="288" width="16" height="16">
562,595,581,579,588,589,588,581,568,596,599,589,596,581,581,557,
572,574,598,555,586,579,572,561,585,555,575,586,592,589,596,581,
568,599,564,554,571,581,582,595,586,578,554,574,578,564,558,574,
557,595,595,588,592,582,561,554,578,562,571,589,575,575,572,562,
589,572,585,599,574,561,582,595,562,595,574,581,592,582,558,588,
555,571,572,561,568,557,582,581,578,596,589,564,586,581,578,558,
555,575,574,562,582,579,575,588,557,578,557,582,581,579,592,598,
596,599,562,588,562,565,579,582,572,579,557,596,589,579,598,568,
589,571,596,586,592,582,595,572,555,557,589,557,562,581,557,588,
565,586,582,598,562,599,561,554,582,598,586,568,557,589,571,596,
596,586,565,596,572,588,557,582,554,582,582,554,574,579,562,595,
589,571,581,564,571,599,592,572,592,564,599,565,579,555,592,592,
555,578,581,564,589,564,578,578,565,562,565,585,595,561,586,574,
595,582,572,596,558,572,585,565,579,557,564,557,571,571,592,578,
557,578,575,561,579,578,579,586,561,562,558,575,554,582,596,575,
574,589,596,598,555,595,586,599,565,596,571,595,565,599,558,592
</chunk>
   <chunk x="-1248" y="288" width="16" height="16">
562,586,561,565,555,557,585,565,562,562,592,599,565,555,555,589,
571,595,558,579,585,595,581,572,574,562,582,565,578,586,586,564,
561,589,581,585,574,572,582,562,592,579,557,562,568,562,575,579,
568,599,557,598,581,595,555,575,579,585,568,598,565,575,586,579,
581,565,582,558,582,571,598,578,555,588,578,562,579,581,565,582,
561,561,592,589,598,586,592,579,557,588,595,575,568,564,592,571,
588,574,599,599,592,592,599,562,595,589,564,564,558,588,595,572,
592,586,588,588,596,598,558,589,595,589,596,555,575,561,558,574,
572,571,555,582,571,575,585,581,574,578,561,586,568,562,575,599,
562,588,557,582,595,575,581,592,578,595,575,571,596,554,572,595,
588,572,579,581,574,568,585,562,595,598,588,565,574,561,578,598,
578,596,561,561,572,588,588,557,575,581,592,555,564,588,568,589,
599,561,598,572,574,562,595,564,572,582,562,561,565,571,586,592,
586,565,564,571,578,598,565,599,595,588,571,579,599,581,568,561,
571,554,585,562,586,572,579,572,599,574,582,599,574,592,599,578,
561,565,585,575,557,578,575,579,588,557,596,596,562,599,558,574
</chunk>
   <chunk x="-1232" y="288" width="16" height="16">
557,579,572,578,585,555,574,585,588,582,558,579,558,554,561,565,
595,579,595,579,592,562,598,574,579,571,558,586,572,554,572,562,
555,596,589,555,557,557,592,575,568,595,595,588,581,598,575,588,
554,562,585,578,589,595,568,564,579,589,585,555,582,588,572,592,
581,585,592,582,565,582,554,564,575,571,596,582,598,568,581,565,
592,562,558,588,571,564,568,581,589,555,562,564,555,574,596,557,
574,579,581,554,575,571,592,592,595,572,598,589,562,598,599,592,
557,599,592,574,586,578,575,565,598,592,558,596,557,555,589,555,
574,564,575,578,582,578,585,557,585,558,575,574,586,578,572,568,
562,571,595,554,586,568,574,564,565,555,565,572,554,568,599,562,
585,581,568,562,585,565,581,599,586,588,585,572,589,586,589,585,
579,586,598,558,599,592,571,568,572,564,588,588,564,578,582,555,
599,589,586,572,562,564,558,581,558,582,596,598,581,582,582,564,
575,557,561,575,564,578,561,598,554,579,592,554,575,578,565,581,
554,579,565,564,562,565,598,581,578,592,555,596,582,578,579,565,
581,571,579,565,586,568,574,592,598,575,579,572,582,595,585,572
</chunk>
   <chunk x="-1216" y="288" width="16" height="16">
586,588,598,558,598,586,582,586,592,575,564,562,579,582,565,564,
558,595,575,574,595,575,558,565,564,568,582,588,565,592,554,557,
571,599,561,561,586,568,578,596,599,575,557,572,555,582,596,589,
579,574,592,581,581,579,574,554,599,578,568,599,599,579,557,585,
568,595,568,598,599,596,581,558,554,579,557,574,554,596,565,574,
572,596,572,554,564,554,585,581,582,596,589,581,571,579,596,582,
599,581,592,571,554,554,564,568,568,565,571,571,558,561,589,561,
555,598,599,599,572,595,595,568,571,585,592,586,565,575,595,598,
561,561,554,582,595,582,585,574,596,578,579,579,598,554,572,571,
557,585,568,554,596,558,564,579,592,585,574,581,562,572,572,586,
599,558,561,574,568,582,585,565,596,595,557,575,564,595,599,588,
592,561,585,572,589,588,588,575,575,592,588,575,557,598,575,598,
588,574,595,562,575,579,595,588,581,598,558,589,572,564,555,561,
586,582,588,581,588,574,564,595,555,565,555,561,578,572,575,586,
565,574,571,575,557,575,579,561,564,575,589,554,562,561,555,572,
564,565,598,586,557,568,564,578,579,578,588,598,582,578,558,579
</chunk>
   <chunk x="-1200" y="288" width="16" height="16">
572,588,592,579,598,596,595,599,555,599,588,598,564,574,561,581,
589,564,585,568,574,599,561,557,558,588,589,572,554,564,595,589,
596,582,599,555,579,561,588,582,558,598,582,558,596,557,557,557,
579,581,589,595,557,582,579,558,555,585,578,581,578,578,579,568,
598,598,586,572,572,555,561,592,562,555,589,558,554,574,585,592,
561,571,564,575,581,599,598,575,555,554,554,565,585,586,568,579,
599,589,558,575,589,596,557,598,579,599,586,575,565,561,579,598,
589,557,588,598,568,554,561,582,555,588,575,575,585,565,585,572,
562,555,589,568,555,554,592,586,598,571,558,561,582,599,596,565,
592,588,596,585,599,579,568,557,555,585,595,589,561,589,596,586,
599,599,585,572,572,592,574,599,599,555,579,571,565,588,558,572,
595,595,572,589,578,578,564,555,595,564,596,554,565,574,568,588,
561,586,596,572,564,557,579,588,554,589,586,565,595,558,586,557,
592,581,599,564,572,555,598,574,582,555,558,585,578,595,588,598,
596,599,582,586,585,564,575,555,562,571,562,561,585,558,562,561,
579,574,596,568,564,564,598,589,574,588,581,574,564,579,581,562
</chunk>
   <chunk x="-1184" y="288" width="16" height="16">
588,554,598,592,586,571,571,571,598,599,588,578,579,588,558,554,
562,582,562,562,582,575,592,561,564,568,581,588,588,572,592,555,
561,581,554,595,555,561,575,595,598,598,562,588,565,575,579,574,
596,558,557,598,581,568,564,599,588,558,555,571,554,555,557,554,
558,598,579,574,585,562,562,574,588,555,586,582,585,589,571,589,
565,561,579,572,557,572,586,588,555,557,599,568,568,557,561,581,
589,562,589,564,557,574,579,557,572,598,565,578,561,589,571,574,
581,561,596,555,574,562,599,582,596,572,581,598,581,592,579,596,
574,588,557,564,565,554,555,554,561,588,571,592,557,554,598,555,
564,557,558,578,568,582,568,562,557,588,574,568,565,596,572,568,
592,579,598,572,565,564,558,589,555,572,581,592,557,557,555,572,
565,589,557,592,592,574,565,571,599,596,585,574,579,589,554,555,
581,586,579,589,595,571,596,586,568,599,596,596,586,562,557,595,
588,558,586,555,555,574,571,575,561,595,565,558,578,561,589,565,
561,561,564,588,564,568,588,568,575,599,561,555,558,582,554,588,
571,565,579,592,562,572,562,565,588,579,555,571,579,554,572,599
</chunk>
   <chunk x="-1168" y="288" width="16" height="16">
564,582,557,554,574,557,598,568,568,592,575,598,554,578,0,0,
595,564,558,557,579,592,575,595,564,581,562,575,555,571,0,0,
562,555,598,582,578,592,568,578,565,598,585,592,598,562,0,0,
558,595,571,578,599,564,595,562,598,574,578,574,555,572,0,0,
579,592,571,572,561,579,574,595,568,588,578,568,557,595,0,0,
568,554,589,555,571,582,582,554,579,582,562,571,555,582,0,0,
561,585,575,555,568,562,572,581,565,592,599,574,579,562,0,0,
589,554,557,599,586,558,575,571,562,592,598,562,582,565,0,0,
575,564,564,581,557,585,595,555,568,582,574,579,589,565,0,0,
581,558,596,596,599,564,578,586,562,578,582,585,592,565,0,0,
582,564,575,575,574,562,568,557,572,562,554,564,565,592,0,0,
558,581,582,575,564,581,581,595,592,554,596,554,592,586,0,0,
595,555,574,582,592,578,564,582,554,579,579,586,574,562,0,0,
578,592,554,574,572,564,598,581,554,595,555,564,596,557,0,0,
581,578,582,565,598,555,588,561,585,558,596,561,557,561,0,0,
598,561,579,555,581,564,588,575,578,582,596,588,557,558,0,0
</chunk>
   <chunk x="-1088" y="288" width="16" height="16">
0,0,0,0,0,0,0,0,0,0,0,0,0,555,589,557,
0,0,0,0,0,0,0,0,0,0,0,0,0,578,578,562,
0,0,0,0,0,0,0,0,0,0,0,0,0,579,595,575,
0,0,0,0,0,0,0,0,0,0,0,0,0,561,568,557,
0,0,0,0,0,0,0,0,0,0,0,0,0,575,562,574,
0,0,0,0,0,0,0,0,0,0,0,0,0,575,592,598,
0,0,0,0,0,0,0,0,0,0,0,0,0,596,555,598,
0,0,0,0,0,0,0,0,0,0,0,0,0,571,555,585,
0,0,0,0,0,0,0,0,0,0,0,0,0,558,574,562,
0,0,0,0,0,0,0,0,0,0,0,0,0,598,572,581,
0,0,0,0,0,0,0,0,0,0,0,0,0,555,558,592,
0,0,0,0,0,0,0,0,0,0,0,0,0,562,588,555,
0,0,0,0,0,0,0,0,0,0,0,0,0,599,598,564,
0,0,0,0,0,0,0,0,0,0,0,0,0,586,554,589,
0,0,0,0,0,0,0,0,0,0,0,0,0,575,578,558,
0,0,0,0,0,0,0,0,0,0,0,0,0,555,585,579
</chunk>
   <chunk x="-1072" y="288" width="16" height="16">
588,578,575,575,565,582,558,564,588,568,568,592,596,589,557,561,
581,562,561,565,579,598,574,582,581,562,565,579,578,592,557,572,
588,592,579,579,585,575,564,557,564,589,558,554,586,579,565,586,
588,585,557,578,562,562,568,575,571,574,596,586,575,581,554,595,
599,562,565,554,557,561,561,565,585,571,571,555,579,555,581,588,
596,557,572,564,599,596,592,557,562,557,568,572,586,571,596,586,
579,568,586,595,579,599,572,574,574,564,599,558,599,596,555,564,
588,599,561,588,562,579,595,585,571,565,581,565,568,592,585,582,
574,585,586,562,572,575,589,575,595,586,565,592,599,555,596,565,
582,596,599,579,599,582,575,598,592,588,599,598,557,564,557,589,
599,585,565,558,581,586,582,558,561,581,555,561,562,586,581,598,
557,585,572,582,595,598,582,574,575,568,564,558,598,565,571,579,
574,562,572,589,554,575,578,585,568,578,557,592,596,571,579,558,
568,585,589,588,581,554,579,562,585,561,562,581,565,562,579,585,
562,588,558,578,586,564,568,555,579,589,589,564,572,574,589,581,
581,581,578,564,586,592,554,579,564,558,585,568,598,558,596,575
</chunk>
   <chunk x="-1056" y="288" width="16" height="16">
599,571,598,574,558,581,579,581,554,581,572,562,579,565,554,554,
585,554,554,592,572,595,582,582,578,596,596,574,588,571,578,589,
568,596,595,555,581,582,562,572,592,599,586,586,568,568,595,575,
598,558,592,572,561,558,579,582,585,558,579,588,561,598,565,579,
565,555,568,589,596,598,554,564,595,575,585,592,585,585,568,557,
562,578,578,596,565,554,578,592,595,586,575,571,585,564,555,596,
588,564,554,592,586,555,555,571,572,558,558,571,564,561,561,561,
598,586,578,568,565,554,562,585,555,557,571,595,595,582,588,557,
565,568,558,555,592,588,564,572,599,578,558,557,558,557,555,595,
558,582,581,558,599,554,558,568,585,568,582,588,568,575,575,579,
596,596,554,558,578,592,578,578,571,595,598,579,586,582,586,592,
589,582,571,586,581,571,557,557,571,571,589,582,572,557,575,599,
575,558,565,578,571,581,572,564,562,579,558,592,571,558,585,574,
561,555,575,582,585,582,596,599,581,558,572,585,572,554,578,562,
598,564,558,595,588,572,554,562,581,555,562,585,582,582,555,562,
598,589,557,585,582,565,568,599,596,561,564,565,585,596,564,564
</chunk>
   <chunk x="-1040" y="288" width="16" height="16">
558,568,561,574,571,554,572,581,571,596,589,572,581,565,599,579,
564,588,578,555,599,574,592,589,554,575,579,575,599,554,568,558,
564,561,572,558,578,572,558,598,596,585,598,555,581,595,571,585,
574,572,585,589,581,565,565,562,589,555,572,574,588,596,592,599,
586,586,558,554,579,574,554,585,568,561,578,588,588,581,555,561,
572,561,571,572,572,578,561,585,575,554,554,586,596,586,571,599,
599,599,571,558,579,578,555,568,581,579,598,562,578,565,599,555,
571,595,555,582,574,581,562,575,568,557,572,564,568,555,582,586,
578,555,572,568,568,562,578,575,571,575,571,572,561,589,568,588,
565,578,578,562,568,582,581,574,598,554,574,586,578,574,557,592,
555,554,568,572,578,572,581,554,595,561,598,562,598,572,557,578,
562,581,586,558,596,582,564,555,596,595,599,578,582,557,561,578,
562,557,564,589,562,557,562,574,572,554,579,574,582,581,561,595,
596,554,598,582,565,578,595,562,565,574,598,555,558,565,585,585,
582,575,574,555,557,588,572,554,598,575,595,585,557,596,571,592,
568,571,599,581,578,579,599,558,598,555,588,561,557,561,564,555
</chunk>
   <chunk x="-1024" y="288" width="16" height="16">
581,554,586,585,592,595,557,588,586,589,568,571,579,598,581,598,
557,557,595,562,568,578,571,565,598,582,589,565,589,596,598,572,
572,598,575,589,574,575,554,572,565,564,599,599,586,579,571,555,
568,599,579,571,555,592,568,565,596,586,599,595,589,582,598,592,
558,596,579,595,579,598,568,588,574,585,599,561,557,595,581,585,
592,572,582,578,588,571,557,592,561,571,575,589,589,586,564,585,
554,595,582,555,592,579,574,555,589,574,598,574,571,582,595,595,
565,562,592,598,596,595,599,571,581,586,581,579,572,568,582,588,
596,596,599,599,582,571,572,592,588,555,582,586,589,564,562,585,
581,557,585,565,564,565,595,595,589,574,561,592,599,561,592,588,
574,598,572,554,578,564,555,571,592,581,557,558,589,589,574,579,
564,595,581,557,575,586,589,568,592,564,586,561,572,575,582,599,
588,557,599,562,586,561,561,579,554,578,564,562,575,572,599,592,
595,581,557,578,568,589,557,571,564,564,586,557,578,589,595,557,
596,592,564,592,554,592,596,596,579,568,595,562,582,574,557,555,
596,589,571,575,579,555,585,579,579,554,575,564,582,586,554,598
</chunk>
   <chunk x="-1008" y="288" width="16" height="16">
585,557,598,574,599,574,595,592,572,581,571,562,579,578,586,598,
578,554,568,575,588,564,574,589,558,571,554,588,598,579,581,578,
554,558,558,596,586,585,595,586,589,554,588,565,564,579,571,599,
582,554,565,574,579,557,586,589,574,565,596,589,598,555,571,557,
579,561,575,554,571,561,596,585,586,574,571,572,595,564,572,598,
579,586,568,564,564,585,574,564,582,588,595,578,581,599,582,562,
555,568,568,595,571,572,595,572,575,598,596,572,581,585,586,589,
589,572,557,561,595,562,564,585,582,561,578,582,582,585,572,588,
561,574,574,588,586,578,585,571,574,596,598,557,585,598,598,564,
575,562,581,598,571,568,588,565,558,595,555,565,588,589,558,599,
599,558,557,571,578,571,575,598,586,561,595,557,572,585,558,586,
574,554,558,562,572,554,582,599,564,555,564,561,561,575,595,568,
588,574,579,582,571,564,579,575,588,578,574,575,592,574,564,564,
578,565,579,554,568,586,557,585,555,585,574,581,555,586,588,564,
565,582,554,596,568,571,575,589,585,571,557,575,581,589,564,595,
585,558,557,586,578,585,562,588,554,578,571,575,578,578,585,554
</chunk>
   <chunk x="-992" y="288" width="16" height="16">
578,586,564,586,598,586,586,562,557,557,598,562,586,564,574,586,
568,598,595,565,574,561,596,557,578,579,565,582,555,598,585,585,
599,579,592,579,595,568,565,588,575,575,589,568,562,586,579,554,
562,599,564,578,589,592,561,585,557,578,562,582,571,571,588,592,
572,558,558,561,579,578,599,565,558,554,596,582,596,575,555,571,
568,592,592,558,581,595,568,558,595,598,592,582,557,572,558,579,
555,589,564,589,581,555,595,554,568,588,575,599,596,592,562,557,
554,558,574,578,582,585,555,564,555,586,596,596,585,599,585,555,
589,595,568,562,579,582,598,586,579,565,554,588,564,554,558,581,
578,564,581,581,557,571,582,568,596,598,578,581,596,585,598,572,
581,599,586,575,555,588,599,571,562,554,595,568,598,558,592,561,
596,561,589,582,578,578,589,588,579,579,599,555,572,598,565,562,
598,588,571,588,574,555,568,595,586,561,554,582,554,586,555,578,
581,564,555,596,598,586,579,578,589,585,579,596,581,592,568,565,
555,588,585,575,558,582,564,589,558,595,586,598,562,581,589,599,
562,574,568,599,568,574,578,595,554,585,572,592,554,585,585,581
</chunk>
   <chunk x="-976" y="288" width="16" height="16">
578,592,599,554,596,561,568,599,574,599,581,558,555,571,579,564,
561,564,579,578,574,595,596,596,564,564,588,555,599,581,581,568,
574,571,557,574,595,557,554,592,564,582,561,585,557,598,568,572,
557,588,568,595,562,562,586,557,578,564,579,585,572,565,596,572,
568,599,585,592,564,599,585,561,595,585,596,581,557,578,575,589,
557,574,586,568,557,578,582,554,565,585,555,598,581,555,564,572,
575,574,555,595,586,595,575,575,595,589,555,589,595,565,598,582,
571,561,574,568,595,579,596,578,582,555,561,588,575,564,561,581,
589,585,557,578,578,589,581,558,575,558,558,565,586,581,578,595,
568,578,565,579,561,554,554,589,565,568,574,558,572,554,581,555,
589,557,568,557,596,595,562,555,582,557,565,578,585,554,579,572,
586,574,574,575,561,565,572,565,555,564,561,574,596,564,574,598,
565,589,588,578,561,565,558,557,585,585,564,564,568,595,575,568,
596,598,571,589,599,585,598,578,599,581,599,588,571,598,558,579,
555,565,568,596,562,599,561,555,562,571,561,555,589,588,598,562,
585,582,557,555,581,592,572,565,562,555,592,579,589,571,575,586
</chunk>
   <chunk x="-960" y="288" width="16" height="16">
557,586,599,575,555,579,579,554,582,565,555,564,575,589,568,595,
596,581,555,558,558,564,554,585,571,572,575,555,565,589,595,588,
582,561,582,564,589,596,568,599,596,565,598,555,595,565,585,565,
572,579,586,582,585,589,554,561,555,571,579,554,571,564,561,592,
592,586,586,585,562,588,582,589,558,585,574,554,585,565,599,595,
595,595,582,579,589,575,592,557,578,596,592,562,592,585,561,568,
598,571,554,571,588,558,588,599,588,554,582,596,562,574,578,558,
599,562,558,564,557,568,596,575,589,565,598,574,557,598,588,571,
565,588,571,589,562,579,575,599,574,586,572,586,595,578,599,557,
579,592,565,599,592,586,589,592,589,586,598,579,589,572,586,565,
571,561,561,561,571,586,561,571,568,557,578,568,568,561,595,568,
586,558,589,592,555,596,558,575,598,555,554,572,598,557,561,564,
579,557,581,564,575,581,574,595,586,592,574,571,555,596,571,589,
572,582,586,588,554,557,599,575,585,581,558,562,557,572,581,578,
558,585,598,558,589,588,572,582,579,586,589,598,562,554,571,558,
578,558,582,599,578,571,562,565,578,578,589,596,592,558,571,572
</chunk>
   <chunk x="-944" y="288" width="16" height="16">
562,574,554,588,561,585,562,585,592,599,599,565,585,581,565,574,
572,581,578,578,568,582,565,555,572,554,598,592,568,554,557,586,
565,588,578,557,564,558,589,589,562,568,588,568,589,586,574,574,
575,588,582,581,589,571,586,555,598,574,561,557,598,572,588,588,
579,574,555,598,578,568,588,596,568,575,592,564,557,598,571,565,
568,571,599,579,586,585,582,598,564,592,562,575,588,561,558,562,
595,589,599,595,558,565,579,585,554,571,586,578,598,575,589,592,
595,585,582,581,599,595,586,592,579,565,568,557,586,586,586,571,
561,589,562,579,579,571,592,568,555,564,572,568,565,585,586,555,
586,595,588,596,589,554,554,586,592,585,571,586,561,575,558,596,
581,561,571,568,575,562,595,596,582,596,588,598,568,564,586,575,
599,598,586,558,598,564,568,554,581,555,581,581,555,572,572,558,
565,568,574,554,572,572,572,598,596,589,586,586,558,588,592,595,
574,554,592,561,557,562,562,557,564,588,571,554,572,561,555,575,
582,554,565,588,598,588,586,572,554,564,585,586,582,589,586,578,
557,565,586,599,598,571,572,557,581,574,579,579,558,595,586,585
</chunk>
   <chunk x="-928" y="288" width="16" height="16">
564,596,565,564,582,585,568,582,579,568,568,565,564,578,589,575,
562,586,574,572,574,585,564,596,588,595,578,579,555,574,588,579,
592,579,564,575,561,575,558,589,554,579,561,554,595,585,554,554,
598,596,579,582,589,574,571,571,571,585,572,599,562,592,582,568,
572,562,582,561,555,596,572,585,557,571,571,557,592,571,582,589,
592,578,555,585,579,557,596,589,585,558,599,564,572,592,592,598,
589,554,554,581,574,574,554,582,558,596,554,561,574,558,557,595,
561,596,598,558,589,562,581,598,561,574,595,595,596,592,568,586,
599,585,581,592,581,572,561,562,561,579,598,571,562,599,586,562,
599,574,599,598,596,571,568,561,557,598,588,599,561,579,588,589,
571,564,561,564,557,579,555,558,565,557,581,558,561,571,571,592,
558,598,558,585,575,562,562,592,595,596,598,599,554,595,571,582,
568,582,565,554,575,599,565,585,596,562,555,579,558,581,589,572,
562,572,588,595,578,557,589,555,575,595,595,554,582,568,598,596,
585,598,579,575,575,554,596,575,554,579,579,589,572,568,588,557,
564,579,586,595,578,595,571,589,579,571,582,568,589,596,557,598
</chunk>
   <chunk x="-912" y="288" width="16" height="16">
557,599,562,561,554,586,554,588,555,595,555,581,565,557,581,575,
588,571,589,568,599,581,571,561,579,586,554,574,595,596,572,568,
568,571,557,589,586,596,562,565,568,557,562,561,585,595,596,598,
595,572,562,574,562,574,586,561,578,581,562,575,561,561,572,588,
572,579,582,572,574,599,568,561,572,581,572,564,582,589,579,579,
581,578,582,555,579,598,571,581,555,568,582,568,581,581,572,595,
562,571,581,589,578,558,565,592,558,589,575,562,561,558,564,582,
581,592,572,585,589,595,572,565,579,564,589,592,586,598,571,575,
582,554,572,558,596,562,595,555,585,574,588,565,554,565,588,565,
592,568,592,598,565,564,555,596,589,571,571,581,561,581,557,581,
596,595,555,599,596,596,592,588,568,558,575,599,575,564,595,589,
579,585,598,596,572,585,578,568,586,588,565,557,592,565,574,579,
585,564,592,574,572,574,555,578,581,599,596,575,585,582,555,561,
564,558,575,568,572,578,595,572,557,581,581,585,585,555,579,564,
592,595,586,596,557,588,558,554,562,586,555,575,595,568,571,571,
572,571,588,598,555,554,586,565,592,562,588,574,575,585,599,586
</chunk>
   <chunk x="-896" y="288" width="16" height="16">
578,595,554,592,572,588,596,592,578,588,561,561,585,592,578,582,
595,582,557,565,589,572,558,579,574,554,557,572,575,557,579,582,
592,592,582,561,598,582,595,555,562,574,595,585,592,578,568,562,
592,599,554,586,599,561,558,562,564,557,595,555,571,565,585,555,
565,555,592,574,555,562,564,582,555,568,588,575,582,596,565,564,
554,572,578,571,572,562,574,572,588,557,581,564,582,582,581,599,
586,585,575,588,564,571,564,579,588,561,579,579,562,561,558,579,
574,557,562,596,555,598,588,588,589,557,582,565,572,586,585,554,
568,579,558,565,592,568,598,568,564,561,582,558,596,599,555,561,
575,596,592,571,585,564,557,568,589,554,571,564,599,557,554,589,
558,581,555,554,599,574,595,581,564,562,592,564,595,574,595,574,
557,572,568,582,599,586,582,554,575,582,586,599,554,579,565,571,
571,564,586,579,568,568,596,558,595,571,557,571,574,585,558,596,
564,574,571,599,554,582,588,564,578,592,571,572,561,581,554,579,
588,571,578,585,574,582,555,582,558,581,582,589,557,582,596,586,
578,568,579,568,572,568,572,595,589,564,562,572,582,596,585,554
</chunk>
   <chunk x="-880" y="288" width="16" height="16">
564,558,596,564,555,592,561,564,598,568,582,598,564,568,557,557,
574,575,568,588,562,586,579,582,554,578,565,585,582,592,555,557,
565,555,582,595,599,575,555,585,589,562,596,557,581,586,565,599,
581,574,592,572,555,586,578,555,568,599,575,554,558,592,582,579,
558,578,586,562,595,578,578,598,586,565,579,575,575,562,561,555,
599,588,582,578,581,572,572,572,572,564,572,585,595,572,579,586,
574,564,599,579,582,561,592,571,589,579,596,588,555,581,599,581,
557,599,575,596,562,581,565,564,585,554,562,564,585,578,595,585,
586,558,565,596,599,581,588,574,564,562,565,574,564,595,595,568,
568,564,565,579,562,564,588,571,595,574,578,554,555,581,558,571,
561,599,582,596,575,598,582,579,578,557,592,561,581,582,555,592,
561,589,598,598,579,599,561,579,565,585,554,582,561,585,565,564,
586,571,572,565,581,598,557,585,585,578,575,568,589,572,595,557,
581,554,562,554,562,571,578,568,595,571,581,554,596,565,575,564,
562,564,592,579,588,579,578,561,558,598,592,589,586,578,571,568,
582,571,582,575,579,568,588,562,565,575,571,596,586,581,561,578
</chunk>
   <chunk x="-864" y="288" width="16" height="16">
589,574,568,582,575,555,579,571,599,599,589,581,578,586,575,586,
554,598,578,575,595,574,558,581,588,595,554,589,589,598,564,598,
557,596,585,574,595,575,596,579,585,599,558,557,555,596,558,596,
574,572,575,588,585,588,568,565,571,568,596,581,578,557,581,571,
581,598,558,592,589,589,554,598,586,579,579,574,582,575,558,572,
599,565,565,599,557,592,586,589,572,589,579,588,574,582,555,568,
557,555,585,581,579,588,564,562,554,598,558,555,554,568,555,572,
595,568,555,557,599,592,557,588,586,586,589,589,586,598,574,564,
578,565,595,575,581,564,568,555,599,555,596,598,554,561,565,595,
579,574,574,571,598,598,599,581,581,572,578,575,585,596,558,561,
561,568,582,585,592,564,588,571,578,571,558,555,565,557,568,571,
575,574,592,554,578,595,564,589,555,595,571,598,571,562,586,598,
596,585,596,575,562,555,555,565,582,581,579,588,574,581,561,582,
555,599,595,578,565,579,589,568,579,564,571,598,568,588,595,589,
574,592,554,581,585,579,561,582,581,557,592,586,579,598,564,582,
564,596,581,582,568,579,574,579,554,568,578,596,586,579,574,568
</chunk>
   <chunk x="-848" y="288" width="16" height="16">
565,578,561,572,598,578,0,0,0,0,0,0,0,0,0,0,
579,557,572,586,599,596,0,0,0,0,0,0,0,0,0,0,
561,575,595,581,558,554,0,0,0,0,0,0,0,0,0,0,
581,579,599,588,572,592,0,0,0,0,0,0,0,0,0,0,
568,565,562,554,596,596,0,0,0,0,0,0,0,0,0,0,
557,589,595,595,555,571,0,0,0,0,0,0,0,0,0,0,
572,596,574,579,586,589,0,0,0,0,0,0,0,0,0,0,
568,598,575,598,555,578,0,0,0,0,0,0,0,0,0,0,
574,596,562,574,585,589,0,0,0,0,0,0,0,0,0,0,
554,582,572,582,575,582,0,0,0,0,0,0,0,0,0,0,
554,572,558,588,562,579,0,0,0,0,0,0,0,0,0,0,
588,592,562,599,565,554,0,0,0,0,0,0,0,0,0,0,
589,588,574,571,588,598,0,0,0,0,0,0,0,0,0,0,
596,562,579,586,595,564,0,0,0,0,0,0,0,0,0,0,
589,596,599,568,598,564,0,0,0,0,0,0,0,0,0,0,
565,582,588,561,582,588,0,0,0,0,0,0,0,0,0,0
</chunk>
   <chunk x="-1360" y="304" width="16" height="16">
0,0,0,0,0,0,0,592,586,579,588,579,575,581,581,571,
0,0,0,0,0,0,0,558,575,575,557,599,589,585,561,581,
0,0,0,0,0,0,0,571,572,562,568,581,578,582,588,586,
0,0,0,0,0,0,0,586,554,562,571,588,568,561,596,595,
0,0,0,0,0,0,0,592,561,571,586,574,581,579,564,592,
0,0,0,0,0,0,0,592,596,599,585,589,588,581,575,592,
0,0,0,0,0,0,0,579,572,564,568,558,565,595,582,564,
0,0,0,0,0,0,0,586,589,582,568,595,557,599,599,578,
0,0,0,0,0,0,0,585,586,578,595,575,595,586,581,557,
0,0,0,0,0,0,0,575,598,589,572,572,581,558,586,589,
0,0,0,0,0,0,0,588,562,585,571,554,575,564,571,564,
0,0,0,0,0,0,0,555,578,562,554,596,578,564,565,578,
0,0,0,0,0,0,0,599,579,598,589,585,596,599,598,557,
0,0,0,0,0,0,0,561,558,558,586,574,596,558,596,578,
0,0,0,0,0,0,0,572,595,565,578,561,555,581,598,585,
0,0,0,0,0,0,0,557,555,554,595,564,578,561,575,558
</chunk>
   <chunk x="-1344" y="304" width="16" height="16">
558,578,568,588,575,598,557,592,599,572,555,598,588,555,598,557,
574,565,557,581,586,598,555,558,565,565,571,564,558,564,575,564,
564,578,582,555,574,568,579,598,589,554,555,579,562,582,554,582,
568,595,582,558,561,598,574,568,574,586,564,585,596,578,571,592,
578,555,579,558,572,596,579,592,574,592,568,555,589,564,578,562,
575,571,596,572,555,562,575,558,599,599,599,578,562,574,598,568,
555,585,599,554,555,554,586,599,555,557,568,562,557,599,599,582,
595,571,578,565,592,558,565,588,568,564,598,561,582,572,579,555,
578,554,564,596,588,571,561,564,586,558,558,578,558,564,557,586,
598,598,568,574,581,599,562,578,595,565,557,596,555,574,554,571,
599,596,579,555,558,557,586,598,565,578,565,574,588,598,599,586,
582,582,574,571,575,568,574,572,598,561,589,599,574,579,589,588,
592,557,581,568,561,598,596,555,586,557,595,585,575,589,568,578,
595,579,558,599,555,598,555,581,581,561,585,555,561,582,596,571,
586,565,599,589,558,565,586,595,581,555,599,568,596,582,562,558,
588,596,575,598,562,554,572,557,585,558,564,595,582,565,561,571
</chunk>
   <chunk x="-1328" y="304" width="16" height="16">
571,578,568,558,589,588,599,588,592,579,599,585,585,599,592,585,
599,582,586,554,575,554,596,581,581,561,565,558,585,585,561,596,
575,598,568,568,561,568,555,595,562,589,558,564,562,558,557,558,
578,558,557,565,571,579,568,596,574,572,588,578,555,581,579,579,
565,564,568,599,575,554,596,581,582,582,571,574,554,565,581,596,
585,557,557,574,599,557,558,586,598,554,565,565,554,574,582,585,
586,558,582,581,561,555,575,581,561,582,572,599,589,599,555,589,
586,599,586,562,554,561,571,575,585,555,599,575,578,565,572,582,
574,565,592,571,586,575,568,562,598,572,586,561,558,588,582,568,
585,558,572,579,555,568,592,575,589,582,572,574,579,575,589,574,
596,558,564,578,554,585,562,568,557,564,596,568,572,561,565,588,
581,574,596,572,586,562,579,596,564,558,555,581,592,572,562,557,
574,586,592,568,581,575,585,574,568,562,554,598,571,562,578,589,
571,578,598,557,578,562,588,561,582,574,596,598,571,585,578,575,
574,598,592,596,586,578,585,555,568,596,565,575,581,574,579,595,
562,558,579,555,571,582,561,555,588,599,565,581,588,586,571,592
</chunk>
   <chunk x="-1312" y="304" width="16" height="16">
599,598,598,579,579,599,557,554,565,592,572,572,585,592,582,554,
586,588,579,554,562,579,562,558,571,564,579,572,568,571,561,554,
571,579,574,588,585,554,596,589,574,598,561,599,585,565,557,562,
596,586,588,562,574,589,562,564,555,588,555,592,579,574,558,575,
599,571,562,574,571,585,598,555,554,579,581,561,582,579,571,592,
558,575,565,564,565,557,586,579,564,562,554,589,599,557,595,588,
575,595,554,561,557,554,581,592,581,579,554,585,572,561,589,578,
579,579,558,565,595,596,554,575,565,557,565,574,596,557,578,564,
599,596,568,581,575,588,558,596,581,581,568,585,572,562,581,572,
592,598,561,562,585,554,588,562,564,561,565,565,582,562,592,586,
579,575,579,586,596,598,598,589,579,568,561,564,571,596,565,571,
561,562,575,599,598,595,599,592,589,574,599,557,589,596,554,588,
581,561,565,554,585,562,578,561,575,575,588,579,592,561,561,575,
579,571,571,592,582,585,557,588,599,565,561,596,571,565,565,555,
564,575,572,565,558,557,565,578,562,562,581,561,589,564,596,557,
585,598,589,586,574,592,562,581,574,595,572,599,592,589,578,554
</chunk>
   <chunk x="-1296" y="304" width="16" height="16">
557,582,561,588,557,558,571,555,564,582,595,586,599,581,571,565,
561,586,599,574,586,568,595,555,562,585,572,574,589,582,565,557,
572,574,575,565,571,558,595,555,564,574,586,589,579,558,562,575,
599,592,558,568,564,555,592,579,589,579,571,599,554,571,596,589,
564,595,572,562,578,558,562,595,558,571,555,574,574,595,585,581,
581,554,586,585,564,592,578,572,579,586,574,554,564,589,586,574,
558,578,565,589,595,586,572,558,557,564,558,565,571,554,571,596,
598,579,568,562,578,589,558,561,554,599,598,582,554,581,592,596,
598,585,592,588,565,596,562,598,574,595,555,599,596,557,586,592,
572,564,561,578,564,574,589,598,557,595,574,579,596,579,561,557,
595,554,572,557,572,572,568,595,561,585,572,557,574,579,561,557,
555,586,564,571,574,572,579,571,575,561,565,575,578,588,596,574,
581,581,596,568,579,572,579,558,558,599,578,585,579,596,592,571,
582,579,571,585,562,575,582,562,554,568,582,557,588,568,599,575,
568,558,572,592,564,572,581,595,555,578,582,574,586,588,581,564,
581,564,562,565,588,579,562,561,568,595,571,561,568,582,564,555
</chunk>
   <chunk x="-1280" y="304" width="16" height="16">
565,554,588,598,558,579,572,571,575,586,568,572,598,558,568,554,
586,582,599,568,582,595,571,581,561,596,598,555,575,561,582,557,
585,557,554,599,586,578,599,592,562,599,596,574,575,586,564,557,
585,568,554,557,555,557,557,562,571,581,586,554,562,596,557,589,
599,595,586,554,572,574,598,557,592,562,555,589,582,581,586,579,
555,596,571,561,589,575,586,575,572,592,582,562,582,562,564,555,
592,572,589,555,589,557,585,557,598,599,574,599,592,589,561,579,
595,561,578,564,596,586,571,586,558,568,568,554,565,557,557,588,
554,588,588,589,599,599,557,579,558,555,588,578,599,586,579,558,
557,586,557,561,572,575,564,574,564,561,565,568,585,582,574,592,
554,592,595,554,568,564,561,582,589,598,561,571,586,578,564,586,
574,581,564,585,562,588,586,561,589,561,582,565,565,557,562,574,
558,572,554,595,598,575,586,582,578,592,599,585,561,568,589,557,
572,558,558,571,571,586,575,599,558,558,599,554,562,595,572,599,
586,561,575,592,592,599,571,578,562,555,572,571,582,599,595,579,
562,592,561,599,578,595,582,568,592,595,585,595,579,565,554,589
</chunk>
   <chunk x="-1264" y="304" width="16" height="16">
578,565,575,555,558,561,575,574,598,578,586,586,555,565,571,596,
574,598,572,581,564,581,581,565,589,581,575,555,598,589,581,562,
598,561,558,595,558,562,586,562,596,586,554,595,599,589,585,575,
568,572,568,557,582,558,585,579,572,579,579,596,564,596,579,557,
562,579,592,555,554,571,558,558,555,588,588,599,598,589,579,561,
554,564,585,585,565,558,585,592,554,554,586,581,599,555,572,555,
575,561,575,555,598,588,586,579,586,589,558,596,565,582,574,599,
582,582,579,557,595,588,565,572,565,596,578,581,562,574,561,564,
585,571,571,574,579,578,561,578,557,588,581,579,598,555,598,598,
571,561,581,579,582,595,561,574,586,572,565,598,599,579,592,554,
561,574,586,554,588,595,582,571,585,579,555,581,582,555,589,562,
592,561,592,578,561,596,589,568,575,578,561,592,585,595,568,585,
585,595,562,595,582,586,562,558,557,574,555,572,581,568,586,592,
554,599,575,572,595,578,555,578,578,581,579,565,579,579,555,561,
585,582,586,557,586,592,598,564,558,595,585,561,599,554,585,565,
572,582,592,572,571,557,555,568,589,589,555,588,564,586,554,582
</chunk>
   <chunk x="-1248" y="304" width="16" height="16">
578,585,592,574,586,562,589,557,557,565,578,562,568,599,592,557,
554,575,575,599,581,589,586,574,579,555,599,575,572,595,562,585,
561,592,562,561,555,574,599,562,579,598,585,581,564,578,555,558,
595,561,588,575,579,557,575,564,585,572,571,595,558,586,595,585,
572,579,564,586,585,585,568,599,554,575,579,575,554,574,565,589,
561,599,589,572,581,554,582,592,588,574,598,592,588,582,585,598,
598,562,588,554,582,592,574,586,575,558,575,589,557,589,595,568,
595,598,595,581,575,562,588,589,578,599,555,599,561,582,582,558,
589,562,571,557,575,574,595,571,555,564,578,599,579,561,596,598,
564,561,586,558,562,575,581,568,595,574,575,554,589,571,565,582,
575,565,582,582,595,592,555,561,578,588,582,578,595,565,592,595,
555,595,564,555,568,554,561,579,564,595,589,578,582,592,568,592,
557,574,592,588,554,579,564,558,564,598,554,562,572,575,578,558,
568,565,571,581,585,554,562,564,585,562,588,561,596,558,555,596,
565,572,599,575,585,558,595,565,574,598,592,578,586,589,557,558,
588,599,557,588,568,571,588,565,568,561,555,575,595,557,557,588
</chunk>
   <chunk x="-1232" y="304" width="16" height="16">
574,564,581,585,574,578,565,581,585,588,578,574,572,599,582,579,
578,598,578,582,558,571,585,572,555,572,595,585,564,595,599,572,
575,589,589,589,598,565,564,572,558,589,585,574,582,595,575,592,
592,558,568,565,581,557,558,558,571,598,599,564,555,582,562,568,
574,564,564,564,598,568,554,578,582,592,585,592,599,578,592,554,
598,596,589,589,599,564,586,578,562,572,589,598,564,574,575,554,
565,592,572,572,588,572,599,592,561,582,581,582,579,595,568,562,
568,578,589,557,555,589,582,571,575,564,575,599,575,578,578,589,
568,574,574,586,554,596,592,564,596,557,565,558,579,564,557,581,
581,574,578,554,557,595,595,572,599,592,555,555,564,565,564,581,
571,572,557,558,564,589,557,578,568,568,579,572,582,599,555,574,
585,575,554,564,595,561,598,592,599,579,579,562,565,558,557,599,
578,589,578,561,592,595,575,575,557,562,574,568,564,572,574,578,
579,568,557,557,568,586,581,578,582,558,596,598,554,561,586,585,
589,581,564,564,565,596,582,588,586,555,581,586,554,598,596,585,
592,557,554,579,574,595,572,571,581,595,598,561,558,565,582,595
</chunk>
   <chunk x="-1216" y="304" width="16" height="16">
581,592,581,589,571,562,585,575,574,586,562,595,558,582,599,585,
571,598,585,599,596,582,578,585,558,565,574,596,589,585,571,588,
588,568,568,558,554,581,581,558,589,554,582,565,574,588,555,575,
561,596,575,561,557,568,596,586,598,574,588,582,599,596,596,598,
582,565,568,564,586,598,578,562,589,592,586,562,581,564,571,571,
586,564,575,588,582,564,598,558,599,596,557,554,578,565,557,579,
564,588,568,554,564,581,555,595,598,578,575,579,598,582,595,582,
574,555,562,561,599,596,564,561,572,572,596,558,582,565,586,582,
574,592,586,572,599,572,589,564,579,564,582,589,554,564,582,579,
592,565,554,561,562,582,588,599,579,599,568,554,554,586,565,564,
598,572,581,599,558,582,592,588,572,554,554,565,575,558,598,579,
592,581,574,561,582,562,578,578,588,554,595,596,578,579,581,578,
599,554,571,574,596,554,599,554,589,578,562,555,562,555,578,598,
565,598,572,589,572,562,568,599,586,588,557,555,554,585,582,571,
558,592,579,582,557,572,564,568,596,561,582,568,581,561,585,598,
585,572,574,585,592,595,572,595,575,592,574,596,572,589,588,589
</chunk>
   <chunk x="-1200" y="304" width="16" height="16">
585,564,565,571,561,578,574,554,578,554,581,595,568,568,572,575,
564,555,579,585,574,599,589,578,598,574,571,598,582,558,585,561,
555,564,568,579,599,554,574,572,581,599,571,589,582,599,588,592,
558,598,596,598,557,562,592,562,582,598,585,554,598,589,557,554,
578,557,595,581,561,581,562,588,571,561,572,581,585,589,578,571,
599,586,581,595,588,581,555,564,574,585,578,578,558,568,561,586,
568,568,598,568,575,568,562,574,574,555,579,582,565,571,581,581,
596,574,571,558,579,578,574,578,598,589,585,574,557,579,589,575,
562,579,586,568,562,586,582,589,582,564,592,555,558,598,555,599,
588,579,588,579,562,575,592,592,596,572,581,564,599,595,575,575,
585,598,572,557,586,589,599,581,562,599,572,575,585,599,557,582,
558,598,598,568,592,595,596,575,555,578,582,585,554,572,571,589,
571,572,575,599,572,582,595,575,586,579,598,579,596,555,581,581,
561,581,564,586,574,557,588,562,561,599,571,564,564,572,599,562,
588,589,595,574,578,554,575,599,568,565,561,595,589,568,588,557,
558,582,579,571,585,589,555,592,586,589,568,575,592,574,598,575
</chunk>
   <chunk x="-1184" y="304" width="16" height="16">
565,592,555,579,578,561,565,588,599,579,562,595,596,561,558,592,
558,585,572,571,574,571,561,592,581,557,557,557,582,596,575,555,
558,574,568,588,589,572,561,596,558,555,595,586,564,572,574,589,
588,561,554,582,598,558,598,582,555,598,572,592,599,589,598,579,
581,557,596,595,565,574,579,582,599,581,564,565,592,596,571,555,
585,578,588,575,579,595,589,582,572,596,585,571,565,596,578,582,
588,582,598,596,585,575,564,568,555,585,596,572,579,596,578,574,
558,596,554,564,579,579,572,572,572,561,568,599,558,574,572,572,
595,579,588,586,568,575,595,588,579,581,562,595,596,582,585,558,
557,564,555,574,582,592,586,558,582,599,562,574,585,571,598,561,
595,564,582,562,598,554,581,562,588,582,589,572,558,564,561,557,
588,586,575,565,555,578,558,558,582,588,596,596,578,565,575,599,
592,581,571,585,575,589,585,599,592,557,575,599,575,596,579,575,
558,571,585,599,562,571,595,565,582,557,596,581,599,592,555,578,
555,554,578,557,589,571,596,589,565,598,571,592,589,572,557,595,
574,561,582,598,575,562,568,575,575,589,585,572,565,555,557,575
</chunk>
   <chunk x="-1168" y="304" width="16" height="16">
555,599,561,572,562,571,564,595,557,571,565,568,596,599,0,0,
561,579,558,555,582,598,585,575,554,589,589,588,598,579,0,0,
571,571,574,596,562,598,568,572,596,582,558,589,575,596,0,0,
562,575,558,555,555,595,562,598,557,571,554,574,596,581,0,0,
564,596,565,568,582,562,578,557,572,572,565,582,558,564,0,0,
555,592,555,574,561,562,589,557,571,558,588,557,575,557,0,0,
589,589,578,561,589,599,568,564,589,589,589,565,572,575,0,0,
554,557,568,571,562,599,595,586,581,571,592,598,568,554,0,0,
555,578,592,565,575,585,554,571,568,562,555,557,564,575,0,0,
579,578,558,568,585,575,581,595,555,585,582,555,572,572,0,0,
598,592,571,561,565,575,589,568,562,558,579,557,579,586,0,0,
581,564,555,555,557,571,565,568,599,578,568,554,582,558,0,0,
581,555,554,565,581,598,596,575,557,574,565,589,555,595,0,0,
592,599,595,565,574,592,562,557,555,572,598,595,596,588,0,0,
574,574,596,561,568,562,588,588,572,564,562,565,562,589,0,0,
599,572,562,578,578,574,568,558,596,572,595,586,582,561,0,0
</chunk>
   <chunk x="-1088" y="304" width="16" height="16">
0,0,0,0,0,0,0,0,0,0,0,0,0,586,579,599,
0,0,0,0,0,0,0,0,0,0,0,0,0,598,558,585,
0,0,0,0,0,0,0,0,0,0,0,0,0,581,592,596,
0,0,0,0,0,0,0,0,0,0,0,0,0,588,558,557,
0,0,0,0,0,0,0,0,0,0,0,0,0,582,572,581,
0,0,0,0,0,0,0,0,0,0,0,0,0,596,557,558,
0,0,0,0,0,0,0,0,0,0,0,0,0,585,585,592,
0,0,0,0,0,0,0,0,0,0,0,0,0,554,598,588,
0,0,0,0,0,0,0,0,0,0,0,0,0,578,572,562,
0,0,0,0,0,0,0,0,0,0,0,0,0,557,575,557,
0,0,0,0,0,0,0,0,0,0,0,0,0,554,564,586,
0,0,0,0,0,0,0,0,0,0,0,0,0,589,564,589,
0,0,0,0,0,0,0,0,0,0,0,0,0,554,561,558,
0,0,0,0,0,0,0,0,0,0,0,0,0,558,581,599,
0,0,0,0,0,0,0,0,0,0,0,0,0,598,565,574,
0,0,0,0,0,0,0,0,0,0,0,0,0,596,575,572
</chunk>
   <chunk x="-1072" y="304" width="16" height="16">
562,592,562,562,595,581,582,555,574,561,598,599,595,561,599,585,
565,571,599,558,572,596,562,582,571,589,578,581,589,579,572,585,
575,585,575,575,595,572,557,562,588,565,598,578,592,581,562,561,
592,596,575,562,595,574,588,562,564,585,568,557,595,554,595,561,
555,558,589,581,596,586,598,568,589,595,571,568,557,558,582,599,
562,595,558,586,555,588,578,578,582,598,571,572,589,585,578,596,
565,592,558,564,565,564,581,598,589,582,575,554,586,599,557,578,
592,586,581,595,582,586,582,554,588,565,561,589,565,582,554,554,
571,582,592,598,589,578,558,554,568,575,598,589,575,585,585,585,
565,595,574,574,582,575,592,596,571,568,598,581,568,557,592,571,
555,574,589,554,599,579,564,557,599,589,574,572,561,568,599,575,
589,585,574,592,561,574,574,592,558,558,555,554,575,562,568,565,
571,596,557,598,588,574,568,575,562,572,564,592,555,581,575,558,
558,561,589,575,581,558,555,562,564,581,558,582,558,554,564,555,
598,561,568,579,585,598,561,561,555,571,595,572,574,582,575,598,
555,598,557,581,564,558,565,574,579,595,554,579,554,578,572,572
</chunk>
   <chunk x="-1056" y="304" width="16" height="16">
588,599,564,585,589,554,572,579,568,557,588,581,599,575,595,595,
572,564,592,598,574,555,564,562,599,578,574,557,557,592,599,572,
579,586,572,575,575,562,568,596,592,554,595,588,565,581,596,592,
554,588,598,582,585,588,589,562,582,571,581,558,581,578,599,562,
564,557,585,554,575,581,595,599,574,572,586,592,582,575,585,582,
561,582,582,558,568,555,599,599,578,558,558,588,581,572,586,555,
592,588,564,564,575,588,585,582,596,596,572,599,557,585,565,572,
579,592,585,595,585,596,562,572,572,574,581,578,558,582,571,558,
554,564,582,578,558,562,596,586,578,585,582,578,586,585,599,574,
574,596,596,574,592,558,598,562,578,572,575,562,554,557,595,562,
586,568,595,588,554,558,585,564,561,581,565,561,565,581,592,554,
581,562,596,599,571,564,568,558,579,589,562,589,555,558,561,562,
575,557,555,589,572,596,595,595,578,554,595,572,571,564,562,571,
554,578,554,575,572,595,586,582,554,592,555,568,568,555,575,586,
564,557,572,578,564,555,585,568,564,579,582,579,582,574,558,592,
599,572,554,561,571,558,579,561,592,565,572,579,581,585,582,588
</chunk>
   <chunk x="-1040" y="304" width="16" height="16">
582,557,582,562,585,581,562,571,555,592,579,589,585,554,581,588,
582,582,578,574,586,557,599,581,562,568,557,574,586,565,562,599,
554,574,554,575,589,558,582,595,579,585,592,588,558,579,568,586,
561,589,599,575,575,562,575,585,582,582,565,555,582,572,572,581,
598,595,596,598,581,595,558,578,568,558,579,588,565,565,572,595,
565,596,575,555,565,599,565,592,595,568,561,596,575,585,588,571,
582,565,588,554,579,585,579,575,565,598,578,571,562,592,565,589,
568,579,582,589,564,572,557,585,562,565,568,581,554,598,592,578,
558,568,595,571,561,564,554,558,588,555,571,561,558,578,582,575,
554,555,571,557,581,599,571,588,579,555,579,555,581,588,598,588,
592,589,589,555,574,561,582,564,565,596,598,592,582,574,586,588,
596,586,589,588,588,565,571,579,586,571,561,588,595,578,578,598,
589,558,565,565,555,574,592,596,596,558,554,588,574,588,589,582,
555,568,574,586,588,581,572,586,585,554,599,574,582,568,579,555,
558,582,565,571,579,555,558,572,581,589,557,579,574,586,598,579,
574,595,581,579,578,595,581,557,568,596,581,581,562,578,561,595
</chunk>
   <chunk x="-1024" y="304" width="16" height="16">
572,588,579,565,554,581,585,572,581,581,555,554,575,562,571,554,
555,575,585,578,585,562,596,562,565,589,579,589,564,571,557,592,
555,582,574,599,586,578,575,592,554,592,579,595,572,572,598,575,
568,586,589,599,588,578,596,592,596,554,596,588,571,599,592,596,
592,588,555,581,572,565,561,585,561,599,596,578,599,555,554,585,
579,589,558,586,589,572,571,574,588,564,564,579,595,568,582,564,
595,598,562,589,557,595,598,561,598,579,575,589,578,558,599,571,
578,554,599,598,598,558,599,579,585,565,596,581,592,582,588,585,
574,574,582,588,565,575,592,555,596,579,582,588,588,581,579,561,
582,564,579,598,575,564,598,561,592,561,564,565,572,599,596,574,
589,585,575,599,589,564,571,555,558,599,572,571,588,575,555,582,
588,598,575,579,588,586,565,582,561,595,554,589,585,579,558,599,
571,596,588,596,568,582,565,579,598,596,595,589,562,575,571,578,
554,555,585,579,592,596,554,572,568,565,564,554,555,555,598,574,
564,578,579,588,572,588,575,562,561,575,579,595,582,575,581,588,
579,582,592,557,575,586,582,585,578,561,562,561,599,575,564,571
</chunk>
   <chunk x="-1008" y="304" width="16" height="16">
595,599,571,586,568,585,592,571,557,589,585,579,598,588,595,585,
588,588,557,598,578,564,555,598,582,582,554,595,578,585,581,596,
554,578,599,558,598,562,598,561,574,565,598,564,589,562,579,592,
568,588,555,561,555,581,564,562,586,578,585,568,589,582,589,582,
574,586,564,558,568,599,571,562,599,582,598,557,586,564,598,571,
575,572,574,555,578,582,575,599,582,554,561,579,571,579,571,558,
581,585,575,582,564,586,575,599,562,564,599,579,565,568,592,571,
595,558,555,582,589,571,562,588,568,586,599,578,578,598,586,582,
555,574,562,596,565,582,564,589,579,585,589,585,589,575,558,595,
574,557,585,554,568,588,565,562,581,564,598,571,586,562,554,596,
595,557,589,574,589,581,596,582,592,581,558,581,581,572,599,561,
592,557,558,581,571,558,554,564,578,568,592,582,585,554,579,598,
598,565,592,568,586,557,582,565,574,564,571,598,582,564,562,561,
596,565,562,564,588,571,588,588,586,595,571,579,595,554,558,557,
596,554,582,589,554,571,596,557,579,557,557,581,575,596,571,578,
571,596,574,572,562,588,599,558,571,574,585,582,574,557,581,572
</chunk>
   <chunk x="-992" y="304" width="16" height="16">
578,579,585,582,558,585,572,592,582,582,557,598,599,595,579,568,
579,589,588,581,579,588,592,568,565,571,554,568,575,592,554,578,
586,589,589,554,575,568,565,568,598,596,595,565,558,558,595,572,
598,555,565,588,558,574,568,588,562,592,571,564,561,579,599,555,
585,561,572,568,561,558,562,568,572,579,568,571,599,579,554,572,
578,555,554,568,565,572,588,596,562,595,585,582,574,578,581,578,
588,561,589,582,581,588,599,554,561,564,579,585,599,554,579,588,
554,575,558,561,572,586,578,574,586,598,575,572,578,578,561,592,
574,579,557,558,596,582,557,589,571,586,574,554,582,588,592,572,
561,596,558,568,581,589,598,555,589,565,575,574,574,588,581,571,
571,571,562,578,589,598,578,575,579,595,588,595,596,598,588,592,
598,564,565,578,599,592,561,596,592,581,575,557,575,555,581,595,
571,585,562,562,572,589,561,579,579,586,554,589,585,561,586,596,
574,579,555,585,598,588,588,596,564,581,558,589,561,595,596,555,
564,585,588,579,562,568,568,555,589,599,554,579,568,571,585,592,
582,581,562,555,557,588,568,574,568,582,575,596,572,558,586,562
</chunk>
   <chunk x="-976" y="304" width="16" height="16">
564,585,595,588,561,557,586,555,555,585,554,557,589,581,585,575,
579,557,579,582,599,586,575,574,582,586,555,582,585,561,599,592,
557,568,574,555,562,592,561,572,599,589,568,592,592,555,578,595,
575,575,564,581,599,557,596,575,595,568,568,558,557,571,557,592,
562,564,578,564,568,568,592,578,588,554,598,579,599,555,562,562,
568,568,565,598,592,579,596,586,599,575,582,592,595,596,562,575,
571,564,555,582,554,586,568,595,598,589,586,564,581,554,571,562,
557,585,588,599,557,574,557,564,574,585,568,554,568,589,558,592,
579,592,568,585,561,572,595,586,558,558,578,588,568,588,582,561,
589,558,578,568,596,564,574,564,571,578,561,585,586,582,579,555,
599,555,555,589,595,581,589,579,571,561,598,568,595,561,572,554,
599,578,568,596,575,568,598,592,582,555,565,579,575,588,578,596,
579,579,599,588,589,555,558,592,564,562,579,585,564,574,561,557,
592,555,578,558,596,596,579,578,595,575,555,592,555,588,585,558,
557,554,596,565,588,571,579,598,575,596,598,585,575,582,585,574,
554,596,581,599,589,582,581,585,571,557,575,562,589,586,581,575
</chunk>
   <chunk x="-960" y="304" width="16" height="16">
555,554,588,581,565,572,557,562,586,558,555,589,596,578,595,562,
562,561,595,574,564,562,599,555,554,565,564,598,555,555,572,562,
582,592,585,558,575,599,565,572,595,562,589,558,592,561,596,581,
564,572,599,598,595,592,595,558,595,571,592,564,582,588,579,595,
595,595,572,588,585,599,599,595,572,565,571,554,592,555,555,554,
575,571,564,557,579,557,599,599,595,562,596,578,586,572,572,561,
554,557,572,558,579,568,582,578,589,558,568,595,598,571,581,592,
589,598,588,562,595,588,589,565,571,572,588,592,578,588,578,588,
568,574,562,592,568,589,581,561,592,572,581,558,554,592,592,582,
579,557,592,596,558,585,554,582,574,592,592,589,564,562,581,557,
561,585,574,558,596,554,568,571,558,589,589,555,582,561,582,571,
598,585,582,579,599,585,585,585,582,574,585,582,595,562,588,581,
578,562,558,588,568,557,589,581,564,581,561,596,557,596,598,595,
589,581,561,558,555,592,581,582,571,558,595,574,571,561,586,568,
554,558,575,574,574,585,574,581,558,557,595,589,595,589,598,578,
589,578,592,586,581,578,558,561,555,555,588,562,592,579,596,585
</chunk>
   <chunk x="-944" y="304" width="16" height="16">
599,562,571,565,571,592,564,568,582,558,561,568,571,571,588,564,
578,589,575,564,571,568,585,564,582,571,572,599,598,555,574,581,
599,568,562,578,585,562,574,555,579,554,588,568,588,598,555,572,
596,586,581,554,568,565,558,561,581,598,581,562,588,571,592,596,
581,565,571,579,592,575,578,574,557,557,555,565,561,599,562,554,
582,588,579,562,555,555,585,572,564,582,568,565,561,582,565,557,
575,589,588,568,574,592,588,596,575,578,555,572,578,588,579,585,
588,596,572,592,581,555,589,596,572,582,575,595,561,557,582,558,
582,572,586,575,592,589,578,565,579,562,572,581,581,554,585,561,
568,557,599,574,565,574,558,562,564,558,595,575,586,592,572,579,
564,595,595,571,561,582,561,575,592,585,596,581,595,582,558,561,
586,571,599,578,554,571,595,582,575,561,578,575,554,565,592,564,
564,561,588,578,575,557,572,554,578,585,596,575,595,554,575,579,
582,561,564,595,555,599,599,572,557,557,554,579,561,554,585,599,
572,581,554,579,557,565,582,574,598,558,589,595,586,575,596,575,
561,568,592,589,575,565,555,581,562,581,572,568,589,595,554,555
</chunk>
   <chunk x="-928" y="304" width="16" height="16">
579,562,564,568,568,598,565,599,579,574,581,589,588,562,565,557,
596,599,592,592,574,574,599,571,574,599,555,555,561,558,592,558,
588,598,582,575,558,564,572,581,595,579,596,561,589,595,572,585,
557,578,565,574,568,554,564,554,562,558,595,589,555,586,586,558,
558,598,562,558,575,599,571,561,595,595,598,599,599,562,585,595,
575,557,598,564,596,565,564,598,575,558,574,585,586,598,565,582,
589,555,582,574,586,599,571,575,571,588,554,561,592,582,561,564,
575,554,586,565,582,578,558,596,574,562,557,554,572,574,595,562,
554,564,582,578,581,598,599,574,564,598,565,564,562,564,557,579,
561,561,568,554,554,571,574,585,575,588,585,574,578,574,557,571,
572,561,578,565,572,578,558,574,581,574,582,592,586,579,554,571,
575,561,561,565,554,558,572,574,586,557,582,564,586,555,555,554,
571,558,596,562,581,557,571,579,572,595,588,568,575,574,572,555,
582,555,571,571,581,574,557,582,555,579,586,555,592,589,554,565,
579,595,595,572,554,585,562,568,596,578,561,585,589,575,568,561,
564,574,554,589,588,557,592,564,554,575,579,557,574,579,557,585
</chunk>
   <chunk x="-912" y="304" width="16" height="16">
568,575,585,578,589,581,561,571,572,579,562,585,572,578,571,578,
582,598,578,561,592,557,555,555,568,554,574,562,599,585,579,579,
575,596,558,564,554,564,572,555,562,596,598,586,585,574,554,554,
561,598,564,558,592,557,574,572,572,578,554,565,562,565,582,558,
585,564,586,581,575,595,562,565,588,574,586,561,581,565,561,564,
596,585,561,562,595,562,581,581,585,579,582,585,571,557,568,557,
596,564,574,562,574,596,554,562,589,575,599,588,588,575,588,555,
599,554,565,571,595,595,598,562,564,554,598,575,575,599,565,571,
582,586,595,565,598,592,582,565,568,578,555,579,585,585,572,571,
558,572,558,589,581,578,565,581,562,565,568,581,581,564,568,555,
572,582,585,571,561,562,589,574,571,579,574,581,599,565,581,586,
589,592,565,568,596,579,554,568,599,575,585,585,586,579,565,596,
589,562,598,575,581,585,561,588,596,572,589,582,557,592,558,557,
592,561,554,598,592,598,575,562,575,588,575,565,575,595,574,562,
555,574,596,581,578,595,579,581,585,589,596,589,599,588,596,555,
595,596,598,586,571,554,595,574,575,572,579,562,582,574,596,596
</chunk>
   <chunk x="-896" y="304" width="16" height="16">
568,595,592,554,586,575,586,555,581,589,574,554,595,582,585,557,
557,585,574,554,561,592,581,555,571,565,586,565,562,574,568,554,
592,564,592,571,564,572,581,585,568,596,592,579,578,558,555,592,
592,575,585,598,565,554,575,598,564,572,585,581,586,557,582,562,
578,599,595,586,562,565,564,574,579,557,588,586,572,581,555,555,
578,574,581,599,568,571,578,582,578,592,582,592,575,585,561,557,
562,557,579,595,589,558,579,572,588,561,555,581,595,564,585,579,
557,596,582,554,565,572,581,558,592,562,578,588,588,596,578,568,
555,596,558,564,596,568,572,581,579,599,598,561,582,568,582,565,
574,554,558,558,574,586,598,557,592,564,574,579,582,557,565,558,
557,599,581,586,578,561,592,562,589,581,592,575,555,564,568,554,
571,581,575,582,596,554,554,558,565,588,599,568,572,575,586,575,
574,592,557,568,554,578,557,562,564,558,571,572,595,589,571,592,
564,557,555,578,585,586,592,555,572,555,574,592,557,588,558,572,
565,564,564,575,586,586,581,595,579,565,574,586,588,578,592,578,
565,572,581,572,599,572,598,555,565,588,588,578,596,575,592,582
</chunk>
   <chunk x="-880" y="304" width="16" height="16">
586,578,575,588,589,558,572,595,568,598,557,581,561,598,561,585,
592,588,588,589,596,564,582,585,564,592,557,562,568,572,575,555,
598,571,589,578,578,575,564,564,554,596,564,562,592,595,586,582,
571,596,561,599,555,572,572,578,558,585,578,592,554,571,582,568,
585,554,595,588,574,579,574,568,571,579,592,589,588,554,595,596,
568,592,555,592,571,579,588,557,578,585,588,592,568,565,579,564,
581,561,561,586,598,571,555,562,574,598,586,588,561,557,565,557,
592,598,564,589,561,572,558,574,557,589,574,598,598,554,592,554,
572,578,554,595,585,562,574,599,558,568,596,568,582,586,585,595,
586,561,558,574,582,578,561,581,588,585,568,579,589,554,574,599,
578,554,561,561,562,595,582,575,562,595,574,562,599,596,558,568,
586,579,555,555,565,598,579,588,586,562,575,589,562,599,592,554,
565,592,565,599,571,568,561,571,582,588,581,596,575,568,596,571,
572,581,555,557,592,555,575,574,588,557,582,574,557,558,588,558,
568,579,564,555,579,586,564,562,578,571,595,571,561,558,574,595,
557,596,578,571,598,586,578,585,589,557,578,578,562,581,589,564
</chunk>
   <chunk x="-864" y="304" width="16" height="16">
588,571,561,554,557,555,572,589,599,581,598,598,555,581,588,579,
555,581,568,557,564,598,554,598,585,586,554,574,562,582,575,575,
557,564,588,564,578,575,557,564,572,598,579,562,557,555,555,599,
586,554,586,595,561,586,557,595,562,589,571,572,558,558,589,574,
599,598,596,596,574,565,565,579,574,596,555,581,575,595,596,582,
588,581,562,599,558,589,599,555,578,599,589,568,562,585,585,588,
589,598,588,581,568,554,579,579,574,571,571,571,578,555,572,561,
586,582,565,557,581,581,572,586,557,572,578,598,558,568,588,571,
578,562,554,582,581,574,578,586,588,564,582,564,555,582,562,572,
562,568,562,557,564,585,572,572,586,565,599,568,595,586,558,586,
574,592,581,565,581,595,599,574,554,564,589,579,599,557,571,562,
572,572,574,578,596,561,561,589,599,561,564,598,592,564,561,575,
572,599,565,579,588,568,588,586,581,599,599,589,596,595,599,575,
571,598,592,581,596,575,571,599,564,574,589,595,557,599,599,592,
592,582,581,589,562,582,578,578,595,565,595,592,572,561,555,562,
562,596,555,585,557,586,555,585,571,596,564,592,589,562,586,554
</chunk>
   <chunk x="-848" y="304" width="16" height="16">
581,557,595,578,561,564,0,0,0,0,0,0,0,0,0,0,
568,574,558,596,586,572,0,0,0,0,0,0,0,0,0,0,
574,568,572,579,558,581,0,0,0,0,0,0,0,0,0,0,
574,571,575,557,571,599,0,0,0,0,0,0,0,0,0,0,
558,588,565,589,561,588,0,0,0,0,0,0,0,0,0,0,
557,598,554,575,562,599,0,0,0,0,0,0,0,0,0,0,
565,572,596,574,589,565,0,0,0,0,0,0,0,0,0,0,
565,562,589,574,574,574,0,0,0,0,0,0,0,0,0,0,
592,571,561,592,568,562,0,0,0,0,0,0,0,0,0,0,
585,588,595,582,598,575,0,0,0,0,0,0,0,0,0,0,
588,557,598,596,575,554,0,0,0,0,0,0,0,0,0,0,
555,582,596,582,598,595,0,0,0,0,0,0,0,0,0,0,
589,561,582,595,599,561,0,0,0,0,0,0,0,0,0,0,
574,589,572,562,565,595,0,0,0,0,0,0,0,0,0,0,
586,582,555,565,592,561,0,0,0,0,0,0,0,0,0,0,
574,582,565,557,575,581,0,0,0,0,0,0,0,0,0,0
</chunk>
   <chunk x="-1360" y="320" width="16" height="16">
0,0,0,0,0,0,0,598,578,557,574,555,558,572,575,596,
0,0,0,0,0,0,0,599,555,582,568,596,568,561,585,554,
0,0,0,0,0,0,0,554,589,585,582,565,562,562,562,562,
0,0,0,0,0,0,0,582,561,596,579,575,589,579,589,599,
0,0,0,0,0,0,0,554,596,599,574,555,578,562,562,586,
0,0,0,0,0,0,0,596,558,579,562,579,571,596,592,578,
0,0,0,0,0,0,0,592,575,582,595,586,568,582,562,564,
0,0,0,0,0,0,0,579,596,557,555,585,579,585,574,557,
0,0,0,0,0,0,0,565,565,599,555,562,586,555,561,568,
0,0,0,0,0,0,0,599,558,598,588,585,581,572,554,571,
0,0,0,0,0,0,0,575,579,585,596,562,582,558,574,562,
0,0,0,0,0,0,0,586,589,589,575,571,565,562,561,579,
0,0,0,0,0,0,0,598,579,561,585,589,564,596,582,596,
0,0,0,0,0,0,0,581,564,557,589,579,561,568,561,595,
0,0,0,0,0,0,0,572,596,581,554,571,585,575,579,586,
0,0,0,0,0,0,0,555,558,562,558,574,592,588,574,595
</chunk>
   <chunk x="-1344" y="320" width="16" height="16">
588,582,564,588,561,562,599,596,581,585,598,575,586,554,588,558,
596,565,592,572,557,589,555,555,564,589,565,595,554,562,564,589,
585,572,579,578,575,561,572,558,575,599,581,579,585,596,565,585,
571,592,588,574,555,574,568,564,565,581,557,589,558,595,599,554,
574,598,582,562,578,579,557,581,561,588,565,575,596,564,581,564,
585,578,561,562,562,572,581,572,596,575,598,588,579,562,557,574,
579,588,589,596,568,599,596,575,598,562,574,557,557,564,564,582,
596,561,582,575,592,557,585,579,582,564,592,579,572,575,568,555,
574,574,557,595,554,599,557,561,578,572,579,582,571,568,585,585,
562,598,562,574,582,572,578,599,574,561,581,562,592,575,579,596,
589,585,571,582,568,596,561,562,579,598,558,599,575,564,571,555,
568,588,574,558,578,596,574,585,581,561,554,598,578,561,579,582,
595,554,588,592,579,598,557,592,555,578,565,586,562,599,585,571,
564,599,562,555,564,581,596,575,565,562,588,578,588,599,565,561,
596,589,581,568,561,582,564,572,568,599,555,558,596,588,561,596,
578,588,598,554,582,588,574,565,561,581,599,579,578,572,595,565
</chunk>
   <chunk x="-1328" y="320" width="16" height="16">
595,568,586,561,571,565,564,581,568,558,554,596,599,586,596,578,
588,578,558,579,585,554,578,589,555,592,579,595,558,564,565,555,
595,558,575,568,575,562,598,578,579,586,592,568,589,568,558,555,
599,558,589,596,568,599,582,561,571,575,571,592,564,571,585,586,
588,588,598,579,564,595,574,579,596,574,586,571,599,571,555,575,
568,581,564,592,558,596,586,564,589,575,564,565,561,589,562,564,
589,557,574,574,599,557,592,554,558,572,561,565,554,581,572,585,
572,589,596,564,555,555,579,557,586,561,585,554,579,571,585,585,
582,595,572,578,572,581,572,578,571,558,562,564,598,585,582,555,
592,555,585,562,568,558,574,572,596,554,581,592,581,598,554,586,
561,571,579,555,588,562,554,585,575,598,562,585,558,562,586,586,
557,574,581,572,568,592,579,589,575,592,596,565,572,599,557,599,
554,562,592,581,585,561,599,595,596,571,568,586,579,564,595,558,
582,564,562,575,562,564,599,595,572,589,568,565,557,595,589,595,
581,592,564,596,578,585,572,588,592,588,571,581,554,582,561,574,
561,561,578,581,585,561,595,554,595,571,564,589,571,588,554,599
</chunk>
   <chunk x="-1312" y="320" width="16" height="16">
578,596,582,564,574,579,568,555,554,586,574,572,595,596,557,572,
581,557,562,595,582,574,571,558,571,554,571,589,571,589,571,595,
555,582,585,589,555,574,578,588,565,581,582,598,588,595,557,565,
592,562,592,595,554,557,554,571,596,574,558,555,585,596,575,599,
574,595,586,561,565,555,585,555,595,557,586,571,554,582,565,592,
557,554,599,596,585,586,582,555,585,578,574,571,557,598,557,582,
599,595,596,582,568,557,572,595,554,571,588,574,568,599,596,599,
595,589,599,561,558,575,579,579,581,586,568,562,585,592,568,561,
589,568,555,588,572,585,581,595,595,596,589,599,555,586,555,568,
574,572,585,555,589,582,558,582,596,554,585,588,575,578,564,589,
582,557,595,571,578,595,578,578,592,558,585,555,561,572,572,557,
588,586,595,564,585,578,598,589,589,574,596,578,586,557,589,596,
572,568,554,582,595,557,561,555,568,586,589,585,588,586,586,572,
574,575,596,598,595,596,575,588,592,555,596,562,598,574,585,592,
599,564,574,555,581,575,596,585,585,598,578,572,589,562,575,588,
557,561,578,585,596,575,586,598,582,554,592,585,579,592,596,582
</chunk>
   <chunk x="-1296" y="320" width="16" height="16">
578,564,558,574,592,557,575,588,579,595,598,575,557,555,588,599,
564,554,564,575,582,599,596,555,565,581,595,565,557,581,554,568,
592,554,555,565,598,572,586,571,565,564,598,599,596,568,575,596,
592,598,581,557,585,582,561,554,595,555,589,571,586,561,555,564,
581,561,598,581,564,574,554,586,588,592,571,598,562,574,579,596,
562,598,581,565,588,558,562,579,574,598,561,557,571,572,557,574,
581,555,596,565,568,557,579,558,564,599,592,575,581,562,554,579,
555,589,558,585,585,564,589,561,554,565,596,565,578,575,595,596,
574,571,592,565,575,592,592,579,568,582,558,564,586,571,562,586,
568,557,579,565,571,586,592,598,572,561,596,554,555,582,555,562,
558,562,582,581,571,561,579,586,575,581,578,558,578,561,571,588,
595,596,558,578,557,564,562,595,554,582,599,574,581,592,558,599,
585,568,558,582,575,598,579,575,555,575,554,592,575,578,581,589,
578,558,561,565,555,557,564,571,571,586,565,596,581,596,582,578,
565,589,574,592,588,582,558,595,554,579,558,596,578,578,598,565,
558,586,558,599,574,558,562,599,557,557,596,565,564,589,579,585
</chunk>
   <chunk x="-1280" y="320" width="16" height="16">
564,572,585,589,578,588,562,562,558,579,558,565,578,586,564,592,
564,565,588,562,558,561,557,582,562,575,578,564,585,596,592,562,
578,557,557,557,571,554,558,579,585,554,589,558,579,598,586,582,
588,578,595,595,595,595,558,588,581,572,599,575,572,582,588,568,
575,571,562,598,564,592,589,595,574,565,572,557,592,579,564,554,
561,592,564,586,571,557,595,586,578,588,592,568,574,557,581,582,
592,592,571,554,572,574,554,598,557,561,564,579,572,558,585,568,
598,592,595,579,582,595,598,599,598,588,568,595,564,571,575,581,
599,561,599,571,595,585,565,565,572,598,598,578,555,562,574,575,
574,554,595,574,585,557,568,561,568,595,568,572,599,596,599,599,
581,571,555,582,592,581,562,557,585,565,588,579,585,572,582,555,
571,589,596,589,575,571,565,557,572,572,588,582,579,561,561,579,
568,592,596,581,558,581,595,598,557,554,588,595,561,571,595,586,
558,565,554,554,568,599,579,554,582,575,586,596,579,554,596,568,
595,561,599,557,562,565,582,574,572,568,561,579,568,578,565,585,
558,595,599,564,586,596,579,568,585,588,599,572,558,585,596,586
</chunk>
   <chunk x="-1264" y="320" width="16" height="16">
568,599,589,565,555,565,571,555,557,588,562,554,588,578,564,595,
592,579,582,582,582,582,595,571,578,582,598,579,561,588,565,586,
558,572,565,575,558,581,558,568,578,586,562,554,599,599,554,564,
575,558,582,574,582,578,564,592,579,579,595,599,589,598,578,568,
562,598,582,588,574,585,554,555,568,588,596,562,596,562,589,554,
589,582,595,571,555,589,571,554,588,595,598,558,592,582,598,592,
568,588,575,589,596,572,586,574,561,596,596,565,588,575,557,568,
598,562,554,557,572,555,579,585,575,578,558,579,581,581,561,557,
579,599,598,595,565,568,585,568,595,555,581,581,581,578,575,585,
571,561,572,585,568,586,588,565,579,598,595,585,568,596,581,588,
561,565,585,596,555,558,581,598,558,595,592,565,568,568,557,561,
554,568,592,561,562,586,589,582,575,581,596,589,588,585,596,578,
574,571,579,558,589,589,568,579,599,578,589,554,568,557,599,558,
595,596,598,585,596,572,578,562,575,578,582,571,555,564,574,575,
585,582,598,589,557,578,581,572,558,599,562,595,571,578,589,581,
565,596,582,599,599,571,568,589,581,586,578,557,596,592,558,557
</chunk>
   <chunk x="-1248" y="320" width="16" height="16">
595,595,568,558,562,598,592,595,579,582,599,596,585,558,599,585,
571,564,579,581,572,588,579,558,565,581,595,595,562,572,572,582,
592,557,564,598,564,554,581,599,572,592,571,599,561,582,564,571,
585,596,572,585,596,598,565,579,572,554,586,562,595,574,565,592,
572,589,555,564,568,599,592,571,581,586,574,595,582,558,572,554,
589,586,557,555,564,574,588,557,589,599,581,562,574,582,554,575,
564,579,588,585,555,589,571,582,565,586,579,596,571,561,585,595,
558,578,579,554,562,599,589,574,568,574,595,575,562,579,586,562,
561,564,572,582,571,598,574,568,582,599,561,579,599,564,582,589,
582,571,578,555,585,585,585,568,599,554,562,554,575,572,562,562,
586,589,568,595,588,588,595,564,561,575,555,585,572,572,586,581,
582,568,578,582,582,599,555,585,564,575,571,582,568,586,598,598,
585,585,598,589,565,592,557,579,564,554,572,565,588,562,599,599,
565,585,599,589,568,558,568,575,596,588,588,562,588,579,599,599,
571,586,557,598,555,554,562,589,561,581,596,571,555,598,586,595,
595,592,572,586,561,575,581,557,582,574,568,579,592,558,582,572
</chunk>
   <chunk x="-1232" y="320" width="16" height="16">
579,571,596,578,562,581,589,585,586,555,592,565,596,588,598,592,
588,558,586,574,588,561,588,557,592,565,565,588,561,578,581,596,
562,561,558,589,586,561,596,565,586,582,582,564,555,581,579,557,
582,565,571,586,558,598,554,555,557,598,568,574,582,589,595,574,
592,586,578,561,575,562,572,592,558,589,592,564,568,596,571,574,
561,599,565,557,575,571,562,578,592,595,561,589,575,568,589,581,
582,586,582,585,568,575,598,568,592,571,592,596,586,561,565,561,
582,555,564,578,588,589,557,598,588,562,582,565,599,554,555,558,
578,582,558,585,554,558,589,581,564,596,558,561,565,586,557,598,
598,578,599,571,574,599,562,574,589,555,599,565,558,582,585,589,
589,588,596,581,589,596,598,555,595,589,574,554,595,561,599,575,
564,568,565,555,586,558,585,588,564,557,596,588,589,585,592,561,
562,561,572,579,555,595,554,554,595,571,581,595,598,592,575,599,
581,568,555,568,565,574,599,589,562,598,582,561,561,588,592,582,
557,561,568,557,565,558,568,582,585,571,571,554,588,562,599,561,
558,592,599,578,565,564,574,568,562,557,562,558,575,574,588,554
</chunk>
   <chunk x="-1216" y="320" width="16" height="16">
555,561,574,557,595,578,595,595,581,568,562,586,575,582,589,555,
599,586,589,564,555,578,582,554,562,572,588,585,588,575,581,581,
561,599,585,568,557,595,558,598,588,599,571,596,596,596,565,581,
582,554,599,589,568,582,595,599,561,599,554,598,571,595,554,578,
568,589,558,564,585,586,582,575,555,565,571,595,572,572,574,589,
588,585,562,557,578,582,595,564,571,565,557,572,586,599,571,598,
568,588,555,574,555,589,562,574,588,596,598,564,565,561,557,588,
589,599,598,581,579,589,582,571,592,575,578,574,554,564,599,565,
592,574,561,589,555,574,572,554,568,595,571,592,565,588,558,585,
565,598,555,595,554,575,568,589,588,574,582,581,592,585,572,592,
579,565,572,565,581,581,574,578,571,586,571,557,572,571,581,571,
599,599,565,598,578,557,588,557,575,592,585,582,554,575,562,596,
592,554,578,562,557,558,599,598,585,578,558,585,562,565,586,565,
592,554,595,599,585,562,596,572,561,561,596,589,562,572,561,588,
572,589,598,588,557,568,586,589,588,592,558,589,599,582,565,596,
562,561,596,557,572,599,581,592,578,572,579,571,578,579,582,565
</chunk>
   <chunk x="-1200" y="320" width="16" height="16">
578,575,586,585,588,558,564,595,561,598,578,558,571,574,555,592,
571,592,585,599,558,588,599,582,579,558,555,581,554,572,554,579,
596,562,592,596,595,572,586,571,562,555,595,565,582,565,599,571,
589,558,581,575,585,562,571,572,599,588,599,561,558,565,565,588,
578,558,558,588,579,598,589,557,571,557,596,578,585,558,558,558,
574,578,585,565,589,572,558,578,582,595,572,599,581,595,554,586,
558,595,571,579,588,561,585,564,568,568,599,555,586,562,595,599,
572,555,568,575,589,554,558,581,581,582,598,586,572,586,571,554,
581,595,592,588,585,564,574,581,592,571,598,579,578,595,574,599,
596,562,596,565,572,582,565,599,555,579,595,574,595,588,581,572,
599,572,561,558,554,561,572,561,571,599,561,574,579,554,589,561,
555,554,599,588,561,588,561,588,564,595,558,554,554,578,589,579,
575,561,572,588,578,571,574,588,589,582,562,554,565,568,575,557,
574,571,588,568,581,578,595,578,599,572,558,571,557,558,582,555,
596,575,574,581,595,579,592,599,585,555,598,589,588,554,595,568,
562,582,575,561,595,574,557,585,564,571,589,564,575,592,579,581
</chunk>
   <chunk x="-1184" y="320" width="16" height="16">
571,555,555,589,581,568,598,588,568,561,568,581,589,586,574,571,
575,574,558,592,554,596,557,568,582,557,564,599,596,558,578,554,
571,568,571,568,595,595,562,585,558,589,558,568,578,565,599,589,
568,581,598,592,557,558,554,592,562,586,596,554,562,575,572,588,
555,581,558,586,574,574,572,565,585,595,571,592,564,586,557,581,
598,575,574,596,598,579,571,564,572,555,596,561,562,585,562,582,
557,557,585,589,572,578,595,568,565,586,596,558,554,598,554,565,
586,575,598,572,589,575,582,562,588,557,572,595,558,579,571,565,
578,558,596,562,575,581,555,581,586,582,554,581,586,579,565,557,
561,574,575,598,579,565,578,582,585,599,595,557,555,596,561,571,
565,557,585,564,562,592,599,599,586,564,599,572,565,564,557,568,
589,557,554,554,568,568,596,581,599,554,581,588,574,557,571,564,
585,586,558,568,555,555,568,555,574,585,586,572,557,557,574,579,
562,574,582,564,561,582,585,595,578,554,562,571,581,595,574,571,
598,579,562,575,598,581,557,568,571,598,558,572,572,581,581,589,
586,589,555,599,564,581,578,571,558,599,578,572,592,592,582,554
</chunk>
   <chunk x="-1168" y="320" width="16" height="16">
585,561,555,578,568,592,582,574,561,574,582,554,572,589,0,0,
568,565,578,595,558,596,568,557,555,586,555,578,575,562,0,0,
557,574,554,557,596,564,575,592,571,592,561,568,572,578,0,0,
586,592,557,558,565,595,588,557,586,562,598,579,578,561,0,0,
599,595,586,589,575,555,568,589,574,592,598,599,575,599,0,0,
572,582,562,599,568,582,582,564,596,558,578,596,574,571,0,0,
557,599,578,565,585,578,575,575,565,562,586,571,588,582,0,0,
558,572,572,598,574,579,554,557,571,586,598,592,598,592,0,0,
555,586,592,599,581,595,558,568,582,562,585,554,599,554,0,0,
557,554,578,586,595,554,568,562,592,568,562,557,596,595,0,0,
562,558,581,586,596,572,582,588,579,586,589,579,578,568,0,0,
575,574,571,595,557,562,571,582,582,557,595,595,565,581,0,0,
588,582,578,579,565,554,564,586,571,596,579,555,595,595,0,0,
595,575,564,555,562,571,596,557,558,571,562,555,575,599,0,0,
581,555,568,595,557,592,581,589,554,582,564,592,571,575,0,0,
575,578,596,555,589,558,581,582,565,562,554,561,571,589,0,0
</chunk>
   <chunk x="-1088" y="320" width="16" height="16">
0,0,0,0,0,0,0,0,0,0,0,0,0,585,595,579,
0,0,0,0,0,0,0,0,0,0,0,0,0,596,588,575,
0,0,0,0,0,0,0,0,0,0,0,0,0,586,557,555,
0,0,0,0,0,0,0,0,0,0,0,0,0,558,586,562,
0,0,0,0,0,0,0,0,0,0,0,0,0,596,596,575,
0,0,0,0,0,0,0,0,0,0,0,0,0,599,588,568,
0,0,0,0,0,0,0,0,0,0,0,0,0,558,557,562,
0,0,0,0,0,0,0,0,0,0,0,0,0,562,586,562,
0,0,0,0,0,0,0,0,0,0,0,0,0,557,599,581,
0,0,0,0,0,0,0,0,0,0,0,0,0,592,598,571,
0,0,0,0,0,0,0,0,0,0,0,0,0,554,565,586,
0,0,0,0,0,0,0,0,0,0,0,0,0,581,588,579,
0,0,0,0,0,0,0,0,0,0,0,0,0,571,562,575,
0,0,0,0,0,0,0,0,0,0,0,0,0,588,565,565,
0,0,0,0,0,0,0,0,0,0,0,0,0,555,592,555,
0,0,0,0,0,0,0,0,0,0,0,0,0,561,596,596
</chunk>
   <chunk x="-1072" y="320" width="16" height="16">
588,565,579,582,554,561,568,574,582,582,555,561,589,581,565,571,
561,554,575,574,592,581,581,557,564,578,581,571,585,595,578,557,
562,579,571,596,554,562,599,558,558,596,579,598,596,599,557,561,
557,589,585,592,599,598,588,574,565,579,568,588,578,574,581,599,
568,581,586,595,588,564,572,575,595,581,588,561,561,572,579,588,
599,564,562,558,574,588,586,557,555,572,579,579,568,562,595,595,
561,592,598,564,558,568,574,554,565,578,588,581,562,565,562,582,
598,598,578,595,598,568,598,582,581,588,555,568,589,564,585,592,
581,572,554,582,592,561,595,562,595,585,592,598,575,586,586,568,
596,585,575,592,586,589,599,599,564,557,562,572,581,564,555,589,
555,592,557,565,572,565,596,574,599,572,572,554,561,599,586,562,
574,564,555,588,564,582,578,578,599,562,599,589,565,555,581,562,
581,561,554,581,579,581,571,561,581,554,599,582,581,575,568,592,
585,568,588,582,582,599,595,561,564,571,561,571,599,555,558,588,
596,571,562,562,565,568,596,575,564,554,578,558,599,557,595,564,
588,582,562,555,554,579,586,588,575,581,588,565,565,572,558,557
</chunk>
   <chunk x="-1056" y="320" width="16" height="16">
598,554,557,572,562,598,588,578,574,585,581,599,571,596,571,595,
579,579,572,585,571,592,561,588,564,554,596,578,598,595,568,582,
578,574,592,554,571,557,581,582,561,557,578,571,579,565,586,579,
564,589,561,589,596,571,599,579,562,565,565,588,565,568,585,578,
578,578,592,592,599,574,558,585,581,598,582,595,554,568,588,572,
561,575,572,599,586,589,598,599,575,568,558,578,568,581,554,579,
565,599,554,592,571,585,572,554,565,585,557,574,562,558,592,575,
579,575,585,585,554,562,561,561,562,568,558,585,555,592,581,581,
557,571,572,555,565,575,588,599,558,568,598,562,564,555,582,599,
599,554,557,598,554,554,561,561,589,588,578,554,572,561,599,599,
582,592,582,574,595,585,578,592,574,596,596,592,557,599,582,592,
589,561,586,585,595,564,582,554,581,586,557,595,592,592,598,586,
588,565,571,568,589,582,558,554,565,557,596,555,564,592,571,588,
588,586,554,575,598,554,588,565,599,588,578,572,582,578,574,598,
568,578,572,557,582,555,595,599,579,582,592,554,579,557,557,555,
571,586,592,582,582,571,571,568,558,588,589,555,596,572,562,561
</chunk>
   <chunk x="-1040" y="320" width="16" height="16">
565,572,554,579,564,575,568,561,586,561,592,595,555,585,579,582,
585,579,579,582,585,579,575,557,572,598,595,589,565,596,574,561,
568,582,568,592,564,565,561,599,598,586,596,581,582,571,565,595,
564,592,595,598,592,574,599,575,574,588,589,579,565,555,582,574,
585,571,582,578,572,557,571,557,555,579,574,582,575,581,595,565,
571,564,572,555,592,585,592,575,568,571,575,588,574,571,592,574,
561,578,557,561,574,562,598,582,588,575,589,581,574,586,599,588,
595,596,574,589,564,579,582,582,561,581,595,575,574,578,557,598,
572,598,575,596,561,586,554,578,564,564,558,572,595,581,579,586,
592,572,555,585,581,578,571,585,575,585,555,574,589,589,574,581,
585,589,581,557,585,557,589,561,592,582,571,578,581,568,592,581,
555,564,568,574,599,596,596,554,579,581,581,572,579,599,571,589,
562,579,585,575,568,561,561,599,589,599,581,557,572,581,564,575,
579,565,562,585,557,585,598,585,572,555,598,557,598,555,586,578,
574,555,574,595,554,599,579,596,557,568,585,579,575,582,585,572,
599,579,565,554,564,592,568,589,589,586,558,554,599,578,589,557
</chunk>
   <chunk x="-1024" y="320" width="16" height="16">
568,595,579,558,595,572,558,564,589,572,599,564,585,598,555,571,
554,595,565,599,595,592,598,586,585,599,572,596,564,578,586,561,
562,565,561,599,599,596,592,557,572,588,564,565,561,571,588,575,
589,596,589,589,572,574,572,581,574,598,574,599,595,598,555,585,
598,592,599,555,592,581,582,564,561,599,575,554,592,588,592,581,
571,565,571,574,571,558,598,595,589,589,588,574,575,581,555,555,
555,564,555,561,579,568,582,562,578,589,564,596,578,581,561,565,
558,575,586,596,596,578,554,588,561,586,561,599,554,595,562,574,
554,572,592,581,599,558,564,582,565,595,579,586,562,557,579,575,
581,589,579,561,596,589,579,588,554,595,564,598,588,574,582,561,
582,578,554,579,558,571,574,564,565,596,599,557,598,586,565,565,
586,579,554,565,568,578,575,592,571,565,572,554,582,582,592,589,
578,586,574,579,579,596,589,586,574,561,586,582,599,585,574,558,
579,568,599,575,574,561,562,586,575,596,592,561,574,572,599,579,
562,565,558,575,557,572,586,571,564,589,565,554,558,582,558,582,
582,562,565,578,562,574,555,585,574,562,568,598,578,578,595,588
</chunk>
   <chunk x="-1008" y="320" width="16" height="16">
568,578,562,598,568,562,592,572,598,592,561,554,579,599,598,599,
578,564,557,579,558,598,562,571,596,571,564,595,555,578,595,596,
598,589,582,579,555,599,574,574,578,586,572,565,575,598,598,598,
564,554,578,589,561,568,575,599,558,595,582,579,598,554,564,561,
595,565,588,568,596,572,578,586,586,568,564,582,568,579,558,562,
558,585,574,588,568,554,595,589,574,596,575,588,592,579,565,558,
596,565,562,586,582,557,561,561,585,562,558,581,581,589,562,555,
557,561,589,579,582,582,596,561,586,568,582,554,582,578,578,554,
599,574,571,562,554,565,599,575,582,572,596,581,588,578,586,595,
554,572,599,589,571,588,562,598,582,564,561,596,565,554,572,585,
568,589,598,555,595,554,555,561,592,582,589,554,599,581,555,572,
599,562,565,564,596,595,578,554,579,582,598,599,589,554,581,581,
557,564,554,558,561,564,558,558,599,585,588,578,592,596,572,586,
588,585,565,588,571,596,595,592,581,565,582,589,557,557,588,586,
586,561,598,575,582,565,561,586,558,588,571,585,574,598,592,588,
555,568,562,595,574,571,598,599,558,558,564,595,574,598,595,588
</chunk>
   <chunk x="-992" y="320" width="16" height="16">
562,568,562,585,575,565,581,578,586,585,554,562,555,599,578,557,
586,562,595,561,596,585,596,588,589,595,595,554,561,596,578,589,
589,595,596,571,561,581,599,578,561,581,558,562,582,558,565,562,
555,555,558,588,588,562,586,596,562,574,558,562,581,561,571,588,
596,554,585,588,598,582,561,585,561,585,564,578,575,565,598,588,
592,574,558,561,562,554,585,582,571,596,555,565,589,595,571,571,
586,578,586,564,575,572,582,568,568,565,562,598,574,562,578,562,
565,575,585,589,586,579,595,581,561,589,585,568,555,581,561,565,
585,562,599,588,598,564,568,561,588,578,562,579,598,595,586,585,
592,565,596,581,555,596,565,595,595,581,599,589,581,564,589,586,
561,599,554,561,565,572,599,557,572,561,568,562,589,579,555,598,
581,571,579,598,581,571,598,579,592,562,579,555,558,565,558,598,
571,589,592,564,582,554,565,586,574,554,585,581,586,564,555,595,
595,561,568,561,565,581,557,585,581,596,582,589,574,572,558,571,
586,586,564,558,579,599,565,599,579,555,568,588,581,558,579,562,
579,575,592,582,579,595,561,565,596,595,599,564,578,589,571,574
</chunk>
   <chunk x="-976" y="320" width="16" height="16">
562,557,581,586,562,575,564,599,579,598,579,595,588,578,592,572,
557,561,589,554,599,578,564,586,589,574,568,561,598,564,582,572,
581,586,588,581,564,557,596,555,588,562,589,578,565,585,582,598,
592,562,588,572,596,572,596,564,572,599,586,565,572,555,599,562,
598,592,578,582,596,574,586,595,572,579,588,585,581,565,592,558,
554,564,588,596,588,586,571,586,565,598,568,589,582,562,588,581,
586,561,579,598,586,586,568,561,557,572,571,581,596,572,581,592,
571,585,596,578,557,557,599,565,582,574,586,578,582,564,555,579,
578,582,555,568,572,596,581,585,561,585,595,585,578,562,598,589,
586,595,578,554,599,589,564,585,585,588,596,579,592,561,565,588,
585,555,592,592,575,572,581,561,595,568,595,596,595,599,575,554,
598,561,599,571,595,586,586,586,571,568,561,586,568,557,589,578,
588,561,564,581,575,561,599,571,599,562,575,582,575,586,574,599,
575,586,586,575,564,598,571,586,582,592,596,592,568,595,578,582,
555,572,575,565,555,588,589,557,554,565,554,568,561,588,561,564,
568,586,574,572,571,562,565,589,578,557,586,557,558,598,599,579
</chunk>
   <chunk x="-960" y="320" width="16" height="16">
592,555,581,578,588,599,562,575,555,557,557,564,578,589,555,558,
588,592,578,578,598,557,586,598,571,554,599,589,599,599,554,557,
599,558,588,562,592,596,596,596,586,589,596,595,596,586,582,561,
574,595,598,586,565,571,554,579,575,557,595,585,572,579,582,571,
571,582,574,598,574,554,571,574,558,579,578,579,558,571,599,561,
555,575,596,592,558,558,558,585,558,599,579,598,572,554,572,571,
578,555,572,585,592,561,574,572,596,555,568,581,596,588,572,558,
568,595,585,589,592,554,596,581,581,582,585,595,558,588,596,564,
598,574,572,555,586,596,598,561,581,579,562,579,564,582,586,557,
589,565,558,579,558,579,555,565,561,596,578,598,557,585,595,574,
558,585,558,579,581,588,561,561,599,561,557,582,578,554,588,592,
578,588,598,578,579,572,595,585,557,579,554,581,578,558,572,582,
581,578,585,581,598,581,554,598,599,574,554,565,564,595,596,562,
572,554,561,574,598,578,575,596,562,588,575,562,582,582,596,588,
565,562,599,571,596,588,598,586,586,599,575,572,596,589,558,565,
575,585,578,555,558,574,558,558,599,554,592,561,579,555,571,572
</chunk>
   <chunk x="-944" y="320" width="16" height="16">
578,582,592,555,596,578,572,585,561,557,555,596,555,555,557,578,
571,572,575,589,589,554,596,585,575,599,579,565,561,581,571,596,
588,588,586,596,582,585,586,578,568,592,588,564,589,589,555,557,
599,571,581,595,568,572,568,585,568,561,592,579,592,557,574,572,
557,582,589,575,554,574,575,581,572,555,564,564,574,561,575,579,
579,586,555,579,579,555,561,582,555,568,585,572,571,562,592,599,
578,557,578,599,585,572,571,579,582,557,579,558,592,558,574,598,
557,582,568,575,571,579,564,582,555,585,588,565,595,592,574,561,
578,589,572,557,582,592,589,572,589,598,555,572,599,575,598,585,
581,564,592,598,555,588,574,554,585,586,589,572,554,571,558,554,
557,598,561,572,579,568,571,555,579,557,578,574,564,557,561,574,
571,588,564,565,565,578,558,598,557,595,555,579,588,595,585,596,
592,558,571,585,575,581,568,565,561,592,561,565,558,585,578,557,
592,574,586,596,582,555,581,598,572,554,595,581,571,557,579,557,
592,572,578,579,586,568,568,595,586,557,588,564,589,588,585,568,
599,579,564,588,575,554,554,582,564,588,595,581,564,589,555,588
</chunk>
   <chunk x="-928" y="320" width="16" height="16">
579,554,575,588,562,564,579,571,562,572,581,596,554,572,581,562,
581,599,565,588,564,588,586,555,562,572,575,598,588,575,582,596,
571,596,585,589,554,562,595,599,595,595,596,592,571,592,582,565,
557,581,581,586,572,562,596,581,571,578,586,572,555,579,557,575,
561,578,568,579,575,564,586,589,582,595,596,554,571,554,596,555,
555,595,571,561,595,586,579,565,592,572,562,581,555,581,575,555,
586,579,578,575,586,564,557,592,582,565,598,572,564,592,575,599,
558,596,581,571,554,581,574,589,589,555,578,595,585,581,562,554,
599,558,599,585,588,571,571,588,564,578,571,586,562,585,564,554,
585,598,581,555,581,585,585,564,554,554,575,568,558,562,568,581,
581,561,589,575,561,564,564,595,565,561,564,554,574,598,574,578,
588,561,564,582,562,589,598,586,572,596,581,599,588,575,598,581,
565,595,554,565,575,585,575,572,586,598,589,558,598,562,558,598,
561,598,572,588,554,561,585,565,582,599,586,572,572,579,592,598,
599,568,571,598,589,562,555,588,561,582,599,554,562,574,582,578,
571,565,598,592,572,555,596,595,596,588,571,586,568,585,555,579
</chunk>
   <chunk x="-912" y="320" width="16" height="16">
592,575,571,564,598,555,562,574,575,589,596,557,592,588,581,596,
558,595,572,592,574,586,575,588,564,588,595,589,578,561,596,555,
572,581,562,579,554,555,557,586,588,595,562,588,571,562,562,565,
575,572,582,586,585,562,595,572,585,592,555,557,562,565,579,589,
595,582,572,574,572,592,581,554,585,554,575,582,599,596,575,562,
581,578,557,555,555,589,562,555,572,568,561,592,572,579,599,572,
561,561,558,575,596,578,582,565,586,574,558,554,571,578,582,578,
585,561,589,599,575,554,589,599,588,599,578,575,595,565,585,574,
555,562,562,562,562,581,574,579,558,592,554,586,574,574,592,554,
565,568,595,571,561,581,582,555,585,579,588,565,578,589,592,596,
572,564,596,558,592,574,581,588,581,592,585,575,572,555,557,574,
589,571,578,558,558,598,595,579,571,582,599,578,582,598,595,599,
596,555,595,561,575,581,581,589,557,588,555,557,575,571,557,565,
555,579,599,558,554,595,564,571,592,562,592,588,575,581,572,599,
595,581,599,557,561,596,592,588,582,598,595,588,565,599,561,562,
571,595,561,568,599,558,562,581,574,564,561,588,595,585,557,599
</chunk>
   <chunk x="-896" y="320" width="16" height="16">
568,592,575,554,562,574,586,581,575,585,578,555,564,586,554,588,
596,565,578,554,578,571,596,595,554,586,562,568,598,558,574,564,
596,572,564,565,561,564,595,558,589,558,599,565,598,589,582,562,
574,586,568,554,596,554,581,555,599,586,592,554,568,562,599,575,
558,575,579,581,596,572,586,585,558,575,564,589,554,581,564,558,
579,557,572,557,557,568,585,582,588,585,572,595,588,568,571,554,
564,596,557,558,575,564,589,561,588,558,598,578,572,595,599,596,
565,572,592,554,557,599,557,598,589,582,588,565,589,561,578,565,
574,562,557,557,582,585,589,554,572,598,588,557,589,554,579,561,
554,574,574,557,571,588,571,571,581,554,572,585,558,592,562,574,
568,561,579,581,599,581,598,555,565,554,555,564,575,582,599,561,
575,555,579,571,598,581,561,572,571,582,589,578,582,554,554,595,
557,598,572,564,588,565,582,571,562,574,582,598,585,599,582,589,
571,588,558,578,578,599,554,581,558,561,582,555,579,596,575,574,
571,582,589,557,571,564,575,599,599,596,574,561,571,596,558,592,
582,568,595,578,586,561,598,571,579,565,585,598,574,564,582,564
</chunk>
   <chunk x="-880" y="320" width="16" height="16">
555,589,558,598,564,575,571,565,586,582,599,575,554,562,572,565,
598,557,575,557,557,596,558,561,592,562,558,589,572,554,564,564,
596,565,574,575,571,572,565,586,558,595,579,582,582,564,599,562,
562,562,565,555,592,555,579,555,596,592,599,585,557,575,586,596,
589,598,589,581,579,578,595,558,595,599,565,579,562,558,588,574,
598,571,598,557,586,578,555,557,599,586,568,578,599,562,561,572,
578,599,572,581,598,568,572,596,579,571,564,572,592,554,564,575,
555,555,571,592,564,595,565,575,571,575,555,564,565,555,568,578,
561,554,592,575,595,554,562,585,565,585,585,561,582,585,595,568,
561,586,586,592,564,599,558,575,562,571,589,564,555,585,595,596,
568,574,595,581,578,565,582,596,582,574,568,572,568,557,572,586,
595,582,555,595,579,582,568,565,598,579,589,572,581,599,562,581,
599,562,558,565,595,564,561,561,564,578,574,578,596,582,588,585,
562,579,557,575,599,561,596,586,572,564,564,582,558,562,582,599,
579,562,565,579,598,599,589,572,588,554,561,596,572,589,595,592,
592,574,581,595,579,564,572,557,598,595,581,586,558,572,557,564
</chunk>
   <chunk x="-864" y="320" width="16" height="16">
582,585,572,574,582,599,571,589,589,585,561,575,568,585,581,596,
571,582,557,578,554,578,564,557,596,581,554,554,554,599,561,574,
565,571,574,598,574,572,557,579,582,586,582,571,572,555,554,564,
596,554,578,582,585,558,564,585,579,586,555,592,554,564,562,564,
595,596,589,589,579,554,595,574,581,562,585,565,555,596,561,564,
564,558,561,589,581,557,589,586,596,557,554,589,565,592,574,589,
585,568,599,574,585,596,557,578,554,596,599,588,596,571,562,574,
585,586,557,599,579,564,585,582,555,582,586,554,595,589,562,579,
599,586,578,571,574,561,558,578,572,579,581,585,558,585,557,596,
596,595,578,581,562,581,565,578,561,578,562,581,588,561,592,589,
588,565,561,596,575,564,586,599,585,596,579,586,588,572,581,554,
582,579,595,589,572,592,588,592,572,575,557,582,564,588,586,579,
571,574,562,564,561,599,582,568,582,558,561,589,568,568,585,555,
568,571,599,572,592,555,555,565,596,579,568,558,588,585,585,588,
554,565,555,582,575,575,595,571,592,575,554,571,558,582,557,562,
578,558,592,554,585,562,555,588,595,562,575,571,586,581,555,586
</chunk>
   <chunk x="-848" y="320" width="16" height="16">
579,595,595,565,555,578,0,0,0,0,0,0,0,0,0,0,
564,592,575,574,589,571,0,0,0,0,0,0,0,0,0,0,
568,592,558,592,568,582,0,0,0,0,0,0,0,0,0,0,
555,554,555,554,598,557,0,0,0,0,0,0,0,0,0,0,
571,581,572,586,586,579,0,0,0,0,0,0,0,0,0,0,
588,562,574,599,586,565,0,0,0,0,0,0,0,0,0,0,
595,582,555,586,581,561,0,0,0,0,0,0,0,0,0,0,
557,554,592,557,586,571,0,0,0,0,0,0,0,0,0,0,
561,579,572,557,574,579,0,0,0,0,0,0,0,0,0,0,
582,555,568,581,588,596,0,0,0,0,0,0,0,0,0,0,
578,596,574,582,571,574,0,0,0,0,0,0,0,0,0,0,
568,565,589,592,589,562,0,0,0,0,0,0,0,0,0,0,
598,571,568,589,572,562,0,0,0,0,0,0,0,0,0,0,
565,554,579,565,581,564,0,0,0,0,0,0,0,0,0,0,
571,575,579,586,598,574,0,0,0,0,0,0,0,0,0,0,
565,578,598,578,585,589,0,0,0,0,0,0,0,0,0,0
</chunk>
   <chunk x="-1360" y="336" width="16" height="16">
0,0,0,0,0,0,0,579,581,596,588,557,595,589,588,592,
0,0,0,0,0,0,0,575,598,565,565,581,557,588,568,562,
0,0,0,0,0,0,0,558,599,599,598,585,565,574,571,561,
0,0,0,0,0,0,0,579,565,598,578,588,568,554,582,582,
0,0,0,0,0,0,0,588,581,568,586,564,585,555,568,592,
0,0,0,0,0,0,0,574,574,595,571,596,555,585,565,578,
0,0,0,0,0,0,0,596,555,554,562,565,571,578,581,579,
0,0,0,0,0,0,0,599,578,578,585,561,596,561,575,582,
0,0,0,0,0,0,0,588,592,578,599,568,592,554,599,557,
0,0,0,0,0,0,0,571,596,575,592,598,557,555,572,578,
0,0,0,0,0,0,0,557,555,572,589,554,589,578,579,589,
0,0,0,0,0,0,0,595,596,592,557,564,585,558,565,565,
0,0,0,0,0,0,0,565,555,554,562,599,558,581,598,581,
0,0,0,0,0,0,0,572,589,589,575,586,599,575,589,554,
0,0,0,0,0,0,0,564,592,572,596,572,562,582,598,592,
0,0,0,0,0,0,0,596,589,596,554,562,572,558,585,555
</chunk>
   <chunk x="-1344" y="336" width="16" height="16">
557,575,557,574,574,564,588,554,565,588,585,562,581,581,582,586,
558,586,586,565,578,564,561,572,557,598,558,574,598,598,579,592,
586,574,564,586,588,558,562,575,565,595,562,571,585,595,571,555,
558,571,571,564,554,599,589,579,562,561,575,571,578,575,575,571,
554,572,554,568,588,595,564,581,596,599,598,596,564,564,568,561,
582,564,581,599,582,575,571,578,581,592,561,564,582,574,555,561,
586,557,596,589,568,555,557,572,599,572,598,574,596,588,561,599,
554,599,578,578,585,586,575,565,581,581,595,575,572,599,555,581,
571,557,595,561,585,561,571,599,586,595,555,578,565,557,562,598,
564,554,557,579,555,562,599,586,589,558,579,596,586,564,581,582,
588,571,565,596,574,596,568,599,562,598,574,558,595,589,589,574,
571,599,561,598,561,599,572,564,596,564,554,586,595,574,595,561,
586,581,598,555,578,585,579,581,561,561,578,589,588,598,555,574,
581,578,572,598,572,592,588,589,588,582,558,596,598,598,585,581,
585,588,578,565,598,574,595,579,592,598,592,572,578,571,555,581,
585,595,554,579,564,589,589,558,565,579,598,598,586,586,565,581
</chunk>
   <chunk x="-1328" y="336" width="16" height="16">
599,595,596,565,564,571,581,562,588,595,561,579,581,578,554,575,
596,562,565,599,581,555,562,575,571,562,588,561,568,598,568,585,
568,596,581,555,596,562,571,558,599,571,575,578,558,578,586,575,
578,572,596,598,564,555,595,554,592,562,574,581,586,581,574,578,
565,586,586,595,589,585,589,589,568,565,565,578,588,595,554,598,
592,555,588,578,558,561,568,588,581,592,564,571,575,578,572,565,
586,578,554,578,581,588,581,562,588,599,598,578,575,568,572,586,
589,557,564,579,588,571,554,592,574,572,592,588,578,558,579,599,
575,579,562,557,557,589,561,582,562,558,557,579,586,599,558,581,
598,588,589,564,568,582,586,568,554,589,581,588,582,585,599,555,
554,561,595,558,562,579,555,588,575,555,564,592,578,557,598,568,
555,592,599,564,595,557,596,564,598,555,592,589,585,585,589,564,
582,565,596,585,579,558,595,585,564,595,562,596,571,572,589,561,
592,599,571,579,572,579,599,579,561,586,592,572,588,568,564,592,
571,588,592,555,571,574,579,562,579,572,575,578,579,557,579,561,
557,555,588,585,596,596,582,568,578,554,575,596,592,571,588,582
</chunk>
   <chunk x="-1312" y="336" width="16" height="16">
575,579,561,555,557,565,585,558,571,585,558,554,564,554,599,564,
586,596,595,561,586,586,581,575,574,555,598,561,562,588,568,572,
586,581,571,564,561,599,562,579,578,568,557,557,588,574,557,592,
588,558,565,586,574,585,562,565,585,586,572,592,578,585,582,568,
586,589,598,564,557,586,562,595,589,592,572,588,564,564,568,562,
561,565,581,564,579,589,554,565,581,568,568,564,558,592,588,554,
585,581,595,571,579,598,578,571,558,561,579,588,561,574,555,572,
574,582,581,598,575,595,575,564,574,592,568,561,568,572,557,582,
558,581,599,574,562,586,565,558,558,596,579,575,564,592,589,574,
595,565,586,555,554,555,554,568,595,557,589,568,554,568,589,579,
586,595,598,588,599,574,557,596,565,575,596,582,557,595,574,572,
554,592,592,582,598,565,578,565,592,558,595,581,588,565,599,578,
598,595,571,588,581,581,598,598,578,599,555,579,554,581,561,585,
582,564,586,582,582,595,578,588,557,575,579,599,588,581,585,582,
561,579,586,561,581,564,571,561,557,582,575,568,599,579,579,574,
568,592,598,558,571,574,561,582,565,572,585,565,558,581,586,599
</chunk>
   <chunk x="-1296" y="336" width="16" height="16">
589,588,585,554,565,574,571,596,596,568,596,578,599,578,562,588,
588,579,555,558,561,574,596,558,592,595,571,588,581,581,596,582,
582,592,561,599,564,561,586,592,562,565,585,592,595,557,599,582,
562,589,565,579,554,572,561,575,592,585,578,562,575,581,585,572,
557,595,595,574,582,579,589,588,596,585,595,574,568,554,554,582,
581,588,588,598,592,596,558,596,561,595,578,592,588,598,564,571,
568,575,568,561,565,595,562,586,588,575,598,586,565,588,579,585,
592,572,592,592,579,578,565,581,592,588,581,568,585,565,562,572,
581,572,572,562,561,561,555,595,561,574,555,596,595,564,599,571,
592,571,568,581,572,568,588,585,565,574,557,595,568,562,578,596,
578,579,582,568,586,596,585,562,561,586,578,568,568,571,595,589,
574,592,565,586,562,588,564,561,589,595,565,575,554,571,557,589,
599,599,565,554,572,562,571,588,564,595,565,565,562,564,592,581,
554,557,568,565,595,574,592,595,585,564,599,574,599,561,564,585,
579,585,588,592,575,558,557,596,557,592,568,592,575,596,554,558,
579,586,561,579,568,575,561,588,562,561,599,565,558,599,554,557
</chunk>
   <chunk x="-1280" y="336" width="16" height="16">
595,596,588,568,578,561,588,572,554,554,595,598,571,588,558,595,
557,557,588,579,595,572,558,574,555,562,572,565,571,555,599,565,
561,555,592,572,571,557,586,555,592,575,557,555,561,565,574,588,
586,582,557,595,562,565,599,575,571,595,575,558,568,568,558,579,
558,562,589,561,574,592,585,578,568,598,599,565,568,565,561,568,
575,557,555,578,595,579,557,586,565,561,598,578,588,582,562,589,
595,572,579,557,581,585,555,589,581,581,581,578,599,585,571,586,
592,558,592,557,555,565,554,596,568,581,561,561,599,561,585,579,
574,588,592,582,574,598,561,555,579,579,575,558,582,565,568,592,
592,572,558,581,582,572,586,592,598,554,586,578,586,582,568,579,
592,581,596,575,565,592,575,557,588,579,595,598,555,571,589,572,
572,588,555,581,575,555,592,574,596,588,596,582,555,595,571,592,
586,598,574,598,557,579,571,572,578,596,575,575,555,579,579,592,
564,561,579,568,575,581,562,589,575,554,586,596,558,572,588,555,
595,557,575,564,568,558,586,561,582,554,588,578,572,555,586,574,
585,555,555,595,599,598,571,565,571,564,574,599,596,554,596,578
</chunk>
   <chunk x="-1264" y="336" width="16" height="16">
558,574,588,568,596,588,574,561,599,582,578,568,586,596,586,574,
598,564,568,555,581,592,571,581,564,574,562,565,582,588,555,589,
599,574,588,578,582,596,585,568,579,565,571,581,574,558,575,564,
561,589,575,585,565,582,561,565,586,578,558,599,579,589,578,557,
598,598,564,561,588,565,558,561,564,555,586,572,565,554,592,599,
562,575,565,589,554,578,592,579,558,571,575,585,565,575,589,561,
589,598,598,596,564,581,562,564,558,589,579,562,579,562,568,571,
579,595,588,592,588,588,568,585,557,562,564,592,557,598,581,586,
579,561,589,571,599,562,558,555,562,554,582,596,599,582,598,598,
561,596,592,575,572,585,592,565,565,592,564,554,571,595,586,586,
558,578,588,586,582,579,581,572,595,585,565,555,586,575,554,596,
572,596,554,589,586,596,598,564,582,554,595,578,578,562,564,595,
558,596,574,598,561,599,561,558,554,588,565,561,558,555,586,579,
561,588,599,568,585,592,596,582,568,598,586,558,581,579,571,588,
562,579,582,565,595,561,572,562,571,558,574,565,554,565,595,595,
575,572,568,562,564,596,579,586,581,575,557,588,562,589,565,555
</chunk>
   <chunk x="-1248" y="336" width="16" height="16">
592,565,592,581,574,575,582,558,579,586,589,581,589,595,578,592,
592,568,578,568,582,582,572,585,586,588,595,581,582,564,581,586,
558,582,571,599,586,588,571,575,575,565,565,599,555,571,568,588,
582,554,572,599,595,592,589,585,588,561,599,588,595,564,592,582,
575,596,595,585,574,558,568,588,575,595,557,571,598,572,554,572,
554,595,596,574,572,581,595,574,561,554,574,592,565,561,572,562,
568,581,581,575,585,585,571,595,555,581,574,581,572,571,575,562,
571,557,582,562,568,558,582,558,562,555,589,558,582,596,557,574,
598,571,574,592,581,565,565,558,579,555,558,558,582,578,575,592,
598,558,561,565,582,581,568,555,579,589,558,596,595,555,558,578,
565,565,585,596,599,564,568,558,581,564,599,588,571,568,599,557,
582,565,589,596,581,581,554,562,588,596,561,595,571,588,578,558,
581,558,564,598,598,574,599,571,555,555,558,595,581,574,572,588,
562,574,592,554,588,565,581,554,592,589,585,554,592,575,562,568,
565,574,598,595,589,578,586,565,564,586,565,562,581,585,586,581,
585,565,599,588,579,578,554,558,555,575,581,574,571,595,589,595
</chunk>
   <chunk x="-1232" y="336" width="16" height="16">
595,596,565,595,585,589,557,582,599,599,562,595,585,561,565,557,
558,561,562,589,592,582,588,579,564,572,564,565,589,561,557,558,
564,595,568,595,572,586,578,554,581,575,598,575,555,571,554,558,
589,586,561,558,572,592,568,588,562,574,582,572,568,585,582,571,
572,579,579,596,565,562,575,599,555,596,588,581,596,586,574,561,
582,565,596,595,564,595,592,585,575,558,586,578,578,561,586,588,
596,561,565,554,572,561,598,565,561,589,572,595,585,578,598,578,
579,586,574,598,581,564,595,588,575,596,588,592,558,582,564,561,
579,586,599,592,578,568,565,558,565,589,582,596,585,562,561,575,
574,571,581,585,589,564,595,596,558,564,557,582,585,582,558,562,
595,572,554,578,568,568,598,582,585,564,557,598,565,579,571,598,
588,575,557,572,585,554,582,557,588,565,585,574,595,574,555,589,
592,554,558,557,568,586,564,571,571,592,555,582,558,554,598,568,
565,598,572,565,589,571,575,599,582,599,599,592,557,558,575,588,
588,578,599,585,571,585,558,585,575,585,571,554,578,579,595,596,
579,554,564,586,578,557,571,586,571,571,557,562,588,574,565,557
</chunk>
   <chunk x="-1216" y="336" width="16" height="16">
579,565,554,589,582,557,586,572,581,596,581,588,578,568,585,586,
599,554,579,568,555,575,557,598,562,574,586,568,582,596,598,561,
599,589,586,586,554,572,572,557,564,554,561,595,572,588,582,574,
595,599,572,599,555,578,571,596,596,572,554,592,582,589,586,558,
575,579,582,558,578,554,575,582,571,598,557,565,561,555,599,564,
581,558,565,578,558,564,562,599,568,558,592,598,568,582,558,562,
557,562,585,592,554,581,555,554,589,575,592,579,572,561,572,564,
555,596,574,586,571,557,598,562,574,571,561,574,571,579,585,585,
562,557,582,568,595,575,571,564,586,588,582,586,581,598,574,596,
578,586,562,582,557,555,565,582,599,581,561,561,588,589,564,555,
558,562,554,561,588,568,596,571,586,596,582,557,589,578,572,562,
595,585,582,565,562,599,589,592,558,581,585,596,588,582,586,574,
555,555,564,558,572,592,555,578,588,554,557,557,564,579,572,557,
582,554,565,599,565,588,572,581,589,575,599,586,595,588,589,586,
579,561,598,564,578,572,588,582,564,592,575,586,592,575,571,588,
565,589,582,588,581,596,561,555,578,586,579,565,555,555,595,557
</chunk>
   <chunk x="-1200" y="336" width="16" height="16">
574,578,595,575,582,554,568,582,561,586,561,592,568,572,554,585,
578,598,582,558,579,585,554,596,561,564,582,599,564,555,571,595,
565,568,598,589,598,572,586,565,589,557,592,579,561,571,555,585,
578,586,574,588,586,571,595,589,554,581,555,586,598,557,581,599,
581,554,558,568,571,582,588,557,568,598,564,582,598,562,568,588,
586,582,585,574,579,575,579,555,562,555,572,562,579,582,592,558,
585,554,586,582,596,575,592,565,581,574,588,592,598,571,592,561,
568,565,582,557,557,557,581,581,592,579,568,585,561,554,557,555,
565,596,557,599,581,564,586,561,555,599,574,595,554,574,557,574,
568,582,589,574,578,585,579,581,599,561,561,561,555,598,586,585,
598,599,568,558,571,598,572,574,554,562,599,588,598,595,561,574,
588,561,588,572,588,558,596,588,564,585,586,588,564,562,578,565,
579,582,558,554,588,558,586,582,564,564,558,586,588,558,592,589,
592,554,555,564,575,572,598,598,575,562,561,578,592,585,586,558,
578,588,599,565,581,562,564,588,571,572,564,568,557,572,579,596,
571,574,589,588,555,574,592,562,589,558,581,585,579,574,575,579
</chunk>
   <chunk x="-1184" y="336" width="16" height="16">
555,579,564,564,564,574,585,592,585,561,568,557,571,592,578,561,
555,585,589,574,578,564,595,581,561,575,579,557,571,579,595,596,
568,596,588,568,599,558,568,595,564,571,578,586,578,565,592,572,
555,561,582,565,586,558,568,565,568,588,589,572,585,575,582,592,
558,592,575,592,554,574,589,592,564,598,558,598,574,555,596,561,
572,558,582,586,581,558,589,599,585,588,562,586,586,572,571,568,
572,595,565,571,554,558,557,574,596,578,599,578,565,579,575,585,
555,561,598,571,561,578,586,575,581,568,557,558,578,562,589,558,
564,579,599,586,598,557,561,592,589,574,592,595,595,561,561,564,
568,578,579,558,585,568,562,568,561,558,589,578,564,586,578,557,
595,561,579,558,578,586,575,561,582,562,554,564,557,595,596,575,
568,582,562,579,599,557,557,598,571,575,582,589,578,589,554,582,
598,572,582,589,565,561,585,579,586,571,588,581,574,555,562,581,
575,565,595,571,561,572,592,599,555,599,595,579,568,586,592,592,
557,554,564,557,562,596,585,554,581,595,592,572,588,562,579,581,
564,595,588,571,554,562,592,581,596,598,599,571,555,557,575,574
</chunk>
   <chunk x="-1168" y="336" width="16" height="16">
588,575,588,599,558,582,568,572,585,596,575,592,585,585,0,0,
572,562,555,589,574,599,554,588,586,565,599,558,592,571,0,0,
565,557,581,599,557,581,595,565,582,565,585,592,582,595,0,0,
561,598,554,565,568,589,581,578,561,575,578,568,592,588,0,0,
595,582,558,562,557,558,564,554,589,558,586,582,585,562,0,0,
571,561,557,564,564,599,558,562,555,565,589,595,557,572,0,0,
568,585,565,589,598,578,565,561,586,581,558,557,589,585,0,0,
555,565,554,599,562,575,582,578,561,568,586,555,588,574,0,0,
558,564,599,564,564,564,588,579,575,588,555,572,592,596,0,0,
557,589,579,557,574,588,571,571,574,592,557,571,555,596,0,0,
595,598,588,582,596,555,558,575,578,598,596,595,592,586,0,0,
599,585,561,571,558,589,557,554,578,568,582,571,571,557,0,0,
557,578,589,579,558,562,557,575,578,575,572,568,561,585,0,0,
585,592,589,575,581,589,579,586,572,555,554,586,575,561,0,0,
581,581,575,565,568,565,564,558,572,599,562,565,557,557,0,0,
598,574,572,555,598,558,557,589,589,568,564,578,555,588,0,0
</chunk>
   <chunk x="-1088" y="336" width="16" height="16">
0,0,0,0,0,0,0,0,0,0,0,0,0,554,585,586,
0,0,0,0,0,0,0,0,0,0,0,0,0,592,574,557,
0,0,0,0,0,0,0,0,0,0,0,0,0,595,554,575,
0,0,0,0,0,0,0,0,0,0,0,0,0,562,589,564,
0,0,0,0,0,0,0,0,0,0,0,0,0,598,562,555,
0,0,0,0,0,0,0,0,0,0,0,0,0,558,565,565,
0,0,0,0,0,0,0,0,0,0,0,0,0,595,599,599,
0,0,0,0,0,0,0,0,0,0,0,0,0,558,571,578,
0,0,0,0,0,0,0,0,0,0,0,0,0,558,561,586,
0,0,0,0,0,0,0,0,0,0,0,0,0,554,564,562,
0,0,0,0,0,0,0,0,0,0,0,0,0,564,562,571,
0,0,0,0,0,0,0,0,0,0,0,0,0,557,579,561,
0,0,0,0,0,0,0,0,0,0,0,0,0,565,564,589,
0,0,0,0,0,0,0,0,0,0,0,0,0,555,555,579,
0,0,0,0,0,0,0,0,0,0,0,0,0,561,599,579,
0,0,0,0,0,0,0,0,0,0,0,0,0,585,578,564
</chunk>
   <chunk x="-1072" y="336" width="16" height="16">
592,571,598,554,564,555,558,564,558,565,574,565,575,555,578,586,
579,588,557,595,564,596,568,588,596,598,561,554,561,592,586,561,
565,574,557,588,574,558,568,561,562,586,598,578,585,568,561,575,
599,562,585,586,562,578,558,565,599,568,562,565,574,592,554,578,
588,585,558,581,561,574,581,585,561,599,575,557,564,588,595,575,
595,557,565,589,596,588,555,581,572,574,581,595,595,586,571,592,
578,582,596,581,586,596,599,564,562,581,568,585,582,555,574,562,
585,595,554,578,557,581,598,574,571,574,588,575,572,581,592,588,
554,571,581,598,575,568,595,555,595,588,568,578,568,565,596,595,
572,568,564,572,568,595,592,582,579,599,558,561,568,555,558,564,
557,596,588,575,562,585,554,575,596,581,598,575,599,578,574,568,
581,586,589,586,565,571,585,596,586,562,572,575,579,596,589,572,
581,565,574,562,581,589,562,557,555,595,561,562,571,554,599,581,
596,579,589,565,598,562,599,571,564,598,578,564,571,582,574,586,
564,599,579,595,579,561,554,564,589,578,585,578,595,589,592,578,
554,592,585,574,585,596,562,558,555,581,562,596,564,586,585,582
</chunk>
   <chunk x="-1056" y="336" width="16" height="16">
557,568,555,582,561,564,579,554,558,579,588,599,575,586,554,574,
575,572,589,582,555,589,595,596,558,571,585,589,585,589,598,589,
579,561,572,568,561,589,568,586,581,554,578,554,557,578,565,571,
557,588,557,589,578,578,568,575,555,558,564,582,585,582,564,561,
579,595,565,555,565,572,555,555,588,562,568,561,574,554,588,562,
596,599,574,558,568,574,561,561,588,557,589,595,581,554,562,599,
561,561,586,568,571,586,568,588,596,592,557,565,557,596,562,598,
586,557,571,557,596,589,555,592,586,599,582,575,596,574,598,554,
564,565,555,555,588,578,564,595,558,586,561,589,568,565,568,565,
568,589,554,585,599,575,555,572,558,599,596,562,589,558,555,558,
595,585,562,557,588,575,564,582,564,589,565,579,572,581,564,588,
562,598,562,561,565,571,586,575,598,571,572,579,586,565,572,578,
599,592,572,595,581,558,589,582,595,588,561,599,589,571,595,599,
592,574,554,565,585,599,562,562,565,578,565,592,592,595,589,565,
571,561,586,562,581,568,582,562,572,562,592,589,561,574,592,586,
581,578,571,554,578,557,585,579,588,562,572,592,555,554,582,599
</chunk>
   <chunk x="-1040" y="336" width="16" height="16">
596,555,568,554,598,592,596,561,572,568,598,558,582,575,572,572,
574,558,589,589,585,558,598,586,572,589,592,581,598,568,575,575,
589,585,571,589,578,558,565,579,586,568,558,557,575,589,595,599,
588,579,588,557,557,585,581,554,586,565,555,585,579,588,565,581,
558,588,554,579,586,585,568,579,586,578,586,579,575,565,599,571,
557,581,599,588,555,585,561,557,578,555,555,558,561,595,557,557,
579,599,562,554,575,564,561,572,596,581,585,575,578,582,562,572,
589,582,572,574,568,554,595,555,572,562,579,558,579,599,596,575,
581,554,585,588,585,596,592,595,571,592,558,588,564,572,586,582,
596,589,572,599,595,575,598,554,585,586,571,571,565,564,578,571,
565,562,574,596,598,596,572,586,588,599,558,557,588,598,572,561,
558,582,574,564,599,596,561,585,574,557,599,571,564,574,578,565,
598,585,585,582,592,565,581,565,561,589,557,592,596,564,571,555,
562,565,579,588,581,557,588,565,574,564,572,571,561,589,588,588,
589,565,557,589,572,571,585,574,561,585,557,572,592,599,572,571,
579,562,558,565,572,599,581,588,557,585,596,565,595,579,557,572
</chunk>
   <chunk x="-1024" y="336" width="16" height="16">
586,572,596,579,582,588,575,564,575,598,585,585,574,572,589,586,
558,595,555,589,568,574,581,595,565,596,599,589,581,554,557,596,
596,588,578,589,561,588,581,571,555,579,575,561,585,574,562,565,
595,574,554,571,575,592,554,564,558,585,592,561,564,599,589,561,
575,571,561,581,582,588,565,561,582,568,595,554,554,579,586,561,
571,575,598,574,564,579,592,564,589,554,595,585,588,598,599,595,
595,596,557,558,565,558,588,599,571,599,596,579,582,586,589,595,
596,557,575,575,572,561,565,575,562,592,564,574,571,562,582,562,
575,595,565,598,568,578,596,554,589,592,599,585,561,595,592,554,
586,557,595,571,586,568,572,562,558,581,582,554,562,599,586,586,
572,578,596,581,565,561,555,592,557,599,581,592,564,599,565,589,
562,578,592,598,558,565,586,562,582,561,555,578,572,599,562,585,
555,571,595,561,568,595,572,575,599,592,564,581,588,564,582,595,
555,596,586,578,598,578,568,582,562,598,555,565,599,595,585,564,
581,568,558,575,592,596,582,572,568,555,579,564,562,557,571,554,
596,586,598,596,565,582,579,598,595,568,574,557,558,555,598,592
</chunk>
   <chunk x="-1008" y="336" width="16" height="16">
586,574,568,572,582,572,554,571,565,582,596,588,554,588,554,564,
595,596,558,586,589,568,595,555,578,595,588,598,554,586,589,596,
589,595,598,554,575,579,581,562,581,596,578,574,599,574,595,554,
592,585,554,557,599,555,562,585,582,571,592,595,558,585,561,561,
558,596,579,585,575,557,589,565,582,592,582,585,561,586,579,589,
568,571,585,554,571,589,582,582,582,588,564,596,589,564,565,572,
557,582,582,596,575,558,564,586,578,568,557,595,564,561,562,574,
579,582,586,598,595,586,581,598,598,578,579,568,598,599,564,586,
555,574,596,582,554,564,595,562,586,582,554,579,557,581,558,595,
588,585,571,554,575,586,565,592,595,589,555,557,571,578,564,582,
554,574,575,565,554,557,592,554,596,598,599,599,574,595,585,596,
599,575,589,592,562,589,558,599,595,578,562,585,588,554,586,572,
564,578,558,595,588,557,589,557,578,568,575,555,589,574,586,598,
589,555,588,585,572,574,578,592,555,598,557,578,586,595,588,558,
564,578,578,595,578,572,588,578,562,578,595,555,592,592,589,592,
585,571,557,557,555,579,558,562,586,596,565,595,565,588,586,555
</chunk>
   <chunk x="-992" y="336" width="16" height="16">
599,574,562,574,579,557,596,558,589,599,589,596,579,588,554,586,
598,572,598,582,561,572,568,585,596,592,582,586,562,592,582,595,
596,574,568,588,565,571,568,592,596,599,554,588,557,598,561,557,
564,554,555,592,557,574,564,592,561,572,596,558,598,554,557,558,
575,586,565,568,585,581,592,581,595,574,599,596,598,592,565,588,
585,581,562,568,554,555,581,595,571,558,592,595,572,588,578,575,
558,585,592,557,565,592,582,589,595,574,582,574,561,572,598,571,
596,574,565,599,598,592,557,554,561,564,574,572,595,561,589,599,
575,568,568,555,589,574,571,565,596,562,558,568,592,579,575,568,
572,554,568,579,599,557,595,582,561,581,554,588,572,568,555,579,
598,579,585,588,565,581,558,579,564,564,579,582,596,562,596,557,
588,596,599,579,561,582,581,565,588,554,571,595,562,571,599,555,
575,581,564,575,565,565,581,582,557,586,558,572,575,564,596,595,
574,585,568,574,571,561,574,564,564,586,598,571,554,564,557,554,
564,579,595,579,561,575,555,599,588,581,592,555,557,575,561,571,
578,588,585,558,558,578,568,589,558,564,596,568,581,586,565,592
</chunk>
   <chunk x="-976" y="336" width="16" height="16">
588,596,589,562,565,582,581,581,574,592,586,595,581,592,592,571,
581,579,574,558,575,578,574,558,555,586,564,592,565,586,575,562,
578,564,572,595,588,582,565,574,565,561,592,589,571,588,595,588,
568,565,586,599,598,555,572,565,588,599,555,558,561,565,572,582,
581,589,585,578,596,554,589,581,572,554,565,565,592,555,565,586,
565,579,579,562,565,595,562,581,557,588,557,578,571,562,592,557,
586,582,581,554,589,558,589,571,581,595,574,585,554,581,599,589,
561,562,575,589,565,599,586,575,571,599,592,562,564,592,598,554,
575,562,554,592,554,598,562,575,582,578,578,588,558,592,589,561,
565,575,585,574,574,557,598,599,571,581,555,596,574,588,565,568,
554,586,554,578,589,598,571,571,572,578,585,582,557,592,582,598,
598,596,578,554,578,562,568,598,571,592,571,572,568,558,589,555,
578,578,554,572,586,599,578,596,565,568,578,581,589,599,557,554,
558,571,562,588,581,555,557,579,586,592,599,589,596,561,575,568,
592,579,586,564,582,592,585,568,574,599,558,555,575,575,572,579,
558,565,588,564,589,592,565,588,595,581,564,554,555,557,589,554
</chunk>
   <chunk x="-960" y="336" width="16" height="16">
562,562,558,592,585,596,568,582,589,599,592,586,561,599,586,578,
582,564,586,571,589,589,581,565,557,588,557,579,599,585,598,586,
562,596,585,578,578,564,557,582,575,578,582,586,575,589,592,578,
578,554,586,598,578,596,581,561,598,574,588,592,582,562,582,596,
558,579,596,586,555,579,596,596,555,595,568,557,554,554,555,561,
568,596,574,592,588,599,554,574,579,579,555,578,578,562,574,562,
589,582,598,555,578,554,586,572,592,599,598,588,598,571,571,589,
589,562,554,585,582,592,565,564,561,579,555,571,555,588,558,595,
565,596,554,572,572,581,589,575,596,565,579,575,598,596,599,555,
572,562,571,589,598,568,571,558,564,596,586,561,579,579,555,562,
558,586,581,571,596,582,561,585,588,568,592,575,598,592,598,598,
585,557,592,596,581,562,582,586,579,557,561,571,572,588,568,578,
596,562,564,582,582,585,568,554,592,562,592,582,572,575,589,595,
592,599,568,599,586,561,585,557,581,598,561,554,572,564,564,572,
596,586,599,588,599,592,582,595,582,561,578,599,598,558,555,558,
558,588,589,557,582,554,554,589,578,554,555,572,564,582,564,598
</chunk>
   <chunk x="-944" y="336" width="16" height="16">
574,596,557,562,571,571,589,592,572,596,565,555,574,562,571,572,
561,558,581,554,582,574,557,572,592,599,589,589,571,599,562,572,
565,555,555,574,588,598,588,575,572,586,582,562,565,574,592,557,
558,579,585,599,599,568,572,588,596,579,589,557,595,561,574,581,
562,588,589,568,578,578,561,582,582,561,565,574,589,564,585,565,
599,589,578,596,596,565,598,574,562,598,592,564,558,555,568,596,
589,575,574,557,578,581,589,562,562,554,561,581,589,586,589,565,
555,599,558,596,582,588,571,579,599,558,564,561,571,586,571,564,
599,565,586,599,578,554,581,564,599,574,555,582,568,564,585,595,
554,554,564,579,582,578,572,561,575,586,558,589,586,565,598,598,
578,557,586,555,581,592,592,575,568,592,562,561,571,586,588,581,
595,586,598,572,557,581,564,595,575,588,554,592,564,589,572,588,
588,562,572,589,571,558,599,589,598,575,572,561,581,554,575,571,
599,572,588,581,562,595,589,581,555,592,558,557,592,564,579,596,
578,562,588,585,586,571,564,581,561,595,599,595,598,581,586,599,
558,554,565,598,574,596,572,562,561,558,582,582,568,599,564,578
</chunk>
   <chunk x="-928" y="336" width="16" height="16">
574,574,586,592,586,555,592,568,581,596,558,578,572,565,575,579,
574,596,554,554,562,557,571,578,596,558,564,561,575,561,558,572,
595,582,588,589,575,572,595,572,572,588,557,562,561,562,586,571,
575,561,557,568,565,561,581,572,592,565,592,564,572,565,598,578,
592,558,572,595,596,554,565,581,571,571,565,555,588,581,571,582,
592,561,579,595,588,582,595,596,598,564,575,588,564,561,589,589,
568,561,571,579,571,596,592,585,582,575,564,585,585,589,561,572,
564,598,572,586,575,586,572,568,554,571,564,572,561,571,557,589,
579,595,592,562,595,592,599,558,581,575,585,564,571,581,564,578,
572,585,582,579,562,582,564,598,572,575,592,571,585,592,579,586,
557,554,558,592,589,558,586,579,571,572,571,578,592,578,562,574,
565,586,592,595,554,581,564,598,581,596,562,588,557,558,599,582,
586,561,575,588,558,561,588,586,589,578,598,564,595,575,561,585,
555,599,598,555,596,564,595,562,557,554,571,555,564,558,578,578,
557,558,592,578,586,558,589,598,574,565,554,572,581,596,558,554,
585,558,578,582,589,599,585,586,564,578,574,557,557,564,557,579
</chunk>
   <chunk x="-912" y="336" width="16" height="16">
582,595,588,575,575,558,564,585,572,561,578,582,555,595,598,589,
585,581,572,578,599,554,585,599,554,595,578,595,582,586,558,574,
561,595,568,568,582,574,554,595,554,565,589,581,596,565,598,595,
582,586,596,561,585,596,592,558,598,561,565,598,585,578,554,592,
588,554,571,588,557,568,588,555,578,598,558,592,561,582,588,574,
582,561,588,582,555,585,575,586,588,578,598,582,574,574,572,588,
581,598,574,582,558,592,554,564,565,589,574,586,575,557,585,554,
562,586,568,565,568,558,561,588,554,581,554,592,568,599,581,581,
564,554,572,555,572,579,581,572,599,586,588,568,565,575,586,554,
558,582,595,581,575,589,588,554,558,565,554,558,554,572,571,579,
554,555,578,562,588,589,582,596,599,568,555,588,595,585,599,557,
568,568,582,592,557,555,574,595,571,565,558,562,586,564,561,579,
586,575,572,588,558,565,562,562,588,588,557,581,586,582,579,565,
579,568,575,581,579,555,561,575,599,581,585,568,574,582,558,595,
588,586,562,561,572,562,554,575,574,575,592,588,582,574,572,589,
589,554,574,572,592,582,592,565,598,571,568,581,557,588,595,595
</chunk>
   <chunk x="-896" y="336" width="16" height="16">
575,585,592,558,589,599,589,575,575,588,554,585,578,574,588,586,
554,595,561,598,572,557,592,581,558,572,599,595,555,582,554,585,
589,562,574,578,554,565,565,578,555,564,596,574,581,571,572,555,
568,561,568,574,595,571,575,568,596,571,571,557,558,578,598,588,
592,568,578,565,554,555,586,592,595,592,575,578,578,561,582,575,
595,578,579,568,599,555,592,586,578,558,578,596,598,585,588,561,
578,582,558,555,558,561,557,561,589,571,581,586,579,588,595,574,
558,574,578,558,565,558,599,564,582,565,564,565,592,555,568,571,
595,579,592,574,588,571,586,568,575,581,582,555,574,581,564,579,
572,595,585,575,574,592,575,555,582,579,561,574,596,596,598,588,
578,575,555,588,582,565,558,588,568,555,582,598,555,589,574,575,
589,581,561,561,581,578,554,586,574,596,561,572,575,565,574,562,
565,572,561,557,558,555,588,586,588,564,578,554,589,589,582,554,
592,575,589,596,558,585,596,557,578,558,586,596,598,575,598,564,
585,565,558,558,588,564,557,592,561,585,585,586,599,589,568,558,
557,555,585,581,557,581,599,565,555,574,595,561,592,554,592,554
</chunk>
   <chunk x="-880" y="336" width="16" height="16">
589,561,574,581,598,599,581,579,558,596,558,595,595,572,564,572,
596,568,588,589,575,554,586,582,572,578,578,574,568,562,579,598,
592,598,568,557,578,579,578,568,555,581,592,588,578,579,586,554,
562,581,589,578,558,582,595,557,575,586,578,571,599,555,558,589,
568,595,598,589,574,575,575,599,579,596,568,562,568,561,589,557,
585,565,595,595,596,582,555,585,599,596,571,571,588,557,561,575,
585,554,586,598,588,595,561,571,599,592,561,561,582,586,592,575,
568,571,571,588,592,579,595,582,582,592,568,562,599,595,557,598,
586,562,579,589,588,572,564,592,572,579,581,585,598,571,596,598,
578,557,564,582,586,564,586,588,595,574,589,554,589,596,571,575,
565,557,589,579,571,588,568,565,568,562,598,568,599,589,585,586,
558,592,582,599,572,564,575,582,589,599,596,568,578,575,585,555,
599,589,595,575,575,581,596,561,572,592,575,572,596,561,578,595,
565,561,558,572,561,571,574,568,557,595,586,561,585,596,589,574,
574,565,558,555,558,592,578,554,598,565,598,586,578,574,554,557,
589,582,598,598,562,585,562,565,579,599,592,598,571,589,574,589
</chunk>
   <chunk x="-864" y="336" width="16" height="16">
582,589,557,575,564,585,596,554,595,598,571,554,578,579,588,589,
568,554,565,571,564,598,588,599,554,562,598,561,575,571,581,564,
585,568,558,595,582,579,575,585,596,562,572,592,564,557,582,599,
575,572,572,588,568,598,579,561,592,582,554,554,579,555,571,564,
599,574,575,581,565,555,562,557,581,588,571,561,582,562,595,599,
588,558,571,581,564,592,558,598,568,599,599,564,578,588,575,598,
598,557,565,571,579,565,572,585,571,568,561,579,561,582,575,582,
568,588,571,555,579,565,571,581,592,575,599,555,557,554,586,565,
562,588,582,596,564,574,555,564,572,599,554,561,554,578,581,598,
596,592,579,575,586,585,561,578,581,554,579,557,572,557,558,571,
579,586,579,555,574,561,582,579,588,564,578,568,574,579,595,578,
574,579,582,571,596,582,581,599,565,575,592,564,579,581,568,586,
554,568,575,555,592,578,554,554,574,578,579,562,564,575,564,561,
595,565,579,578,589,589,558,574,555,596,557,572,558,561,564,596,
561,592,598,585,575,572,574,586,592,596,564,596,562,561,562,595,
579,598,596,581,592,588,564,565,592,585,574,598,575,592,571,592
</chunk>
   <chunk x="-848" y="336" width="16" height="16">
582,558,596,599,588,585,0,0,0,0,0,0,0,0,0,0,
572,588,564,589,562,599,0,0,0,0,0,0,0,0,0,0,
574,579,596,568,575,572,0,0,0,0,0,0,0,0,0,0,
557,585,558,578,596,582,0,0,0,0,0,0,0,0,0,0,
592,578,572,578,589,588,0,0,0,0,0,0,0,0,0,0,
574,578,555,562,572,554,0,0,0,0,0,0,0,0,0,0,
598,585,586,561,562,558,0,0,0,0,0,0,0,0,0,0,
585,588,585,592,598,596,0,0,0,0,0,0,0,0,0,0,
589,574,557,588,582,581,0,0,0,0,0,0,0,0,0,0,
599,588,555,579,561,558,0,0,0,0,0,0,0,0,0,0,
592,599,598,555,562,564,0,0,0,0,0,0,0,0,0,0,
579,592,558,585,578,558,0,0,0,0,0,0,0,0,0,0,
585,592,574,582,589,574,0,0,0,0,0,0,0,0,0,0,
592,578,558,599,578,565,0,0,0,0,0,0,0,0,0,0,
565,572,596,579,589,596,0,0,0,0,0,0,0,0,0,0,
588,582,572,562,585,588,0,0,0,0,0,0,0,0,0,0
</chunk>
   <chunk x="-1360" y="352" width="16" height="16">
0,0,0,0,0,0,0,595,578,572,579,586,561,558,572,564,
0,0,0,0,0,0,0,562,555,564,599,561,578,572,575,575,
0,0,0,0,0,0,0,561,557,565,557,558,592,574,589,582,
0,0,0,0,0,0,0,589,596,562,554,562,582,588,578,554,
0,0,0,0,0,0,0,571,555,596,574,571,586,598,585,564,
0,0,0,0,0,0,0,586,589,554,571,579,557,596,555,564,
0,0,0,0,0,0,0,561,598,572,586,572,599,578,579,557,
0,0,0,0,0,0,0,0,0,0,0,0,0,0,0,0,
0,0,0,0,0,0,0,0,0,0,0,0,0,0,0,0,
0,0,0,0,0,0,0,0,0,0,0,0,0,0,0,0,
0,0,0,0,0,0,0,0,0,0,0,0,0,0,0,0,
0,0,0,0,0,0,0,0,0,0,0,0,0,0,0,0,
0,0,0,0,0,0,0,0,0,0,0,0,0,0,0,0,
0,0,0,0,0,0,0,0,0,0,0,0,0,0,0,0,
0,0,0,0,0,0,0,0,0,0,0,0,0,0,0,0,
0,0,0,0,0,0,0,0,0,0,0,0,0,0,0,0
</chunk>
   <chunk x="-1344" y="352" width="16" height="16">
555,557,595,585,557,568,592,568,592,578,568,574,555,596,596,579,
589,557,596,574,561,595,562,596,596,557,578,555,555,564,562,589,
561,572,578,561,588,558,596,572,571,592,578,586,564,568,592,578,
572,574,586,555,571,568,579,562,586,596,571,599,581,558,555,568,
581,572,579,568,579,558,565,598,592,572,586,599,571,588,585,574,
585,562,554,558,581,562,554,592,555,578,581,596,571,595,586,564,
595,575,598,554,589,575,564,581,598,564,571,571,555,586,596,578,
0,0,0,0,0,0,0,0,0,0,0,0,0,0,0,0,
0,0,0,0,0,0,0,0,0,0,0,0,0,0,0,0,
0,0,0,0,0,0,0,0,0,0,0,0,0,0,0,0,
0,0,0,0,0,0,0,0,0,0,0,0,0,0,0,0,
0,0,0,0,0,0,0,0,0,0,0,0,0,0,0,0,
0,0,0,0,0,0,0,0,0,0,0,0,0,0,0,0,
0,0,0,0,0,0,0,0,0,0,0,0,0,0,0,0,
0,0,0,0,0,0,0,0,0,0,0,0,0,0,0,0,
0,0,0,0,0,0,0,0,0,0,0,0,0,0,0,0
</chunk>
   <chunk x="-1328" y="352" width="16" height="16">
581,554,595,581,575,555,561,599,575,589,561,564,571,565,589,588,
579,588,585,579,564,596,568,571,592,582,592,595,596,554,572,592,
561,561,586,589,558,554,578,558,574,571,574,579,565,555,565,599,
557,572,599,568,582,561,581,555,585,586,589,571,586,596,575,586,
565,575,585,575,572,574,582,565,586,558,571,588,555,598,561,554,
581,578,588,585,571,554,568,599,558,588,592,572,581,571,581,562,
588,589,555,558,598,582,568,586,564,596,585,588,595,579,554,581,
0,0,0,0,0,0,0,0,0,0,0,0,0,0,0,0,
0,0,0,0,0,0,0,0,0,0,0,0,0,0,0,0,
0,0,0,0,0,0,0,0,0,0,0,0,0,0,0,0,
0,0,0,0,0,0,0,0,0,0,0,0,0,0,0,0,
0,0,0,0,0,0,0,0,0,0,0,0,0,0,0,0,
0,0,0,0,0,0,0,0,0,0,0,0,0,0,0,0,
0,0,0,0,0,0,0,0,0,0,0,0,0,0,0,0,
0,0,0,0,0,0,0,0,0,0,0,0,0,0,0,0,
0,0,0,0,0,0,0,0,0,0,0,0,0,0,0,0
</chunk>
   <chunk x="-1312" y="352" width="16" height="16">
579,581,582,585,578,579,598,558,555,599,575,575,579,571,596,592,
586,575,595,589,586,592,598,574,589,598,581,557,592,561,578,572,
564,582,592,574,562,575,554,586,581,582,565,596,589,568,568,589,
585,558,565,557,575,592,561,579,592,592,565,562,599,558,555,586,
592,555,581,595,578,578,568,599,564,585,574,574,596,565,554,554,
598,589,596,579,575,558,578,555,585,586,557,588,571,558,599,599,
554,589,558,558,575,565,596,558,599,596,565,585,579,588,561,571,
0,0,0,0,0,0,0,0,0,0,0,0,0,0,0,0,
0,0,0,0,0,0,0,0,0,0,0,0,0,0,0,0,
0,0,0,0,0,0,0,0,0,0,0,0,0,0,0,0,
0,0,0,0,0,0,0,0,0,0,0,0,0,0,0,0,
0,0,0,0,0,0,0,0,0,0,0,0,0,0,0,0,
0,0,0,0,0,0,0,0,0,0,0,0,0,0,0,0,
0,0,0,0,0,0,0,0,0,0,0,0,0,0,0,0,
0,0,0,0,0,0,0,0,0,0,0,0,0,0,0,0,
0,0,0,0,0,0,0,0,0,0,0,0,0,0,0,0
</chunk>
   <chunk x="-1296" y="352" width="16" height="16">
579,554,595,574,581,564,554,586,578,575,578,589,582,589,588,581,
586,586,574,562,568,572,589,555,598,581,574,592,599,565,592,586,
596,561,557,585,572,575,582,575,579,557,581,595,581,581,581,599,
585,565,558,581,558,589,564,588,595,598,561,582,589,561,585,586,
561,575,585,562,585,595,578,572,581,572,571,588,565,568,581,558,
598,558,565,586,557,574,588,561,558,592,585,571,596,585,582,554,
557,561,595,562,554,588,596,558,554,586,558,555,575,579,592,579,
0,0,0,0,0,0,0,0,0,0,0,0,0,0,0,0,
0,0,0,0,0,0,0,0,0,0,0,0,0,0,0,0,
0,0,0,0,0,0,0,0,0,0,0,0,0,0,0,0,
0,0,0,0,0,0,0,0,0,0,0,0,0,0,0,0,
0,0,0,0,0,0,0,0,0,0,0,0,0,0,0,0,
0,0,0,0,0,0,0,0,0,0,0,0,0,0,0,0,
0,0,0,0,0,0,0,0,0,0,0,0,0,0,0,0,
0,0,0,0,0,0,0,0,0,0,0,0,0,0,0,0,
0,0,0,0,0,0,0,0,0,0,0,0,0,0,0,0
</chunk>
   <chunk x="-1280" y="352" width="16" height="16">
598,557,555,575,565,557,596,564,585,582,585,596,557,592,557,568,
595,578,592,581,596,561,579,557,557,575,598,595,596,565,598,572,
555,554,557,564,598,564,561,562,565,575,599,596,578,575,599,565,
555,574,586,598,555,572,586,557,572,596,571,595,565,589,572,558,
565,554,557,599,578,571,565,598,561,572,578,575,562,562,571,571,
568,574,574,562,595,564,596,568,575,562,599,557,581,599,586,581,
571,596,561,598,558,585,592,598,578,572,581,598,582,562,571,598,
0,0,0,0,0,0,0,0,0,0,0,0,0,0,0,0,
0,0,0,0,0,0,0,0,0,0,0,0,0,0,0,0,
0,0,0,0,0,0,0,0,0,0,0,0,0,0,0,0,
0,0,0,0,0,0,0,0,0,0,0,0,0,0,0,0,
0,0,0,0,0,0,0,0,0,0,0,0,0,0,0,0,
0,0,0,0,0,0,0,0,0,0,0,0,0,0,0,0,
0,0,0,0,0,0,0,0,0,0,0,0,0,0,0,0,
0,0,0,0,0,0,0,0,0,0,0,0,0,0,0,0,
0,0,0,0,0,0,0,0,0,0,0,0,0,0,0,0
</chunk>
   <chunk x="-1264" y="352" width="16" height="16">
575,599,579,581,585,581,596,592,589,586,582,555,596,579,554,554,
592,588,581,571,555,575,599,599,592,561,565,592,578,565,589,554,
565,571,599,585,557,579,578,585,557,555,579,558,565,595,579,582,
568,579,596,579,595,592,582,586,588,564,592,579,598,598,596,568,
595,586,575,586,558,579,581,596,596,582,557,586,568,599,555,589,
578,588,582,598,561,586,585,561,582,585,575,558,581,592,574,578,
571,589,571,562,585,574,562,596,586,562,599,564,568,596,558,554,
0,0,0,0,0,0,0,0,0,0,0,0,0,0,0,0,
0,0,0,0,0,0,0,0,0,0,0,0,0,0,0,0,
0,0,0,0,0,0,0,0,0,0,0,0,0,0,0,0,
0,0,0,0,0,0,0,0,0,0,0,0,0,0,0,0,
0,0,0,0,0,0,0,0,0,0,0,0,0,0,0,0,
0,0,0,0,0,0,0,0,0,0,0,0,0,0,0,0,
0,0,0,0,0,0,0,0,0,0,0,0,0,0,0,0,
0,0,0,0,0,0,0,0,0,0,0,0,0,0,0,0,
0,0,0,0,0,0,0,0,0,0,0,0,0,0,0,0
</chunk>
   <chunk x="-1248" y="352" width="16" height="16">
564,596,568,585,581,554,595,574,561,572,562,564,596,588,589,554,
596,582,554,575,554,582,599,585,558,586,558,581,561,581,595,579,
585,595,579,586,574,585,562,562,554,571,564,557,596,585,589,578,
572,568,588,578,555,558,554,585,561,581,589,579,596,571,575,592,
588,562,568,598,571,574,598,582,592,599,571,581,589,568,579,568,
555,579,599,554,562,592,592,582,598,554,599,558,592,595,592,574,
574,565,599,568,572,596,557,581,562,598,564,574,578,582,581,561,
0,0,0,0,0,0,0,0,0,0,0,0,0,0,0,0,
0,0,0,0,0,0,0,0,0,0,0,0,0,0,0,0,
0,0,0,0,0,0,0,0,0,0,0,0,0,0,0,0,
0,0,0,0,0,0,0,0,0,0,0,0,0,0,0,0,
0,0,0,0,0,0,0,0,0,0,0,0,0,0,0,0,
0,0,0,0,0,0,0,0,0,0,0,0,0,0,0,0,
0,0,0,0,0,0,0,0,0,0,0,0,0,0,0,0,
0,0,0,0,0,0,0,0,0,0,0,0,0,0,0,0,
0,0,0,0,0,0,0,0,0,0,0,0,0,0,0,0
</chunk>
   <chunk x="-1232" y="352" width="16" height="16">
571,557,565,578,586,555,575,599,588,578,564,595,568,585,564,586,
554,585,592,561,574,595,589,588,578,582,565,582,558,588,562,557,
558,596,592,582,578,586,582,585,568,558,565,568,599,561,595,572,
562,586,588,578,571,596,568,596,586,571,586,596,557,585,588,568,
578,554,558,571,592,571,557,554,572,558,554,574,561,572,582,578,
595,554,592,575,572,557,557,564,582,574,565,578,578,579,585,598,
575,554,595,596,558,568,589,572,598,579,568,557,592,596,557,585,
0,0,0,0,0,578,575,558,588,578,582,574,585,562,562,574,
0,0,0,0,0,0,0,0,0,0,0,0,0,0,0,0,
0,0,0,0,0,0,0,0,0,0,0,0,0,0,0,0,
0,0,0,0,0,0,0,0,0,0,0,0,0,0,0,0,
0,0,0,0,0,0,0,0,0,0,0,0,0,0,0,0,
0,0,0,0,0,0,0,0,0,0,0,0,0,0,0,0,
0,0,0,0,0,0,0,0,0,0,0,0,0,0,0,0,
0,0,0,0,0,0,0,0,0,0,0,0,0,0,0,0,
0,0,0,0,0,0,0,0,0,0,0,0,0,0,0,0
</chunk>
   <chunk x="-1216" y="352" width="16" height="16">
588,585,598,572,575,554,572,565,578,574,589,554,588,582,589,565,
586,557,586,574,588,558,571,574,555,571,581,585,561,579,572,575,
592,555,596,572,572,574,562,586,565,565,595,565,568,581,598,568,
568,558,571,558,592,585,564,579,555,562,574,586,595,589,595,565,
557,579,558,574,564,596,572,565,586,586,572,565,574,598,595,595,
589,575,592,555,585,558,581,554,557,585,554,585,568,575,585,575,
572,575,589,599,586,589,561,586,565,579,575,575,585,554,571,599,
561,579,596,557,562,588,561,599,596,555,561,561,588,579,568,557,
0,0,0,0,0,0,0,0,0,0,0,0,0,0,0,0,
0,0,0,0,0,0,0,0,0,0,0,0,0,0,0,0,
0,0,0,0,0,0,0,0,0,0,0,0,0,0,0,0,
0,0,0,0,0,0,0,0,0,0,0,0,0,0,0,0,
0,0,0,0,0,0,0,0,0,0,0,0,0,0,0,0,
0,0,0,0,0,0,0,0,0,0,0,0,0,0,0,0,
0,0,0,0,0,0,0,0,0,0,0,0,0,0,0,0,
0,0,0,0,0,0,0,0,0,0,0,0,0,0,0,0
</chunk>
   <chunk x="-1200" y="352" width="16" height="16">
595,581,575,596,586,581,558,579,558,564,558,555,572,589,571,588,
561,574,585,588,582,592,555,598,561,595,599,588,571,554,599,596,
585,588,598,575,582,575,557,565,574,598,586,595,596,589,558,588,
565,592,588,585,586,595,592,579,598,582,592,598,592,568,582,557,
579,582,581,555,564,572,595,555,562,565,586,571,568,554,582,571,
558,598,582,575,598,571,578,581,555,575,588,574,581,561,582,555,
592,581,582,555,598,555,599,586,592,564,586,574,579,589,555,596,
565,555,581,564,554,592,572,589,589,578,568,572,558,572,554,585,
0,0,0,0,0,0,0,0,0,0,0,0,0,0,0,0,
0,0,0,0,0,0,0,0,0,0,0,0,0,0,0,0,
0,0,0,0,0,0,0,0,0,0,0,0,0,0,0,0,
0,0,0,0,0,0,0,0,0,0,0,0,0,0,0,0,
0,0,0,0,0,0,0,0,0,0,0,0,0,0,0,0,
0,0,0,0,0,0,0,0,0,0,0,0,0,0,0,0,
0,0,0,0,0,0,0,0,0,0,0,0,0,0,0,0,
0,0,0,0,0,0,0,0,0,0,0,0,0,0,0,0
</chunk>
   <chunk x="-1184" y="352" width="16" height="16">
565,558,598,564,572,568,561,581,599,586,589,565,579,586,595,554,
596,555,571,581,592,595,588,589,582,574,598,596,562,575,561,557,
557,555,554,581,588,599,555,578,572,579,568,598,595,578,578,571,
586,599,554,585,572,579,578,557,598,564,574,575,575,596,575,572,
554,574,555,571,586,582,595,554,558,586,561,562,599,596,595,599,
586,575,558,595,596,574,592,564,562,554,582,574,586,574,578,564,
564,564,585,581,598,598,564,554,562,558,578,561,572,596,592,579,
571,592,598,599,564,561,571,595,555,599,557,588,595,589,555,555,
0,0,0,0,0,0,0,0,0,0,0,0,0,0,0,0,
0,0,0,0,0,0,0,0,0,0,0,0,0,0,0,0,
0,0,0,0,0,0,0,0,0,0,0,0,0,0,0,0,
0,0,0,0,0,0,0,0,0,0,0,0,0,0,0,0,
0,0,0,0,0,0,0,0,0,0,0,0,0,0,0,0,
0,0,0,0,0,0,0,0,0,0,0,0,0,0,0,0,
0,0,0,0,0,0,0,0,0,0,0,0,0,0,0,0,
0,0,0,0,0,0,0,0,0,0,0,0,0,0,0,0
</chunk>
   <chunk x="-1168" y="352" width="16" height="16">
598,564,575,592,589,572,575,557,578,555,575,588,572,579,0,0,
581,579,574,581,581,586,592,598,561,578,575,592,599,554,0,0,
589,564,581,585,586,579,595,554,595,586,599,575,554,568,0,0,
588,586,582,558,575,578,581,582,561,562,592,599,592,568,0,0,
599,585,586,564,592,579,596,554,561,578,578,598,598,599,0,0,
555,588,599,562,564,558,581,585,596,568,561,555,565,555,0,0,
571,571,554,589,585,561,571,572,574,572,571,564,592,589,0,0,
572,565,581,568,557,572,564,575,579,598,585,585,568,555,0,0,
0,0,0,0,0,0,0,0,0,0,0,0,0,0,0,0,
0,0,0,0,0,0,0,0,0,0,0,0,0,0,0,0,
0,0,0,0,0,0,0,0,0,0,0,0,0,0,0,0,
0,0,0,0,0,0,0,0,0,0,0,0,0,0,0,0,
0,0,0,0,0,0,0,0,0,0,0,0,0,0,0,0,
0,0,0,0,0,0,0,0,0,0,0,0,0,0,0,0,
0,0,0,0,0,0,0,0,0,0,0,0,0,0,0,0,
0,0,0,0,0,0,0,0,0,0,0,0,0,0,0,0
</chunk>
   <chunk x="-1088" y="352" width="16" height="16">
0,0,0,0,0,0,0,0,0,0,0,0,0,568,562,582,
0,0,0,0,0,0,0,0,0,0,0,0,0,582,571,598,
0,0,0,0,0,0,0,0,0,0,0,0,0,592,554,581,
0,0,0,0,0,0,0,0,0,0,0,0,0,586,572,586,
0,0,0,0,0,0,0,0,0,0,0,0,0,579,572,585,
0,0,0,0,0,0,0,0,0,0,0,0,0,586,554,558,
0,0,0,0,0,0,0,0,0,0,0,0,0,579,592,555,
0,0,0,0,0,0,0,0,0,0,0,0,0,586,599,565,
0,0,0,0,0,0,0,0,0,0,0,0,0,571,562,564,
0,0,0,0,0,0,0,0,0,0,0,0,0,571,571,565,
0,0,0,0,0,0,0,0,0,0,0,0,0,599,578,554,
0,0,0,0,0,0,0,0,0,0,0,0,0,555,599,595,
0,0,0,0,0,0,0,0,0,0,0,0,0,599,592,596,
0,0,0,0,0,0,0,0,0,0,0,0,0,589,575,596,
0,0,0,0,0,0,0,0,0,0,0,0,0,564,561,572,
0,0,0,0,0,0,0,0,0,0,0,0,0,561,555,595
</chunk>
   <chunk x="-1072" y="352" width="16" height="16">
565,579,592,579,592,575,564,589,592,588,599,557,586,579,571,585,
599,599,554,561,562,555,575,578,564,582,572,579,586,571,564,562,
582,565,554,579,568,588,572,568,579,585,578,557,599,565,561,581,
599,592,596,564,581,596,599,561,585,589,565,555,565,586,579,585,
561,595,582,568,582,589,565,568,588,575,554,586,592,592,557,555,
586,589,575,588,581,557,565,554,592,557,598,589,571,557,595,561,
596,599,589,558,582,571,589,595,578,562,585,592,558,589,568,565,
598,588,561,592,557,561,562,561,588,589,571,554,599,579,561,579,
562,579,561,595,564,589,571,585,562,562,586,564,572,581,565,596,
586,557,578,579,578,554,555,592,565,554,574,589,588,571,589,585,
598,562,565,564,568,554,578,592,561,574,555,575,599,555,599,586,
581,588,585,554,598,565,586,554,581,555,561,578,558,585,574,575,
554,582,582,564,575,579,558,579,585,554,599,592,579,575,586,568,
561,564,574,578,561,579,564,586,582,582,596,598,589,562,562,555,
575,595,588,592,588,598,595,564,568,568,575,595,588,589,579,571,
578,595,555,565,589,554,574,578,557,555,585,555,572,592,598,596
</chunk>
   <chunk x="-1056" y="352" width="16" height="16">
554,579,592,599,565,565,557,589,595,554,581,599,575,596,585,575,
571,565,572,579,554,564,571,575,592,555,586,581,571,562,564,564,
561,561,589,555,595,589,581,568,585,582,588,557,562,572,572,582,
575,565,589,574,586,586,572,575,596,561,578,579,588,561,598,586,
557,598,571,555,572,557,596,599,588,562,561,562,557,588,589,578,
589,575,554,557,574,555,595,581,599,571,561,561,558,557,578,561,
598,565,596,581,554,585,572,568,595,568,582,557,555,562,564,582,
554,565,565,575,582,557,565,557,586,586,554,565,592,558,561,557,
558,554,561,554,581,596,572,554,558,586,571,574,589,565,558,582,
554,565,574,588,592,596,599,599,574,596,554,598,592,581,588,599,
557,571,598,595,564,562,581,578,575,579,595,574,582,568,595,575,
592,579,589,561,588,592,564,571,554,586,586,582,578,572,575,557,
578,558,564,598,585,579,582,561,578,579,558,596,595,582,554,581,
562,558,554,586,572,564,578,599,574,571,586,571,561,585,582,595,
579,599,557,598,581,586,574,574,558,555,588,589,572,589,565,595,
554,555,589,579,596,589,554,574,558,575,578,571,558,571,588,568
</chunk>
   <chunk x="-1040" y="352" width="16" height="16">
581,592,581,582,579,596,571,565,589,557,562,572,585,581,571,595,
581,555,578,571,561,585,572,599,562,557,574,568,592,589,592,555,
565,574,589,579,598,598,565,589,555,565,565,558,558,585,596,557,
572,589,561,589,571,589,598,588,575,564,596,554,557,562,579,564,
598,596,598,599,586,571,572,575,558,596,572,561,578,571,578,586,
586,589,557,586,575,589,562,557,571,588,595,564,579,599,562,562,
554,572,598,562,572,586,581,571,572,574,557,555,571,574,558,571,
585,595,568,586,578,575,571,565,596,592,585,571,582,581,555,565,
579,592,565,579,578,554,595,557,599,579,557,574,595,598,588,575,
579,571,574,571,588,595,572,558,571,568,578,589,592,564,589,582,
595,579,596,586,565,592,586,599,554,575,579,579,555,595,558,557,
574,565,572,589,565,558,585,588,598,592,589,571,579,562,564,574,
574,554,564,592,557,557,598,562,575,574,595,598,599,586,586,596,
555,571,598,589,599,568,582,575,555,599,571,564,564,562,575,557,
596,578,568,558,585,554,596,585,568,574,585,579,574,579,582,575,
554,574,588,568,558,557,599,579,571,565,558,585,589,555,557,561
</chunk>
   <chunk x="-1024" y="352" width="16" height="16">
596,568,581,582,579,581,579,595,585,579,582,598,586,588,558,581,
564,579,565,557,595,574,562,572,598,581,582,588,572,564,578,561,
561,592,565,599,598,588,585,581,589,592,589,582,588,571,557,574,
578,572,574,578,581,596,558,598,592,585,588,558,592,598,555,598,
565,585,578,561,557,598,572,554,588,598,582,598,571,558,589,558,
582,574,589,585,586,562,568,555,557,571,585,588,557,595,561,554,
586,572,575,586,595,579,596,579,589,595,599,555,589,579,588,575,
575,595,588,575,568,596,588,599,564,572,592,568,585,574,596,562,
596,599,581,562,579,588,595,572,599,574,572,589,599,558,588,561,
554,585,589,557,571,554,558,589,585,554,598,585,581,598,582,595,
571,592,557,554,589,555,574,562,562,599,579,588,555,599,586,595,
592,589,595,589,589,585,555,585,586,568,574,575,575,555,564,586,
571,582,598,586,585,586,572,572,596,588,598,579,578,571,574,561,
581,581,565,574,555,588,578,572,555,557,575,596,586,561,588,592,
571,589,554,598,598,596,598,586,561,595,592,574,557,592,568,554,
555,555,574,592,579,571,589,598,572,589,599,578,582,592,565,575
</chunk>
   <chunk x="-1008" y="352" width="16" height="16">
582,574,578,585,579,581,557,572,596,585,558,555,589,585,599,599,
578,592,596,589,555,575,574,557,598,596,572,598,578,564,558,585,
595,554,568,561,598,557,562,589,578,575,586,568,564,585,561,599,
558,555,568,557,564,564,562,581,596,582,571,599,588,565,588,561,
582,592,564,592,586,595,558,557,592,585,578,564,562,555,562,575,
585,561,595,575,564,588,588,557,586,595,596,568,582,572,571,574,
586,579,558,568,592,561,581,598,598,592,562,581,592,599,592,561,
599,586,588,557,585,596,586,561,571,588,596,579,588,598,562,598,
562,561,578,562,554,565,578,575,598,598,568,575,572,578,561,579,
595,557,578,589,555,598,592,571,588,585,581,572,574,571,557,565,
571,598,568,578,575,579,558,555,592,598,581,582,571,557,572,595,
564,561,598,582,588,578,561,574,595,579,555,586,562,571,598,582,
557,564,582,589,599,575,581,588,575,558,562,581,598,574,575,558,
595,554,554,571,585,578,585,588,581,564,568,595,558,555,564,572,
579,589,588,562,575,561,592,589,586,558,575,585,557,586,599,568,
575,572,562,596,578,592,557,565,564,578,596,599,571,596,568,558
</chunk>
   <chunk x="-992" y="352" width="16" height="16">
558,586,562,565,578,596,596,572,555,581,557,599,565,592,599,578,
572,598,575,564,589,568,585,557,592,592,571,586,588,574,579,575,
564,595,565,598,589,571,568,585,592,586,558,599,589,572,562,582,
598,575,578,568,578,561,599,581,562,585,579,599,555,555,561,581,
572,582,575,581,589,554,561,561,557,571,598,595,572,575,596,596,
598,585,582,579,562,564,562,596,572,575,582,575,555,596,581,557,
564,575,561,565,561,598,596,592,589,572,565,568,564,595,598,586,
572,565,572,579,568,599,595,557,568,557,571,562,561,574,586,588,
586,586,561,565,561,581,595,589,564,568,554,564,555,554,572,586,
586,574,588,575,572,596,568,561,554,598,574,568,574,554,565,585,
565,575,578,598,578,596,562,571,581,599,554,561,558,595,557,568,
564,578,578,595,578,557,596,562,555,575,578,554,582,562,575,565,
571,581,574,579,574,598,589,582,589,568,599,582,581,571,564,595,
596,578,579,562,581,581,578,578,565,572,598,585,589,595,571,578,
562,598,561,555,588,585,562,565,582,586,589,562,564,564,596,554,
575,582,581,592,596,588,592,585,555,565,588,582,564,588,558,582
</chunk>
   <chunk x="-976" y="352" width="16" height="16">
596,579,568,582,588,585,578,579,555,557,588,595,557,599,586,562,
568,572,572,579,595,565,561,564,558,585,557,572,565,586,565,572,
578,574,554,562,596,581,558,572,599,574,564,558,568,558,564,585,
574,589,557,598,598,557,578,599,555,592,588,599,582,581,561,561,
579,598,579,555,596,578,575,578,565,558,554,554,575,596,561,588,
582,596,592,568,575,595,592,558,568,595,562,562,579,574,568,554,
592,561,598,575,561,554,598,592,561,598,599,599,557,558,595,574,
589,581,571,561,565,565,562,579,557,554,592,592,599,586,557,562,
581,575,557,596,592,557,598,582,558,561,585,575,581,571,558,596,
554,596,579,574,599,582,571,595,557,558,574,562,578,572,575,586,
586,581,557,572,565,568,558,586,595,565,565,599,578,568,574,582,
565,568,598,595,562,575,555,557,598,571,558,562,598,595,586,574,
561,592,554,578,588,585,598,561,582,558,557,585,574,589,561,579,
575,579,578,586,599,568,565,571,586,588,561,585,595,557,568,572,
582,588,572,568,595,561,562,595,571,565,586,595,574,571,579,598,
582,558,568,562,574,585,599,588,572,575,574,578,554,589,596,564
</chunk>
   <chunk x="-960" y="352" width="16" height="16">
561,554,561,562,592,571,599,585,588,558,596,562,564,592,574,574,
588,571,554,586,578,589,588,582,558,574,598,568,555,561,575,589,
562,561,558,588,582,596,588,595,599,586,579,598,564,595,581,599,
589,575,595,582,564,592,575,562,562,554,557,564,558,582,574,565,
582,592,578,568,582,592,589,574,595,589,555,596,585,565,557,596,
585,562,565,555,568,599,582,572,554,557,595,585,589,568,558,596,
554,558,568,557,596,589,557,581,561,562,561,588,598,564,562,599,
581,574,564,599,585,579,599,588,595,575,554,554,561,558,592,579,
572,595,579,598,555,595,598,565,595,571,579,568,568,598,578,578,
554,589,585,588,568,565,571,592,558,581,599,562,564,565,571,592,
568,589,586,581,598,562,595,565,554,554,579,586,564,561,574,588,
557,595,564,588,589,589,589,592,562,565,585,592,554,592,562,574,
558,564,588,596,555,558,582,579,575,562,554,588,562,562,555,578,
581,572,575,586,561,598,571,588,557,572,588,589,554,558,598,599,
598,558,571,557,571,578,595,595,595,578,562,585,582,596,554,579,
579,586,582,574,574,571,592,568,554,554,595,557,585,598,589,568
</chunk>
   <chunk x="-944" y="352" width="16" height="16">
561,554,589,586,581,586,592,585,598,579,581,568,582,595,586,575,
564,599,564,571,561,561,561,568,599,582,595,571,598,596,572,575,
586,574,557,555,565,582,578,572,586,596,592,598,595,562,582,562,
568,579,565,596,561,564,572,565,561,574,585,589,598,589,595,565,
581,561,585,578,579,581,575,585,564,564,564,581,592,596,581,574,
562,582,571,579,578,555,598,589,595,578,598,581,592,599,581,554,
588,555,572,574,585,592,598,565,555,555,592,598,568,579,574,575,
578,572,574,589,561,564,581,586,575,564,592,568,599,554,574,554,
579,579,588,599,572,592,554,586,582,572,562,554,564,589,568,568,
598,588,592,581,589,561,557,571,598,579,561,586,557,555,555,568,
572,586,557,585,589,575,572,571,572,596,585,598,585,562,572,579,
572,572,586,592,562,568,596,578,562,582,565,561,568,586,562,571,
582,574,561,585,589,554,558,586,558,572,575,582,592,575,568,554,
568,596,575,578,579,568,568,588,572,578,582,571,578,599,557,564,
564,572,592,572,575,578,599,581,588,558,565,592,595,558,564,564,
588,565,574,585,582,568,579,586,579,555,588,581,588,572,578,582
</chunk>
   <chunk x="-928" y="352" width="16" height="16">
582,585,558,564,578,582,588,585,589,599,582,554,586,568,586,585,
572,574,558,578,572,575,595,561,562,589,588,575,588,564,554,579,
582,554,564,554,596,588,581,596,564,561,562,574,578,554,558,595,
575,595,557,596,575,562,579,588,571,578,598,571,595,585,555,554,
585,579,595,595,554,557,558,565,592,558,574,561,595,557,589,579,
572,588,571,589,558,578,562,562,598,572,595,585,561,557,595,599,
574,598,561,568,595,558,571,572,558,568,554,598,592,581,571,562,
574,568,565,581,588,595,572,554,581,598,581,599,571,586,582,568,
581,571,562,568,581,575,575,586,596,579,565,571,575,582,579,586,
555,575,554,582,557,589,557,595,557,586,565,561,572,562,565,596,
562,557,574,568,568,561,598,568,579,562,557,585,574,564,578,588,
578,555,595,555,586,572,568,575,572,555,592,572,589,588,582,578,
564,555,586,586,586,592,578,568,595,598,562,598,582,585,582,595,
571,558,562,557,574,589,585,578,571,579,557,595,558,589,575,596,
555,588,586,562,564,578,595,562,571,555,585,592,586,565,554,561,
571,564,596,568,579,562,574,555,554,572,589,588,572,571,585,585
</chunk>
   <chunk x="-912" y="352" width="16" height="16">
561,581,574,558,586,571,568,596,585,555,574,572,571,555,564,588,
588,581,585,586,561,598,557,564,557,581,565,582,585,575,562,578,
586,564,571,578,579,555,585,555,575,561,571,592,595,564,561,596,
564,565,561,588,586,578,557,596,588,568,575,554,581,598,579,554,
558,575,598,589,568,575,565,557,557,558,579,568,562,562,574,564,
582,575,565,565,595,571,582,571,554,555,588,562,595,554,588,582,
592,581,568,589,588,575,581,565,572,579,555,571,582,589,589,588,
557,558,575,568,555,572,562,564,557,575,596,595,565,555,598,599,
596,565,582,562,595,555,574,555,558,581,555,599,572,599,575,585,
558,586,585,555,555,571,568,575,582,589,592,579,574,557,599,592,
588,568,571,599,599,578,582,599,586,579,564,561,588,578,581,588,
557,582,589,595,565,599,562,578,582,571,596,562,581,578,585,598,
564,558,581,579,572,581,586,564,599,578,586,588,574,598,572,571,
554,554,582,564,585,599,565,592,598,557,561,599,586,579,588,555,
564,571,572,592,599,572,557,586,581,579,571,565,555,562,579,585,
572,555,555,579,578,554,599,592,595,572,586,599,562,564,565,575
</chunk>
   <chunk x="-896" y="352" width="16" height="16">
568,557,586,572,554,596,589,578,598,579,558,599,564,575,565,554,
565,568,589,564,592,596,598,572,557,557,592,564,589,554,579,581,
568,554,561,579,599,554,571,588,586,578,574,565,581,568,596,554,
599,554,581,575,554,574,595,592,574,595,579,592,578,586,558,562,
564,586,562,589,589,565,564,578,589,579,596,586,558,554,575,571,
588,581,558,599,595,574,561,572,568,554,581,581,582,564,557,588,
568,562,598,599,589,579,575,572,561,582,588,589,572,588,557,568,
598,572,562,572,592,565,595,555,561,564,586,557,582,554,575,575,
561,557,592,592,589,579,557,581,581,585,575,555,595,558,589,598,
574,568,598,555,555,558,565,564,557,555,588,562,561,572,555,568,
565,568,557,571,558,581,555,589,588,585,588,579,592,596,565,596,
568,599,561,585,586,589,596,555,578,595,585,561,555,581,579,554,
598,582,596,575,555,558,572,585,568,575,599,585,561,592,592,579,
558,558,565,579,554,578,578,588,579,595,582,571,557,596,565,578,
571,561,581,596,558,581,557,581,572,555,596,599,592,585,596,565,
582,572,579,568,555,588,579,581,555,572,557,586,574,581,579,588
</chunk>
   <chunk x="-880" y="352" width="16" height="16">
588,589,564,555,561,558,557,557,582,581,596,575,562,562,596,572,
565,578,557,581,568,562,554,582,585,586,557,598,586,595,571,581,
581,578,554,589,589,561,564,599,572,582,599,579,578,562,558,554,
598,564,575,581,554,575,578,571,564,565,595,572,575,582,581,588,
571,578,588,578,565,554,575,586,571,557,599,557,598,574,595,565,
555,555,585,561,571,579,579,565,592,592,568,589,598,565,586,572,
581,575,581,578,561,595,562,554,554,586,557,572,589,579,595,565,
572,586,562,558,581,578,579,562,561,585,579,595,599,596,554,558,
574,595,557,568,585,592,562,554,581,564,564,554,586,554,565,554,
595,555,571,581,586,579,578,598,589,571,572,581,586,588,557,579,
572,589,598,561,561,561,595,579,595,558,599,554,562,589,585,579,
582,554,554,598,596,582,589,572,557,585,572,585,581,554,564,568,
589,561,589,572,571,588,589,581,568,589,561,599,564,598,579,575,
596,598,561,562,574,555,585,595,554,592,596,562,574,585,578,588,
554,557,588,581,561,555,554,558,574,562,599,599,586,596,557,554,
571,586,574,588,555,592,562,588,595,579,554,571,582,555,578,596
</chunk>
   <chunk x="-864" y="352" width="16" height="16">
598,596,582,596,579,558,555,574,562,581,595,595,557,557,595,561,
596,554,564,568,562,595,586,575,574,598,571,586,571,568,565,589,
562,554,557,596,579,565,555,554,575,586,558,561,571,575,588,558,
554,599,588,571,557,565,586,568,562,599,558,564,558,574,592,599,
571,598,562,598,555,589,564,571,579,592,589,562,585,561,581,564,
595,586,579,555,586,578,592,582,595,586,555,579,557,554,592,574,
555,588,575,578,571,562,565,588,579,571,596,581,598,599,557,571,
582,554,595,586,592,557,598,585,592,596,599,579,572,557,592,564,
558,596,592,561,579,589,598,588,582,582,582,599,562,589,572,598,
558,564,568,599,586,561,564,586,585,561,565,562,595,592,561,588,
558,561,582,589,592,557,557,589,585,579,596,589,564,578,564,582,
558,561,555,554,589,578,571,572,562,588,572,586,588,561,571,592,
554,592,575,592,589,558,588,561,568,595,555,595,585,558,574,599,
598,598,557,555,589,586,558,585,558,574,581,572,592,564,588,571,
588,596,598,581,579,557,564,575,575,598,585,592,554,599,585,589,
562,554,572,572,561,575,589,599,555,555,554,562,565,574,561,562
</chunk>
   <chunk x="-848" y="352" width="16" height="16">
555,596,596,592,586,579,0,0,0,0,0,0,0,0,0,0,
558,575,557,582,579,586,0,0,0,0,0,0,0,0,0,0,
557,581,578,571,561,555,0,0,0,0,0,0,0,0,0,0,
575,555,592,582,564,571,0,0,0,0,0,0,0,0,0,0,
599,578,599,586,561,557,0,0,0,0,0,0,0,0,0,0,
568,565,599,574,562,564,0,0,0,0,0,0,0,0,0,0,
555,561,579,568,554,561,0,0,0,0,0,0,0,0,0,0,
598,568,578,565,575,554,0,0,0,0,0,0,0,0,0,0,
586,565,588,571,565,561,0,0,0,0,0,0,0,0,0,0,
572,595,582,571,586,564,0,0,0,0,0,0,0,0,0,0,
558,568,582,596,582,596,0,0,0,0,0,0,0,0,0,0,
575,564,564,578,557,555,0,0,0,0,0,0,0,0,0,0,
582,555,582,595,557,599,0,0,0,0,0,0,0,0,0,0,
574,571,578,592,561,595,0,0,0,0,0,0,0,0,0,0,
575,586,574,565,596,575,0,0,0,0,0,0,0,0,0,0,
599,589,557,582,568,585,0,0,0,0,0,0,0,0,0,0
</chunk>
   <chunk x="-1088" y="368" width="16" height="16">
0,0,0,0,0,0,0,0,0,0,0,0,0,595,564,578,
0,0,0,0,0,0,0,0,0,0,0,0,0,558,582,562,
0,0,0,0,0,0,0,0,0,0,0,0,0,589,561,555,
0,0,0,0,0,0,0,0,0,0,0,0,0,578,578,598,
0,0,0,0,0,0,0,0,0,0,0,0,0,564,582,554,
0,0,0,0,0,0,0,0,0,0,0,0,0,579,555,572,
0,0,0,0,0,0,0,0,0,0,0,0,0,582,586,565,
0,0,0,0,0,0,0,0,0,0,0,0,0,585,558,579,
0,0,0,0,0,0,0,0,0,0,0,0,0,564,568,596,
0,0,0,0,0,0,0,0,0,0,0,0,0,596,554,585,
0,0,0,0,0,0,0,0,0,0,0,0,0,599,561,586,
0,0,0,0,0,0,0,0,0,0,0,0,0,586,581,568,
0,0,0,0,0,0,0,0,0,0,0,0,0,562,585,572,
0,0,0,0,0,0,0,0,0,0,0,0,0,568,588,599,
0,0,0,0,0,0,0,0,0,0,0,0,0,554,554,589,
0,0,0,0,0,0,0,0,0,0,0,0,0,575,572,582
</chunk>
   <chunk x="-1072" y="368" width="16" height="16">
585,554,564,561,588,554,568,596,585,575,588,558,578,589,589,588,
579,571,588,589,581,582,558,565,572,586,595,579,599,574,599,596,
564,564,554,572,582,575,578,588,596,557,592,571,561,581,575,561,
579,582,596,554,572,571,595,572,558,578,589,585,568,585,554,571,
561,565,595,582,562,574,595,575,585,571,574,575,564,571,578,582,
589,578,572,568,582,582,554,596,554,582,561,579,575,568,558,579,
572,578,571,554,595,565,575,595,568,581,555,585,571,588,572,599,
568,555,595,565,572,557,557,574,586,568,579,555,596,596,561,565,
575,596,589,586,562,562,582,554,585,565,588,595,574,558,599,558,
571,561,557,557,568,565,555,574,578,589,596,564,561,557,596,558,
596,578,596,558,596,574,598,574,595,596,585,592,561,572,581,596,
565,558,596,564,564,585,575,599,554,582,581,558,562,579,599,598,
589,588,554,568,562,599,575,581,564,582,598,571,586,599,596,564,
589,586,554,582,579,557,599,554,585,589,572,558,555,574,579,575,
558,555,558,596,562,554,588,579,571,554,599,575,582,579,589,588,
598,568,581,565,585,568,586,578,598,589,579,571,589,574,562,592
</chunk>
   <chunk x="-1056" y="368" width="16" height="16">
564,585,554,586,558,578,558,598,582,562,582,564,578,572,572,575,
564,561,596,561,565,568,562,581,558,554,598,554,554,582,564,595,
589,585,588,589,575,557,575,578,564,581,582,588,562,568,554,565,
582,562,588,595,581,557,558,568,555,564,578,561,589,558,581,589,
581,558,572,598,586,565,565,562,595,561,572,579,571,561,592,586,
557,585,595,558,562,599,564,586,554,561,578,564,575,579,582,582,
586,588,574,586,589,568,578,562,558,561,595,572,565,571,588,574,
572,581,557,554,588,555,562,572,571,581,555,562,555,595,588,568,
585,575,558,588,579,582,564,562,557,592,561,589,557,598,572,586,
571,568,564,596,592,562,555,558,561,598,582,574,579,568,572,599,
595,555,564,598,574,581,588,581,575,596,596,574,574,578,599,564,
574,595,588,574,572,586,568,571,575,574,557,599,565,574,585,571,
575,574,581,592,571,599,586,589,571,564,581,575,554,596,588,575,
588,581,575,579,579,579,565,589,554,599,568,596,581,555,595,581,
596,554,582,555,558,575,585,595,598,555,585,585,579,574,574,561,
579,574,592,581,574,562,581,572,568,578,581,561,574,572,588,582
</chunk>
   <chunk x="-1040" y="368" width="16" height="16">
558,585,575,572,596,578,557,599,562,586,589,555,578,555,582,564,
578,589,574,595,564,572,595,595,564,598,565,585,581,589,557,595,
579,589,595,581,586,578,571,588,557,589,582,595,598,595,596,575,
589,589,586,565,561,555,585,595,582,579,562,592,581,582,589,572,
572,562,581,557,565,572,557,578,561,581,555,558,575,599,586,564,
592,564,572,572,565,555,565,557,562,561,588,586,568,571,586,596,
562,588,565,557,581,578,581,586,575,564,574,571,592,578,574,589,
561,558,554,582,598,555,599,565,582,585,561,571,574,561,574,598,
555,596,558,562,586,586,582,555,557,562,571,595,571,572,592,592,
585,572,599,586,564,574,579,586,588,592,592,572,564,598,599,582,
561,568,565,557,554,596,558,585,555,582,568,586,575,599,555,565,
561,598,581,595,572,555,596,588,588,565,586,578,561,588,579,562,
595,564,565,554,562,555,579,571,586,581,592,596,592,585,579,585,
554,585,596,578,574,561,555,595,592,561,598,555,585,557,554,582,
586,582,558,574,598,571,572,598,555,592,581,595,575,579,564,598,
588,571,568,586,581,564,598,568,571,557,561,581,581,586,579,572
</chunk>
   <chunk x="-1024" y="368" width="16" height="16">
555,558,578,595,565,557,596,585,581,596,596,568,557,588,592,568,
568,578,581,557,588,596,598,568,586,571,589,588,564,557,571,561,
599,589,588,558,558,574,557,554,562,575,565,592,579,598,558,572,
595,578,557,592,572,565,554,572,582,589,561,592,571,579,582,558,
585,579,568,599,558,586,588,578,557,554,579,558,555,598,595,595,
561,561,562,555,582,565,575,554,554,574,595,579,598,585,589,588,
568,557,574,585,589,562,572,574,568,565,589,558,565,562,586,558,
585,579,586,574,585,574,592,585,558,579,561,588,557,582,575,568,
572,564,596,554,564,592,554,568,581,555,562,555,557,574,568,562,
596,585,554,588,588,562,575,568,562,558,558,575,575,579,588,565,
565,581,589,575,598,575,599,554,589,589,589,574,555,598,578,589,
568,588,568,588,562,579,598,574,589,561,572,561,558,599,558,598,
572,596,564,557,598,554,579,575,586,568,557,557,574,565,572,595,
582,558,561,572,581,572,588,555,561,595,599,574,565,568,562,578,
592,572,561,592,572,574,571,568,572,578,565,598,589,557,565,554,
589,582,589,589,595,581,568,596,599,596,562,592,562,588,561,595
</chunk>
   <chunk x="-1008" y="368" width="16" height="16">
579,596,589,588,561,579,592,592,562,554,555,581,595,585,555,589,
578,579,581,562,599,582,568,596,575,589,581,596,574,558,599,589,
578,554,572,578,565,598,596,558,557,568,562,578,578,589,557,557,
565,589,562,557,578,588,579,568,564,578,575,574,572,568,575,574,
558,595,557,588,557,571,565,558,588,595,588,596,562,565,562,555,
575,595,592,575,585,571,589,582,578,561,588,554,571,564,575,595,
595,598,574,596,582,579,568,555,572,571,568,579,595,596,574,561,
579,571,554,554,578,586,561,579,585,564,586,565,581,568,555,561,
581,557,588,586,575,574,565,557,596,554,595,579,564,599,575,589,
554,571,557,568,568,595,585,596,579,596,582,599,574,582,565,564,
592,572,557,595,568,581,555,579,562,574,561,561,599,564,589,596,
557,588,582,599,554,592,564,555,562,599,558,592,582,558,568,585,
574,595,581,555,572,555,596,558,565,586,588,575,555,574,561,582,
599,574,557,598,585,562,596,582,574,555,596,578,554,558,582,568,
581,582,572,571,579,561,595,596,564,562,581,561,595,568,555,572,
572,554,599,565,589,574,558,598,596,595,555,562,585,578,555,585
</chunk>
   <chunk x="-992" y="368" width="16" height="16">
586,596,595,565,562,555,592,568,582,581,568,571,592,568,578,578,
575,596,592,581,579,572,555,592,564,555,554,555,589,568,598,586,
558,596,589,574,558,562,568,599,568,599,595,585,561,568,598,582,
598,579,571,575,586,557,558,588,575,586,572,562,561,599,598,585,
565,568,596,557,565,554,599,557,598,575,595,562,558,582,582,572,
561,578,582,598,558,555,595,571,585,585,588,598,571,599,598,579,
579,585,586,562,585,568,578,565,581,588,568,589,571,558,592,574,
592,557,575,592,586,574,589,596,598,575,592,564,571,578,575,592,
592,568,555,568,592,581,568,598,589,598,579,579,568,579,578,582,
554,572,586,598,561,568,599,578,589,578,596,588,595,582,561,555,
579,598,571,579,562,555,555,555,585,561,586,561,598,589,554,595,
575,557,562,582,565,572,586,586,574,585,581,596,588,575,579,564,
554,555,557,589,564,575,572,572,595,581,557,561,596,599,579,588,
585,561,586,595,564,562,562,564,554,599,554,585,598,571,595,555,
568,554,571,558,599,595,564,586,592,588,554,571,568,574,585,555,
574,596,562,572,554,558,578,557,592,592,558,579,575,585,589,599
</chunk>
   <chunk x="-976" y="368" width="16" height="16">
585,585,554,557,562,585,561,579,598,555,574,554,596,578,596,582,
562,558,581,557,595,596,585,581,575,599,599,564,599,581,574,599,
589,575,578,571,588,562,562,599,565,599,599,596,564,558,571,574,
582,568,565,582,558,564,598,571,579,598,565,554,572,558,595,578,
562,586,561,578,596,558,582,599,572,568,589,554,574,565,562,582,
562,575,561,572,568,599,557,561,595,554,578,571,579,592,595,581,
586,571,585,588,592,564,558,592,586,558,592,596,572,579,565,579,
586,568,558,586,557,588,554,557,581,586,558,568,578,581,555,578,
571,565,571,582,582,565,572,565,581,572,571,588,574,558,555,575,
571,568,561,596,588,558,562,578,564,571,598,561,599,595,582,571,
568,588,575,558,561,592,589,564,589,585,579,582,598,564,557,558,
588,581,557,568,588,575,555,595,561,554,571,581,585,592,555,572,
596,578,558,558,561,592,574,596,561,589,598,578,589,599,558,581,
572,572,562,581,585,589,561,581,555,582,582,581,565,558,575,571,
596,579,578,564,598,575,598,579,558,568,589,588,598,571,599,561,
588,599,555,555,571,572,564,555,581,595,557,578,579,585,568,571
</chunk>
   <chunk x="-960" y="368" width="16" height="16">
599,564,586,586,588,568,564,564,582,588,562,561,564,565,581,561,
571,564,595,596,578,558,554,592,568,565,568,596,568,585,596,557,
592,578,561,554,589,582,578,557,581,592,575,581,571,598,599,575,
595,581,574,586,557,585,562,586,586,581,598,589,589,561,596,596,
575,595,582,588,571,564,592,571,588,589,598,558,592,592,562,561,
561,585,585,582,586,586,579,561,598,571,578,554,585,598,588,561,
579,562,592,554,564,558,557,565,581,595,599,586,598,599,562,595,
586,565,592,595,558,555,592,554,574,585,557,586,588,586,574,562,
558,586,572,589,598,581,596,595,557,579,589,579,565,585,554,588,
571,557,588,574,585,588,557,568,582,581,574,564,588,564,582,568,
582,595,596,561,572,571,555,571,581,557,575,555,561,579,574,557,
581,585,558,599,562,581,585,579,571,575,564,596,562,581,595,572,
565,554,555,565,564,582,557,574,558,554,571,596,589,596,592,555,
555,586,589,554,589,574,554,585,555,589,572,596,589,596,599,578,
588,582,599,572,588,596,581,581,579,598,578,561,561,557,574,574,
582,565,572,571,598,568,575,575,578,574,574,574,578,565,596,598
</chunk>
   <chunk x="-944" y="368" width="16" height="16">
561,598,586,581,562,565,554,562,586,575,557,585,578,599,598,564,
561,557,555,582,586,589,589,582,571,561,582,596,557,581,557,572,
558,554,555,558,592,568,588,557,596,562,592,572,589,558,599,558,
585,574,582,595,565,575,588,586,575,589,596,554,585,579,564,575,
562,595,586,564,561,565,558,557,557,562,581,592,582,554,572,555,
571,585,589,575,598,599,595,598,565,582,579,599,554,562,579,592,
565,555,599,598,568,561,555,558,561,565,555,555,557,596,579,588,
589,555,582,554,588,555,555,575,564,589,599,589,571,571,557,558,
599,599,595,582,588,585,555,564,586,574,564,561,564,578,574,596,
564,592,564,554,581,575,561,586,586,575,595,598,575,578,575,571,
586,575,564,589,598,564,564,596,582,599,596,595,561,555,554,581,
595,575,582,579,596,598,554,589,572,596,589,558,596,565,568,554,
575,598,565,588,598,598,571,586,598,578,595,582,579,557,585,558,
555,575,586,581,579,571,589,574,564,574,581,585,599,564,561,564,
598,599,586,586,558,589,555,595,578,568,599,558,554,585,581,581,
579,578,554,582,588,598,554,588,598,554,575,589,571,554,585,598
</chunk>
   <chunk x="-928" y="368" width="16" height="16">
578,596,588,596,598,596,596,565,565,598,558,568,579,554,572,585,
578,582,571,592,555,574,558,561,562,571,581,596,561,558,578,574,
579,572,571,578,586,586,596,561,599,599,589,585,571,582,564,586,
588,565,586,588,568,595,554,575,589,588,554,554,585,596,592,574,
589,561,585,595,586,581,581,574,596,598,581,571,555,582,562,599,
588,565,571,585,562,596,561,555,561,571,557,582,558,596,555,574,
572,564,579,598,578,568,586,555,568,558,557,557,562,582,568,562,
585,568,555,564,592,596,595,565,581,571,578,598,574,565,554,558,
554,568,589,581,599,554,568,557,568,575,565,585,581,572,575,579,
555,588,554,586,562,574,578,595,558,599,557,599,586,596,574,555,
579,585,575,592,572,564,588,588,579,581,592,582,579,557,589,572,
565,599,571,579,586,564,599,572,588,572,581,595,557,586,598,581,
562,596,555,554,596,564,588,558,592,568,589,595,561,595,582,554,
586,588,574,598,589,565,555,564,581,579,572,586,564,561,595,595,
557,598,574,585,585,588,574,561,574,588,581,599,585,585,565,596,
554,568,585,579,582,562,561,561,565,595,555,562,582,588,581,574
</chunk>
   <chunk x="-912" y="368" width="16" height="16">
588,588,568,595,589,595,582,589,555,574,565,562,571,588,578,582,
592,596,565,581,596,554,596,575,575,564,557,579,575,554,558,561,
555,585,585,572,585,558,598,592,586,558,586,579,572,598,595,585,
562,599,572,572,558,599,598,588,578,568,557,561,579,557,588,572,
564,592,561,572,557,592,571,578,585,561,581,554,585,565,599,581,
592,592,582,579,555,572,585,574,579,585,574,568,598,554,582,581,
589,588,585,557,589,554,557,585,598,592,574,582,586,578,565,565,
558,581,582,581,599,558,598,568,581,598,568,554,592,586,589,558,
557,578,561,578,561,555,571,592,562,555,579,558,596,554,599,562,
564,592,575,568,582,568,596,572,564,599,574,581,598,581,585,586,
568,595,555,578,557,575,595,586,579,588,595,564,588,565,571,595,
588,575,572,558,555,579,582,565,582,588,595,581,582,558,554,562,
572,558,561,581,575,555,557,575,557,575,598,586,562,572,561,595,
565,581,565,578,557,571,589,579,598,554,574,596,575,574,598,561,
557,571,558,579,586,578,596,586,598,555,582,592,575,554,596,578,
555,588,574,557,571,555,599,558,585,585,589,575,568,572,599,561
</chunk>
   <chunk x="-896" y="368" width="16" height="16">
588,574,595,554,554,588,564,585,586,568,582,565,568,558,554,582,
586,595,575,585,564,561,595,598,586,592,596,561,558,585,578,596,
564,589,579,586,586,599,562,589,562,588,588,598,596,564,558,575,
565,598,599,599,575,558,598,596,557,579,564,598,572,578,599,581,
581,585,575,578,554,598,565,568,568,585,554,589,568,555,595,555,
574,571,589,558,555,595,555,592,575,579,596,599,589,595,595,561,
599,561,568,561,595,574,586,562,558,595,581,599,596,582,572,562,
571,572,565,588,596,574,575,574,578,574,571,589,592,582,572,585,
598,557,554,562,558,571,572,578,562,558,565,589,598,572,554,557,
574,561,588,585,598,571,598,574,574,564,574,562,588,588,571,565,
588,585,578,595,596,596,586,562,596,561,561,578,592,579,581,585,
561,565,586,595,595,586,599,596,564,588,572,578,592,598,561,568,
575,582,572,588,562,599,575,564,598,589,599,565,574,558,574,564,
572,561,575,555,555,588,554,565,588,561,595,592,575,555,599,586,
574,555,561,579,596,599,568,568,585,598,557,561,596,581,558,571,
565,592,554,599,598,598,582,586,565,561,595,582,599,579,558,586
</chunk>
   <chunk x="-880" y="368" width="16" height="16">
599,596,561,554,561,588,565,596,574,578,589,592,575,554,555,555,
575,599,586,586,571,572,578,568,585,565,568,568,599,595,578,554,
557,571,572,598,554,574,555,579,596,574,557,554,578,561,572,585,
554,595,555,598,592,571,589,557,575,598,562,581,568,568,599,568,
554,589,554,565,599,585,592,579,595,598,589,561,586,588,555,596,
565,557,588,578,592,572,571,582,565,578,598,599,564,598,596,575,
558,571,586,598,592,599,554,596,579,598,564,562,595,595,575,571,
586,581,598,568,558,582,574,562,571,588,571,578,582,557,555,557,
565,588,586,572,564,579,554,557,588,565,554,574,555,585,582,592,
588,557,555,582,592,557,557,585,598,579,558,575,585,598,568,568,
599,561,589,589,581,585,589,598,557,599,571,578,578,579,561,592,
565,557,582,574,579,589,588,561,598,572,598,582,599,586,592,599,
572,565,598,585,578,582,596,554,582,562,586,582,564,588,595,588,
574,596,565,555,585,564,562,588,558,572,595,561,582,564,565,555,
592,554,561,562,596,565,571,589,586,586,558,555,557,581,598,554,
562,561,571,568,565,564,582,582,565,554,592,558,592,571,598,575
</chunk>
   <chunk x="-864" y="368" width="16" height="16">
557,579,565,588,599,571,578,582,572,585,589,595,571,575,564,592,
565,592,588,589,555,568,596,592,574,568,598,557,568,568,555,564,
555,568,586,596,592,598,595,596,582,574,554,565,568,557,572,558,
586,596,599,579,585,562,582,555,572,589,581,557,599,589,575,582,
599,562,585,581,568,571,578,568,589,578,578,586,554,598,578,564,
588,579,599,575,554,586,595,588,592,572,596,564,595,557,561,572,
598,574,592,585,561,588,586,575,554,582,572,574,575,581,578,554,
578,561,579,571,586,574,592,557,555,562,562,589,588,579,599,578,
575,565,592,579,599,561,598,599,589,562,595,564,596,578,586,598,
582,572,555,568,581,561,562,558,582,561,588,578,588,568,561,599,
582,588,564,579,575,592,599,572,589,561,581,574,565,595,589,568,
571,579,595,589,596,562,578,555,599,554,599,568,555,595,557,595,
555,565,596,592,579,571,596,596,581,562,582,586,558,555,565,599,
562,579,554,561,599,595,581,598,596,586,574,575,586,562,565,571,
586,561,564,574,564,564,589,558,596,582,586,568,557,586,592,555,
557,572,599,585,592,568,592,596,592,578,562,558,565,572,565,575
</chunk>
   <chunk x="-848" y="368" width="16" height="16">
568,557,596,586,557,571,0,0,0,0,0,0,0,0,0,0,
555,588,574,589,599,558,0,0,0,0,0,0,0,0,0,0,
588,596,572,581,555,595,0,0,0,0,0,0,0,0,0,0,
574,561,598,572,557,561,0,0,0,0,0,0,0,0,0,0,
557,596,568,598,585,592,0,0,0,0,0,0,0,0,0,0,
575,572,558,562,588,582,0,0,0,0,0,0,0,0,0,0,
554,568,571,582,585,596,0,0,0,0,0,0,0,0,0,0,
579,588,595,574,578,555,0,0,0,0,0,0,0,0,0,0,
557,561,564,582,598,586,0,0,0,0,0,0,0,0,0,0,
595,581,565,557,571,589,0,0,0,0,0,0,0,0,0,0,
586,555,592,595,582,581,0,0,0,0,0,0,0,0,0,0,
586,555,588,561,564,588,0,0,0,0,0,0,0,0,0,0,
582,568,589,592,581,578,0,0,0,0,0,0,0,0,0,0,
565,555,555,568,557,575,0,0,0,0,0,0,0,0,0,0,
565,562,555,557,564,565,0,0,0,0,0,0,0,0,0,0,
564,582,565,571,582,571,0,0,0,0,0,0,0,0,0,0
</chunk>
   <chunk x="-1088" y="384" width="16" height="16">
0,0,0,0,0,0,0,0,0,0,0,0,0,585,572,571,
0,0,0,0,0,0,0,0,0,0,0,0,0,558,575,575,
0,0,0,0,0,0,0,0,0,0,0,0,0,581,568,585,
0,0,0,0,0,0,0,0,0,0,0,0,0,575,571,558,
0,0,0,0,0,0,0,0,0,0,0,0,0,571,581,574,
0,0,0,0,0,0,0,0,0,0,0,0,0,586,598,586,
0,0,0,0,0,0,0,0,0,0,0,0,0,555,564,558,
0,0,0,0,0,0,0,0,0,0,0,0,0,568,574,599,
0,0,0,0,0,0,0,0,0,0,0,0,0,555,568,558,
0,0,0,0,0,0,0,0,0,0,0,0,0,555,585,578,
0,0,0,0,0,0,0,0,0,0,0,0,0,565,572,592,
0,0,0,0,0,0,0,0,0,0,0,0,0,0,0,0,
0,0,0,0,0,0,0,0,0,0,0,0,0,0,0,0,
0,0,0,0,0,0,0,0,0,0,0,0,0,0,0,0,
0,0,0,0,0,0,0,0,0,0,0,0,0,0,0,0,
0,0,0,0,0,0,0,0,0,0,0,0,0,0,0,0
</chunk>
   <chunk x="-1072" y="384" width="16" height="16">
582,572,554,561,564,558,564,562,589,599,555,557,582,581,598,571,
588,589,572,554,578,568,568,586,562,581,564,598,578,562,586,554,
574,568,586,555,585,578,588,561,592,568,592,585,588,561,557,578,
568,557,575,571,585,554,589,589,585,581,581,565,582,588,561,599,
588,564,582,581,557,595,557,595,555,568,596,596,555,585,561,579,
555,596,571,571,572,565,578,588,595,571,596,578,572,561,588,555,
588,554,588,555,588,582,575,599,575,592,579,554,596,565,574,561,
581,578,598,558,568,579,561,568,581,571,558,592,592,596,581,571,
575,575,595,599,574,554,585,555,579,589,588,585,554,585,555,595,
554,598,592,558,598,592,589,598,574,592,598,564,578,588,581,561,
562,588,596,598,565,582,558,555,585,568,595,592,571,595,572,586,
0,0,0,0,0,0,0,0,0,0,0,0,0,0,0,0,
0,0,0,0,0,0,0,0,0,0,0,0,0,0,0,0,
0,0,0,0,0,0,0,0,0,0,0,0,0,0,0,0,
0,0,0,0,0,0,0,0,0,0,0,0,0,0,0,0,
0,0,0,0,0,0,0,0,0,0,0,0,0,0,0,0
</chunk>
   <chunk x="-1056" y="384" width="16" height="16">
555,599,575,599,571,586,599,555,564,578,588,578,589,578,558,558,
595,582,555,572,568,598,574,592,565,586,578,572,557,599,568,592,
565,555,592,565,588,555,578,558,561,598,588,557,557,575,586,568,
572,555,564,574,571,572,581,574,557,574,572,589,568,599,554,571,
558,561,586,554,561,598,558,558,572,572,561,558,565,574,588,595,
592,561,578,589,562,595,599,562,562,574,589,585,572,554,555,582,
588,555,555,558,564,588,558,575,575,571,579,589,582,568,555,599,
562,588,558,557,579,557,571,581,554,596,555,574,564,564,588,578,
565,564,564,562,568,588,561,557,585,557,571,588,579,595,579,555,
558,586,561,562,555,568,586,557,568,585,572,581,554,554,579,575,
561,595,561,572,582,588,598,558,595,554,578,578,572,575,581,595,
0,0,0,0,0,0,0,0,0,0,0,0,0,0,0,0,
0,0,0,0,0,0,0,0,0,0,0,0,0,0,0,0,
0,0,0,0,0,0,0,0,0,0,0,0,0,0,0,0,
0,0,0,0,0,0,0,0,0,0,0,0,0,0,0,0,
0,0,0,0,0,0,0,0,0,0,0,0,0,0,0,0
</chunk>
   <chunk x="-1040" y="384" width="16" height="16">
595,595,595,586,562,572,574,598,599,561,581,585,581,572,592,558,
582,578,582,571,562,562,578,588,555,574,585,565,574,562,574,578,
585,585,575,592,595,571,581,581,572,578,562,599,571,572,586,565,
598,558,554,592,562,599,581,599,575,598,564,589,555,589,578,585,
554,564,557,564,562,578,598,557,564,595,586,579,557,555,578,572,
555,557,581,599,561,581,554,579,589,565,599,562,572,582,588,596,
561,582,598,562,557,568,579,554,561,588,571,595,585,561,562,562,
574,588,557,554,578,592,589,598,572,592,588,561,554,592,581,557,
596,598,579,555,554,564,582,555,572,592,596,555,596,562,557,588,
565,558,562,592,562,572,565,554,579,575,586,578,588,588,579,598,
561,565,581,564,554,571,565,592,599,581,574,557,581,554,558,561,
0,0,0,0,0,0,0,0,0,0,0,0,0,0,0,0,
0,0,0,0,0,0,0,0,0,0,0,0,0,0,0,0,
0,0,0,0,0,0,0,0,0,0,0,0,0,0,0,0,
0,0,0,0,0,0,0,0,0,0,0,0,0,0,0,0,
0,0,0,0,0,0,0,0,0,0,0,0,0,0,0,0
</chunk>
   <chunk x="-1024" y="384" width="16" height="16">
565,575,564,586,571,588,574,574,572,586,586,582,564,561,599,571,
565,555,581,578,561,595,555,564,579,581,575,554,589,599,578,582,
586,596,581,599,564,582,571,598,562,562,562,557,558,588,574,568,
585,568,558,599,586,555,572,572,582,557,585,586,571,589,574,557,
595,575,554,581,592,592,581,564,578,572,589,554,578,575,554,595,
596,585,558,575,579,572,568,586,564,579,582,582,595,558,586,586,
568,557,595,572,561,555,592,579,595,572,565,588,592,586,595,554,
598,581,555,586,575,565,557,574,572,599,581,557,588,598,581,579,
557,555,571,574,599,599,555,581,599,589,578,564,581,589,575,599,
564,565,561,588,582,592,579,586,568,568,561,565,565,599,572,579,
564,572,595,557,574,585,564,557,571,562,568,588,595,557,599,574,
0,0,0,0,0,0,0,0,0,0,0,0,0,0,0,0,
0,0,0,0,0,0,0,0,0,0,0,0,0,0,0,0,
0,0,0,0,0,0,0,0,0,0,0,0,0,0,0,0,
0,0,0,0,0,0,0,0,0,0,0,0,0,0,0,0,
0,0,0,0,0,0,0,0,0,0,0,0,0,0,0,0
</chunk>
   <chunk x="-1008" y="384" width="16" height="16">
558,562,596,582,595,578,598,588,585,599,565,581,575,588,574,565,
574,554,586,592,562,571,579,565,572,588,575,575,564,579,568,596,
557,592,596,572,578,572,568,582,599,571,568,588,561,568,598,581,
574,589,588,599,561,554,558,589,568,557,581,561,585,582,581,589,
558,582,592,575,595,557,558,592,562,579,555,596,572,592,592,572,
582,568,599,565,585,599,572,592,578,561,592,586,586,596,572,565,
565,598,588,572,575,581,561,599,579,572,589,561,572,571,575,564,
554,568,568,574,581,558,588,571,561,562,579,562,558,575,555,554,
578,571,574,574,578,586,572,589,572,555,561,592,571,572,575,575,
598,589,571,571,557,565,599,575,571,562,574,598,557,595,575,588,
586,586,578,579,579,589,557,562,554,558,596,568,565,572,555,558,
0,0,0,0,0,0,0,0,0,0,0,0,0,0,0,0,
0,0,0,0,0,0,0,0,0,0,0,0,0,0,0,0,
0,0,0,0,0,0,0,0,0,0,0,0,0,0,0,0,
0,0,0,0,0,0,0,0,0,0,0,0,0,0,0,0,
0,0,0,0,0,0,0,0,0,0,0,0,0,0,0,0
</chunk>
   <chunk x="-992" y="384" width="16" height="16">
596,586,579,579,589,562,571,555,562,557,581,581,562,564,581,578,
589,588,568,586,557,586,565,589,586,578,555,568,599,572,586,554,
575,562,562,589,598,581,574,571,581,575,592,589,554,578,558,561,
575,589,588,595,554,554,568,565,599,599,592,595,588,595,582,574,
557,561,561,579,579,596,588,562,555,571,586,554,571,579,596,586,
558,595,581,554,572,596,592,592,562,574,565,557,564,592,558,579,
582,582,582,555,578,575,555,585,568,589,555,578,572,586,562,568,
582,592,585,579,574,562,599,554,555,561,579,581,572,574,568,581,
596,586,595,571,596,579,586,582,578,568,561,585,561,557,561,588,
554,585,585,571,581,554,586,562,565,557,592,581,596,599,596,582,
572,579,585,564,585,579,595,589,554,585,586,554,572,581,592,581,
0,0,0,0,0,0,0,0,0,0,0,0,0,0,0,0,
0,0,0,0,0,0,0,0,0,0,0,0,0,0,0,0,
0,0,0,0,0,0,0,0,0,0,0,0,0,0,0,0,
0,0,0,0,0,0,0,0,0,0,0,0,0,0,0,0,
0,0,0,0,0,0,0,0,0,0,0,0,0,0,0,0
</chunk>
   <chunk x="-976" y="384" width="16" height="16">
561,571,575,585,557,558,557,572,572,571,568,582,571,581,599,586,
562,565,579,572,596,575,562,596,555,582,596,575,578,589,592,557,
596,586,561,592,571,585,558,574,561,589,589,595,596,562,586,599,
589,592,595,586,571,568,596,572,565,599,565,596,557,599,572,568,
561,596,572,595,554,592,572,572,578,574,589,598,586,596,578,579,
575,564,565,572,579,557,586,595,574,571,598,596,596,585,582,558,
571,579,564,595,557,558,557,557,598,588,558,575,554,588,571,589,
558,595,564,561,561,579,595,578,581,595,574,579,575,595,558,562,
555,574,571,572,588,579,578,558,586,598,557,562,581,558,599,565,
557,558,575,564,582,574,585,571,562,557,574,571,571,558,588,581,
564,554,596,562,592,598,578,596,598,586,599,558,581,586,582,572,
0,0,0,0,0,0,0,0,0,0,0,0,575,564,589,578,
0,0,0,0,0,0,0,0,0,0,0,0,558,574,589,572,
0,0,0,0,0,0,0,0,0,0,0,0,588,582,571,555,
0,0,0,0,0,0,0,0,0,0,0,0,585,574,572,592,
0,0,0,0,0,0,0,0,0,0,0,0,571,564,581,557
</chunk>
   <chunk x="-960" y="384" width="16" height="16">
557,589,599,592,561,562,575,581,568,581,592,561,571,585,588,561,
598,574,575,554,555,564,565,589,574,562,555,579,574,596,564,598,
555,596,599,575,592,581,575,582,595,595,555,592,562,555,575,598,
595,574,575,595,575,565,572,595,565,598,555,554,598,555,582,561,
582,571,599,589,586,595,557,589,579,562,581,595,562,588,572,562,
557,592,572,557,578,588,561,568,599,585,592,586,581,599,598,575,
585,565,598,554,572,595,595,565,595,582,555,575,561,595,562,557,
565,564,595,571,578,592,571,579,589,599,596,565,565,581,582,582,
568,595,555,586,589,565,581,595,592,557,557,582,578,596,571,589,
572,564,579,592,579,555,562,589,572,561,586,561,581,572,565,565,
554,588,571,565,555,598,592,585,592,565,564,555,557,568,568,571,
579,598,598,574,565,561,565,557,585,555,562,595,557,575,599,554,
599,589,578,554,568,561,586,589,562,598,596,588,561,581,592,565,
588,562,564,572,561,558,572,578,578,564,578,596,596,575,561,555,
574,592,588,561,572,598,578,558,581,586,572,592,595,561,585,581,
562,554,582,579,579,554,571,564,589,572,564,574,554,589,588,592
</chunk>
   <chunk x="-944" y="384" width="16" height="16">
588,571,571,599,557,554,589,568,582,554,561,574,589,561,578,586,
592,574,557,589,565,568,572,589,568,579,585,585,581,578,562,598,
555,585,578,598,562,575,557,562,572,565,568,558,561,596,599,574,
572,558,568,599,568,579,555,581,557,598,581,595,586,599,588,575,
579,572,592,598,557,598,589,599,595,575,595,596,568,579,582,582,
562,571,555,588,598,595,596,555,554,586,579,586,564,571,598,579,
599,572,578,554,572,595,596,596,582,571,586,599,557,582,572,596,
555,575,582,581,588,589,581,558,562,555,581,564,575,574,596,595,
575,574,585,595,561,561,579,581,565,585,558,592,586,571,581,595,
575,572,568,575,554,588,568,557,562,564,579,596,561,589,568,555,
564,565,574,595,561,565,585,574,589,562,588,588,599,581,588,564,
598,572,579,598,557,592,555,571,578,596,571,579,589,564,575,561,
589,596,562,574,572,554,592,558,595,588,582,571,592,555,578,592,
571,555,558,565,595,578,562,568,568,588,588,581,588,572,575,581,
578,568,561,574,581,558,578,554,554,582,595,555,554,558,565,562,
595,571,561,561,581,572,589,599,599,599,558,595,582,579,598,574
</chunk>
   <chunk x="-928" y="384" width="16" height="16">
562,596,557,578,596,579,598,571,595,557,599,596,574,564,578,562,
571,565,568,572,557,578,581,586,579,574,582,568,575,595,579,582,
585,568,575,557,588,579,589,595,564,568,589,582,565,571,581,592,
582,579,557,586,592,564,581,564,588,582,589,555,574,571,564,589,
599,595,586,571,562,586,554,595,557,592,589,572,586,562,568,589,
571,574,582,555,561,582,586,557,588,589,564,555,572,595,581,589,
585,554,586,564,562,596,578,586,596,572,575,555,562,572,588,574,
555,598,575,558,579,599,561,564,565,564,575,574,585,598,574,562,
579,571,578,589,575,592,555,571,565,586,555,568,554,578,586,575,
565,558,561,554,586,565,564,574,565,554,599,572,554,571,586,574,
558,555,588,574,558,595,557,557,572,575,555,592,565,564,582,574,
589,595,575,575,586,574,555,586,568,557,564,589,592,554,555,564,
555,572,557,589,557,582,585,599,558,571,599,599,582,578,568,574,
595,562,572,572,589,572,554,578,585,578,598,595,571,595,561,595,
596,557,595,568,557,589,578,596,574,579,561,595,589,572,568,565,
599,571,585,582,582,579,554,562,574,574,588,586,586,565,571,571
</chunk>
   <chunk x="-912" y="384" width="16" height="16">
582,592,589,575,562,595,568,572,589,582,572,574,571,557,565,555,
589,568,574,586,596,586,565,595,585,558,562,595,558,571,562,561,
598,592,575,581,555,561,568,558,588,565,586,565,574,588,571,589,
586,585,592,589,558,574,578,572,581,599,564,572,596,579,595,574,
582,578,565,574,592,582,598,565,571,592,571,554,574,562,557,582,
595,598,571,598,554,588,579,572,555,565,564,557,571,574,562,588,
598,568,565,588,572,554,589,575,554,565,588,599,585,585,595,575,
595,565,579,558,581,561,598,596,589,598,561,561,575,595,581,572,
588,595,575,586,596,595,596,581,554,598,555,578,588,578,592,596,
571,574,568,561,562,581,554,572,586,572,561,579,561,557,596,596,
554,572,564,588,557,564,588,599,572,599,568,555,598,598,555,575,
588,598,582,592,578,598,599,572,579,586,592,578,555,561,578,579,
582,585,557,589,588,561,554,592,557,564,571,571,579,578,586,564,
595,586,571,575,586,561,579,574,555,581,561,574,571,574,558,589,
571,574,575,596,588,555,578,588,562,557,575,588,565,565,575,596,
585,562,581,585,586,558,599,571,595,575,592,595,558,581,589,564
</chunk>
   <chunk x="-896" y="384" width="16" height="16">
578,595,589,586,579,571,599,595,574,558,599,595,564,557,572,585,
581,555,578,582,575,568,574,562,586,581,581,574,554,562,599,589,
581,557,572,557,555,599,588,582,554,579,555,571,575,579,571,565,
595,579,588,581,589,571,565,598,579,555,574,571,578,558,554,564,
565,564,578,558,582,554,586,585,554,599,572,596,596,562,579,581,
592,557,582,581,578,571,561,598,599,595,568,586,568,574,564,596,
575,558,596,568,585,571,598,574,572,572,581,578,572,572,578,592,
557,562,586,598,579,554,572,598,596,599,572,592,558,571,565,568,
575,588,592,598,554,575,557,588,595,598,586,586,558,571,592,571,
568,599,562,589,558,579,578,574,588,582,588,598,578,568,588,589,
595,561,561,564,589,575,596,589,582,599,562,572,555,571,574,579,
562,581,595,578,598,564,555,588,557,586,592,562,574,589,558,592,
586,554,581,582,586,554,582,574,564,592,585,596,598,574,575,598,
564,588,581,574,581,599,592,595,562,592,554,579,589,598,598,595,
561,579,565,586,562,582,557,582,581,564,599,589,574,579,589,555,
561,557,555,599,564,592,586,565,592,579,557,558,564,557,592,575
</chunk>
   <chunk x="-880" y="384" width="16" height="16">
555,596,579,579,554,578,599,575,578,582,581,581,555,561,558,578,
588,574,565,588,596,574,599,588,599,589,586,585,586,582,589,585,
588,565,574,557,564,555,557,571,558,571,575,562,598,578,589,595,
558,588,557,586,578,599,561,579,585,568,565,599,574,578,562,585,
565,585,589,581,561,585,595,588,592,588,578,574,575,574,589,592,
555,581,575,588,595,568,564,575,589,588,568,586,578,596,572,596,
598,558,574,575,599,565,564,585,592,555,579,575,579,564,579,596,
561,561,561,574,571,571,565,596,581,574,592,579,586,571,561,588,
575,578,568,599,554,598,582,578,562,564,558,562,561,557,589,565,
578,595,578,578,572,575,598,596,564,578,571,572,555,555,564,568,
561,589,562,588,574,596,579,561,592,592,581,565,596,592,574,561,
582,575,572,588,574,581,596,564,561,571,599,585,589,578,568,558,
578,589,581,596,572,564,599,554,578,589,554,599,581,557,582,581,
581,571,572,581,585,585,579,596,565,557,585,558,564,571,562,568,
579,558,561,581,596,586,565,558,585,564,561,582,586,582,582,585,
565,592,582,596,565,575,574,589,579,589,557,568,574,582,557,554
</chunk>
   <chunk x="-864" y="384" width="16" height="16">
557,568,586,582,599,572,578,599,585,565,575,558,585,565,557,571,
596,586,598,565,562,579,555,564,565,568,585,598,568,585,554,574,
565,564,581,561,562,595,571,586,579,578,565,572,599,561,598,582,
562,578,572,586,561,557,557,568,599,596,558,555,555,554,578,579,
596,578,586,575,555,598,555,555,588,592,572,571,557,592,574,575,
562,592,562,586,575,582,595,558,561,562,586,574,579,575,579,572,
558,596,572,581,575,564,562,554,561,598,554,561,555,599,554,571,
598,596,564,555,561,589,557,562,554,582,585,582,592,574,557,579,
592,592,565,598,598,572,578,589,555,596,575,572,571,595,561,571,
599,561,555,554,564,588,586,589,585,588,558,579,592,592,599,598,
578,579,581,571,578,555,588,554,581,562,568,596,562,562,598,599,
554,599,555,558,565,575,568,562,568,568,574,562,558,595,586,565,
557,579,562,598,598,575,558,595,572,574,585,588,598,581,598,585,
589,561,598,588,571,581,592,579,592,595,588,557,578,588,565,575,
572,578,598,579,558,554,588,579,588,555,588,586,572,572,574,571,
561,575,592,578,595,565,575,586,586,595,557,564,575,585,564,595
</chunk>
   <chunk x="-848" y="384" width="16" height="16">
599,574,561,579,558,561,0,0,0,0,0,0,0,0,0,0,
589,572,598,578,581,582,0,0,0,0,0,0,0,0,0,0,
588,558,599,598,574,588,0,0,0,0,0,0,0,0,0,0,
554,589,578,564,565,599,0,0,0,0,0,0,0,0,0,0,
561,575,589,574,586,571,0,0,0,0,0,0,0,0,0,0,
571,592,599,582,585,561,0,0,0,0,0,0,0,0,0,0,
592,554,571,582,575,565,0,0,0,0,0,0,0,0,0,0,
558,598,565,565,585,581,0,0,0,0,0,0,0,0,0,0,
565,557,582,572,585,595,0,0,0,0,0,0,0,0,0,0,
554,554,582,572,564,572,0,0,0,0,0,0,0,0,0,0,
565,571,571,588,596,581,0,0,0,0,0,0,0,0,0,0,
574,578,558,592,561,585,0,0,0,0,0,0,0,0,0,0,
586,588,561,582,599,582,0,0,0,0,0,0,0,0,0,0,
595,562,574,585,564,574,0,0,0,0,0,0,0,0,0,0,
568,564,575,558,579,579,0,0,0,0,0,0,0,0,0,0,
582,579,579,564,578,598,0,0,0,0,0,0,0,0,0,0
</chunk>
   <chunk x="-976" y="400" width="16" height="16">
0,0,0,0,0,0,0,0,0,0,0,0,596,596,558,585,
0,0,0,0,0,0,0,0,0,0,0,0,558,561,557,598,
0,0,0,0,0,0,0,0,0,0,0,0,592,571,592,572,
0,0,0,0,0,0,0,0,0,0,0,0,588,561,585,571,
0,0,0,0,0,0,0,0,0,0,0,0,586,592,598,598,
0,0,0,0,0,0,0,0,0,0,0,0,585,561,568,599,
0,0,0,0,0,0,0,0,0,0,0,0,589,589,568,555,
0,0,0,0,0,0,0,0,0,0,0,0,582,561,596,582,
0,0,0,0,0,0,0,0,0,0,0,0,598,578,599,562,
0,0,0,0,0,0,0,0,0,0,0,0,561,592,574,565,
0,0,0,0,0,0,0,0,0,0,0,0,562,588,599,555,
0,0,0,0,0,0,0,0,0,0,0,0,586,557,599,578,
0,0,0,0,0,0,0,0,0,0,0,0,588,596,555,558,
0,0,0,0,0,0,0,0,0,0,0,0,578,554,585,562,
0,0,0,0,0,0,0,0,0,0,0,0,599,599,554,564,
0,0,0,0,0,0,0,0,0,0,0,0,558,572,578,596
</chunk>
   <chunk x="-960" y="400" width="16" height="16">
568,574,564,561,562,572,574,592,595,586,565,596,574,568,598,585,
579,595,586,595,585,555,596,574,561,586,564,572,561,561,592,558,
557,564,555,598,578,562,565,581,562,555,575,571,579,596,562,554,
562,565,555,555,564,574,572,582,592,575,568,599,561,592,561,572,
574,574,589,578,572,574,575,596,574,599,565,582,561,555,579,582,
565,574,572,561,554,571,581,586,579,582,585,561,561,565,572,596,
571,585,589,555,568,554,571,582,588,581,598,579,592,585,599,564,
598,574,558,571,564,585,599,582,596,589,582,575,598,574,568,578,
592,592,571,598,572,555,568,592,558,592,579,558,564,585,582,595,
575,592,592,565,565,592,561,595,565,585,557,554,588,578,561,557,
568,586,586,572,589,575,562,581,564,575,595,586,579,592,555,572,
561,595,557,555,574,568,555,574,579,595,565,596,586,565,557,571,
586,596,596,586,595,555,561,574,588,581,564,574,599,562,581,592,
568,575,568,596,554,574,595,578,579,596,557,574,555,558,592,581,
572,557,568,579,599,565,599,585,565,586,574,554,586,575,579,575,
558,558,557,565,581,574,595,579,598,562,598,598,598,557,575,578
</chunk>
   <chunk x="-944" y="400" width="16" height="16">
582,555,599,585,554,568,582,562,572,586,574,579,565,589,554,571,
554,596,572,592,575,599,561,572,588,565,596,585,586,561,598,582,
561,557,585,579,565,598,578,579,568,589,574,581,579,555,598,558,
574,571,565,579,588,557,581,578,562,595,564,557,589,565,558,598,
582,578,585,592,589,586,585,571,562,599,596,554,565,575,596,561,
574,571,574,582,557,568,592,592,574,588,589,585,558,582,592,589,
582,557,585,568,564,565,571,564,598,592,582,564,574,554,578,575,
572,564,596,574,568,592,579,554,586,589,564,578,561,578,596,592,
564,599,579,595,565,582,585,564,596,581,598,582,561,574,565,585,
575,595,572,568,572,565,565,589,557,575,568,575,598,595,585,561,
598,595,572,572,554,579,574,565,596,564,574,564,589,572,592,586,
565,561,586,585,585,574,558,572,557,558,579,599,575,585,564,582,
582,598,562,588,586,588,586,596,571,558,571,581,572,564,596,596,
565,579,557,598,588,589,582,598,582,555,562,558,579,574,564,575,
555,564,572,596,574,574,578,581,599,589,554,589,589,555,599,571,
557,582,557,572,592,582,561,592,595,564,564,561,558,586,592,588
</chunk>
   <chunk x="-928" y="400" width="16" height="16">
589,592,574,596,581,586,568,595,595,598,596,561,582,592,588,565,
558,561,579,558,564,562,595,565,568,579,579,555,592,585,581,557,
568,562,575,592,581,561,598,575,588,575,557,575,562,555,586,557,
578,568,561,579,598,581,588,579,579,598,574,568,595,579,574,557,
555,579,562,557,561,562,564,592,589,595,585,574,595,586,588,557,
568,562,568,568,568,572,588,592,555,599,568,568,565,582,568,596,
598,596,562,572,598,585,592,595,586,574,588,557,575,595,557,579,
599,557,571,598,598,578,589,558,561,572,596,572,555,554,581,586,
571,562,579,561,588,574,558,554,585,572,578,555,562,557,554,598,
568,596,554,558,599,555,574,574,579,598,572,592,554,578,586,581,
562,585,554,554,599,571,579,598,585,596,557,586,558,596,581,557,
592,582,568,558,574,599,578,558,575,574,554,558,555,579,562,589,
592,561,595,581,568,592,588,581,557,561,575,575,572,558,598,579,
592,598,578,574,568,571,554,578,592,575,562,561,599,598,586,595,
582,581,578,582,586,575,575,574,557,581,592,568,596,599,571,585,
564,558,582,581,564,588,582,581,588,589,555,579,571,581,581,558
</chunk>
   <chunk x="-912" y="400" width="16" height="16">
595,561,582,574,582,581,574,599,571,555,589,572,565,598,554,578,
586,572,588,596,558,598,589,555,589,586,589,588,598,571,562,568,
596,558,598,565,554,571,557,582,565,596,586,599,581,554,585,558,
578,581,585,555,561,598,571,571,564,564,572,588,579,585,595,598,
578,574,575,586,571,579,598,561,599,589,561,574,581,581,562,579,
574,589,561,586,561,588,581,578,599,555,596,561,595,554,599,571,
572,582,561,568,589,595,596,554,581,555,596,568,575,561,578,571,
565,588,557,599,592,582,575,589,575,575,561,574,557,599,592,586,
555,572,557,561,586,572,574,595,579,598,595,575,579,565,568,592,
561,575,579,565,562,562,561,579,574,561,562,572,568,574,558,592,
557,599,558,561,589,561,582,562,598,595,588,592,574,564,578,572,
555,554,588,581,572,585,588,596,557,582,572,564,592,572,564,595,
592,561,575,588,572,557,562,578,585,588,582,599,579,579,564,554,
589,564,595,595,581,579,575,585,557,599,574,599,589,575,571,585,
561,579,564,572,581,598,564,554,599,599,589,582,589,557,565,575,
574,592,579,555,592,579,555,558,581,582,571,595,574,558,558,595
</chunk>
   <chunk x="-896" y="400" width="16" height="16">
592,581,581,581,581,596,581,572,589,599,585,582,596,595,554,582,
561,568,595,588,586,554,565,574,554,592,558,568,592,562,554,588,
572,581,555,581,561,568,564,589,598,596,572,571,589,575,595,558,
574,595,579,595,595,581,561,555,598,557,557,557,579,579,561,575,
562,557,581,562,558,558,589,595,596,599,595,599,592,565,582,595,
558,582,599,564,571,599,585,599,599,581,598,581,596,595,592,592,
598,599,574,595,571,562,557,572,565,582,554,571,571,578,555,588,
562,598,598,557,561,589,575,586,585,558,557,562,554,585,575,555,
555,585,572,564,596,571,592,579,572,558,582,579,582,557,598,586,
555,561,561,598,588,578,588,589,574,598,585,572,599,589,562,574,
562,586,561,585,599,571,565,568,579,554,585,581,561,599,571,595,
581,558,581,599,574,582,599,579,589,579,588,588,568,581,595,572,
598,572,588,581,571,592,572,574,598,568,562,575,571,571,578,575,
596,588,599,571,571,564,565,558,568,585,579,564,558,589,581,579,
585,581,599,565,579,585,589,578,598,588,579,582,598,578,582,561,
598,557,595,565,568,578,574,596,589,574,596,596,558,592,595,588
</chunk>
   <chunk x="-880" y="400" width="16" height="16">
586,579,557,582,581,589,578,557,588,574,554,595,588,572,568,585,
572,571,575,572,595,581,554,578,581,582,596,571,578,561,557,562,
554,562,581,578,571,564,599,557,599,581,568,596,572,572,554,592,
557,554,575,562,558,574,588,554,599,595,592,595,581,562,579,581,
596,562,565,574,598,589,574,558,564,575,586,558,568,564,558,554,
589,554,579,585,582,578,555,596,568,555,598,564,598,586,581,554,
598,557,574,562,596,554,595,578,578,599,589,579,579,571,598,581,
595,562,592,575,578,557,595,555,588,558,554,558,582,572,572,574,
555,568,598,572,565,561,571,568,578,592,586,558,564,554,598,557,
574,568,595,586,592,575,554,589,588,568,568,575,555,575,562,565,
554,585,588,596,565,579,586,564,595,599,554,575,571,572,595,575,
581,571,575,588,598,595,586,582,554,578,582,568,575,599,596,557,
589,557,561,578,585,586,586,574,557,596,564,555,557,579,578,565,
565,568,585,579,579,554,572,596,586,581,585,568,599,582,578,575,
571,596,558,574,581,581,578,554,557,592,562,581,561,568,565,561,
585,572,572,574,589,554,565,554,572,574,592,558,588,588,554,598
</chunk>
   <chunk x="-864" y="400" width="16" height="16">
555,572,562,555,557,554,555,578,562,589,565,581,579,582,588,595,
578,599,565,595,586,582,575,579,595,581,571,562,565,561,579,578,
557,554,585,575,555,568,554,585,561,557,595,589,596,582,588,582,
561,599,557,595,599,568,574,575,595,595,589,598,568,595,555,589,
555,585,554,562,599,585,572,586,585,582,578,558,558,571,586,585,
599,589,571,554,558,579,598,599,586,599,574,554,585,561,557,598,
568,585,554,586,599,586,575,592,585,596,579,598,595,564,595,578,
565,555,595,565,592,555,595,568,578,598,565,578,599,564,574,557,
589,596,557,568,575,565,572,572,585,557,592,572,575,599,588,565,
592,586,588,592,598,574,565,592,555,574,564,598,592,575,555,592,
592,595,554,581,558,555,574,598,585,585,555,558,574,558,581,557,
568,574,557,579,596,571,585,581,585,578,588,596,572,562,555,572,
592,592,572,595,562,554,561,558,585,581,598,565,579,555,579,599,
599,554,596,557,588,585,562,578,554,586,557,585,588,565,595,592,
598,579,562,582,562,595,575,555,561,565,579,589,585,557,554,589,
598,558,578,592,558,568,599,579,561,588,557,592,579,592,568,596
</chunk>
   <chunk x="-848" y="400" width="16" height="16">
595,598,557,598,572,575,0,0,0,0,0,0,0,0,0,0,
574,579,582,585,588,568,0,0,0,0,0,0,0,0,0,0,
571,581,589,564,578,574,0,0,0,0,0,0,0,0,0,0,
585,564,571,596,578,562,0,0,0,0,0,0,0,0,0,0,
598,586,578,581,564,599,0,0,0,0,0,0,0,0,0,0,
565,572,581,585,568,578,0,0,0,0,0,0,0,0,0,0,
574,585,565,598,588,554,0,0,0,0,0,0,0,0,0,0,
585,575,579,595,596,579,0,0,0,0,0,0,0,0,0,0,
575,595,562,575,579,588,0,0,0,0,0,0,0,0,0,0,
571,562,595,585,582,561,0,0,0,0,0,0,0,0,0,0,
581,568,596,599,596,586,0,0,0,0,0,0,0,0,0,0,
586,599,558,588,555,558,0,0,0,0,0,0,0,0,0,0,
554,595,585,596,585,596,0,0,0,0,0,0,0,0,0,0,
598,579,554,575,557,565,0,0,0,0,0,0,0,0,0,0,
561,585,582,572,572,557,0,0,0,0,0,0,0,0,0,0,
572,589,561,586,585,565,0,0,0,0,0,0,0,0,0,0
</chunk>
   <chunk x="-976" y="416" width="16" height="16">
0,0,0,0,0,0,0,0,0,0,0,0,554,554,578,575,
0,0,0,0,0,0,0,0,0,0,0,0,564,595,578,572,
0,0,0,0,0,0,0,0,0,0,0,0,572,564,557,595,
0,0,0,0,0,0,0,0,0,0,0,0,582,572,578,568,
0,0,0,0,0,0,0,0,0,0,0,0,598,595,554,572,
0,0,0,0,0,0,0,0,0,0,0,0,562,596,596,565,
0,0,0,0,0,0,0,0,0,0,0,0,574,585,586,575,
0,0,0,0,0,0,0,0,0,0,0,0,571,574,558,592,
0,0,0,0,0,0,0,0,0,0,0,0,589,582,585,574,
0,0,0,0,0,0,0,0,0,0,0,0,0,0,0,0,
0,0,0,0,0,0,0,0,0,0,0,0,0,0,0,0,
0,0,0,0,0,0,0,0,0,0,0,0,0,0,0,0,
0,0,0,0,0,0,0,0,0,0,0,0,0,0,0,0,
0,0,0,0,0,0,0,0,0,0,0,0,0,0,0,0,
0,0,0,0,0,0,0,0,0,0,0,0,0,0,0,0,
0,0,0,0,0,0,0,0,0,0,0,0,0,0,0,0
</chunk>
   <chunk x="-960" y="416" width="16" height="16">
581,579,581,579,585,588,579,579,589,561,589,561,568,564,599,599,
599,564,562,586,598,558,554,588,575,589,581,582,568,589,571,595,
555,579,589,564,574,579,598,579,554,572,564,589,592,596,568,592,
561,586,589,588,568,574,568,599,562,571,561,562,586,589,599,595,
558,586,586,579,598,595,558,565,592,586,586,554,564,568,564,598,
568,555,558,554,578,578,565,557,598,589,558,579,574,554,598,558,
578,565,557,581,588,579,581,582,564,557,589,574,588,558,558,578,
554,562,589,557,571,581,589,592,578,561,554,598,582,575,564,599,
557,588,581,558,579,554,592,574,599,592,557,571,579,564,574,582,
0,0,0,0,0,0,0,0,0,0,0,0,0,0,0,0,
0,0,0,0,0,0,0,0,0,0,0,0,0,0,0,0,
0,0,0,0,0,0,0,0,0,0,0,0,0,0,0,0,
0,0,0,0,0,0,0,0,0,0,0,0,0,0,0,0,
0,0,0,0,0,0,0,0,0,0,0,0,0,0,0,0,
0,0,0,0,0,0,0,0,0,0,0,0,0,0,0,0,
0,0,0,0,0,0,0,0,0,0,0,0,0,0,0,0
</chunk>
   <chunk x="-944" y="416" width="16" height="16">
598,592,585,579,588,589,562,571,564,564,578,596,557,554,596,574,
554,578,599,574,561,575,581,572,582,578,565,562,562,561,557,558,
599,571,574,571,575,585,582,575,589,555,574,589,568,572,564,585,
588,596,579,599,595,599,581,586,554,564,581,582,565,579,565,582,
599,564,585,571,578,575,565,562,592,582,558,596,571,561,558,572,
579,565,598,561,586,562,555,562,585,572,557,554,574,554,589,558,
554,579,572,581,582,588,578,581,571,592,589,596,598,595,561,595,
595,585,574,555,595,554,561,585,575,575,585,562,555,598,564,588,
572,554,565,575,581,555,562,565,582,581,574,599,568,585,557,554,
0,0,0,0,0,0,0,0,0,0,0,0,0,0,0,0,
0,0,0,0,0,0,0,0,0,0,0,0,0,0,0,0,
0,0,0,0,0,0,0,0,0,0,0,0,0,0,0,0,
0,0,0,0,0,0,0,0,0,0,0,0,0,0,0,0,
0,0,0,0,0,0,0,0,0,0,0,0,0,0,0,0,
0,0,0,0,0,0,0,0,0,0,0,0,0,0,0,0,
0,0,0,0,0,0,0,0,0,0,0,0,0,0,0,0
</chunk>
   <chunk x="-928" y="416" width="16" height="16">
561,555,568,596,579,568,579,568,578,561,571,564,592,568,581,589,
568,598,581,582,558,555,565,565,557,561,562,562,568,579,581,558,
598,568,555,571,554,585,557,561,571,575,585,578,565,574,582,595,
562,562,561,574,582,572,588,574,572,589,555,599,588,589,596,599,
561,562,572,557,596,581,555,589,574,561,571,589,575,596,589,582,
568,554,561,572,582,568,595,598,571,572,578,558,574,599,565,568,
558,561,571,574,588,575,554,599,575,575,579,582,572,574,595,561,
557,572,557,557,586,595,562,581,586,595,599,589,555,595,579,579,
565,579,557,579,596,561,581,575,596,598,592,581,599,578,585,565,
0,0,0,0,0,0,0,0,0,0,0,0,0,0,0,0,
0,0,0,0,0,0,0,0,0,0,0,0,0,0,0,0,
0,0,0,0,0,0,0,0,0,0,0,0,0,0,0,0,
0,0,0,0,0,0,0,0,0,0,0,0,0,0,0,0,
0,0,0,0,0,0,0,0,0,0,0,0,0,0,0,0,
0,0,0,0,0,0,0,0,0,0,0,0,0,0,0,0,
0,0,0,0,0,0,0,0,0,0,0,0,0,0,0,0
</chunk>
   <chunk x="-912" y="416" width="16" height="16">
568,579,589,579,595,574,582,599,564,555,595,599,586,598,572,595,
586,572,595,555,564,598,575,572,571,555,572,568,572,592,599,568,
586,572,598,555,554,598,572,558,555,599,598,562,574,572,586,598,
554,572,578,586,582,592,555,592,589,595,578,565,575,554,579,565,
579,585,561,596,595,595,579,568,554,592,557,554,571,582,592,564,
599,565,571,596,599,564,574,572,586,598,582,581,599,565,574,575,
579,574,572,574,575,581,586,558,592,572,599,599,579,575,598,565,
558,599,595,582,592,585,588,578,599,589,571,578,589,592,575,595,
598,596,575,582,555,589,562,565,592,581,562,579,562,555,572,586,
0,0,0,0,0,0,0,0,0,0,0,0,0,0,0,0,
0,0,0,0,0,0,0,0,0,0,0,0,0,0,0,0,
0,0,0,0,0,0,0,0,0,0,0,0,0,0,0,0,
0,0,0,0,0,0,0,0,0,0,0,0,0,0,0,0,
0,0,0,0,0,0,0,0,0,0,0,0,0,0,0,0,
0,0,0,0,0,0,0,0,0,0,0,0,0,0,0,0,
0,0,0,0,0,0,0,0,0,0,0,0,0,0,0,0
</chunk>
   <chunk x="-896" y="416" width="16" height="16">
572,578,572,571,592,581,581,586,596,564,598,572,585,557,571,554,
557,572,581,557,582,571,592,578,564,582,564,588,589,595,579,561,
589,554,589,575,599,598,581,598,599,558,555,582,586,564,595,586,
555,571,596,561,562,578,564,579,561,571,579,586,555,561,554,574,
568,579,554,561,599,557,574,598,574,599,588,571,579,579,555,579,
599,565,575,579,568,581,565,574,582,592,578,596,581,554,579,599,
561,571,589,561,554,562,596,568,571,568,554,575,579,596,555,575,
579,561,565,554,561,565,572,561,572,568,558,595,592,558,595,572,
565,578,596,582,565,578,562,557,571,586,558,578,598,595,586,595,
0,0,0,0,0,0,0,0,0,0,0,0,0,0,0,0,
0,0,0,0,0,0,0,0,0,0,0,0,0,0,0,0,
0,0,0,0,0,0,0,0,0,0,0,0,0,0,0,0,
0,0,0,0,0,0,0,0,0,0,0,0,0,0,0,0,
0,0,0,0,0,0,0,0,0,0,0,0,0,0,0,0,
0,0,0,0,0,0,0,0,0,0,0,0,0,0,0,0,
0,0,0,0,0,0,0,0,0,0,0,0,0,0,0,0
</chunk>
   <chunk x="-880" y="416" width="16" height="16">
582,588,578,562,586,562,557,592,592,585,555,598,598,586,562,555,
578,558,558,595,555,589,588,578,564,586,555,571,588,589,585,598,
588,592,592,558,568,585,565,595,562,586,586,595,595,596,557,564,
596,581,598,585,555,558,592,596,588,564,578,574,579,582,585,568,
588,572,588,562,579,579,568,575,588,599,572,588,578,562,562,572,
571,554,578,572,561,596,588,568,572,598,596,564,575,554,555,571,
562,564,582,588,562,571,582,561,589,565,554,581,588,568,592,596,
586,575,555,579,557,571,555,575,564,599,565,586,581,558,558,595,
582,565,555,582,588,582,568,596,572,592,558,579,554,581,581,595,
0,0,0,0,0,0,0,0,0,0,0,0,0,0,0,0,
0,0,0,0,0,0,0,0,0,0,0,0,0,0,0,0,
0,0,0,0,0,0,0,0,0,0,0,0,0,0,0,0,
0,0,0,0,0,0,0,0,0,0,0,0,0,0,0,0,
0,0,0,0,0,0,0,0,0,0,0,0,0,0,0,0,
0,0,0,0,0,0,0,0,0,0,0,0,0,0,0,0,
0,0,0,0,0,0,0,0,0,0,0,0,0,0,0,0
</chunk>
   <chunk x="-864" y="416" width="16" height="16">
557,581,589,598,558,578,557,598,579,564,554,599,599,555,572,588,
568,575,596,572,581,558,561,599,588,585,564,592,571,598,592,575,
588,568,561,574,585,571,562,588,557,592,561,581,585,571,598,595,
568,598,575,558,592,574,582,575,561,598,581,595,595,572,575,592,
575,554,585,581,596,586,579,582,565,599,575,568,585,588,554,581,
558,571,557,555,582,592,554,599,568,564,574,596,585,589,562,565,
571,581,568,564,595,582,585,598,579,565,599,564,596,561,596,554,
564,585,555,574,598,562,572,575,565,598,572,571,574,592,571,575,
589,568,592,554,586,598,557,588,585,575,585,589,579,564,558,582,
0,0,0,0,0,0,0,0,0,0,0,0,0,0,0,0,
0,0,0,0,0,0,0,0,0,0,0,0,0,0,0,0,
0,0,0,0,0,0,0,0,0,0,0,0,0,0,0,0,
0,0,0,0,0,0,0,0,0,0,0,0,0,0,0,0,
0,0,0,0,0,0,0,0,0,0,0,0,0,0,0,0,
0,0,0,0,0,0,0,0,0,0,0,0,0,0,0,0,
0,0,0,0,0,0,0,0,0,0,0,0,0,0,0,0
</chunk>
   <chunk x="-848" y="416" width="16" height="16">
592,578,574,595,561,596,0,0,0,0,0,0,0,0,0,0,
558,586,578,589,574,582,0,0,0,0,0,0,0,0,0,0,
575,558,578,588,565,558,0,0,0,0,0,0,0,0,0,0,
578,582,598,579,564,561,0,0,0,0,0,0,0,0,0,0,
575,599,564,592,598,595,0,0,0,0,0,0,0,0,0,0,
595,561,589,586,599,595,0,0,0,0,0,0,0,0,0,0,
568,562,572,595,574,555,0,0,0,0,0,0,0,0,0,0,
588,589,586,578,578,575,0,0,0,0,0,0,0,0,0,0,
554,571,588,595,572,557,0,0,0,0,0,0,0,0,0,0,
0,0,0,0,0,0,0,0,0,0,0,0,0,0,0,0,
0,0,0,0,0,0,0,0,0,0,0,0,0,0,0,0,
0,0,0,0,0,0,0,0,0,0,0,0,0,0,0,0,
0,0,0,0,0,0,0,0,0,0,0,0,0,0,0,0,
0,0,0,0,0,0,0,0,0,0,0,0,0,0,0,0,
0,0,0,0,0,0,0,0,0,0,0,0,0,0,0,0,
0,0,0,0,0,0,0,0,0,0,0,0,0,0,0,0
</chunk>
  </data>
 </layer>
 <layer id="1" name="Roads" width="30" height="15">
  <data encoding="csv">
   <chunk x="-336" y="-32" width="16" height="16">
0,0,0,0,0,0,0,0,0,0,0,0,0,0,0,0,
0,0,0,0,0,0,0,0,0,0,0,0,0,0,0,0,
0,0,0,0,0,0,0,0,0,0,0,0,0,0,0,0,
0,0,0,0,0,0,0,0,0,0,0,0,0,0,0,0,
0,0,0,0,0,0,0,0,0,0,0,0,0,0,0,0,
0,0,0,0,0,0,0,0,0,0,0,0,0,0,0,0,
0,0,0,0,0,0,0,0,0,0,0,0,0,0,0,0,
0,0,0,0,0,0,0,0,0,0,0,0,0,0,0,0,
0,0,0,0,0,0,0,0,0,0,0,0,0,0,0,0,
0,0,0,0,0,0,0,0,0,0,0,0,0,0,0,0,
0,0,0,0,0,0,0,0,0,0,0,0,0,0,0,0,
0,0,0,0,0,0,0,0,0,0,0,0,0,0,0,0,
0,0,0,0,0,0,0,0,0,0,0,0,0,0,0,0,
0,0,0,0,0,0,0,0,0,0,0,0,0,0,123,0,
0,0,0,0,0,0,0,0,0,0,0,0,0,0,0,0,
0,0,0,0,0,0,0,0,0,0,0,0,0,0,0,0
</chunk>
   <chunk x="-1360" y="32" width="16" height="16">
0,0,0,0,0,0,0,0,0,0,0,0,0,0,0,0,
0,0,0,0,0,0,0,0,0,0,0,0,0,0,0,0,
0,0,0,0,0,0,0,0,0,0,0,0,0,0,0,0,
0,0,0,0,0,0,0,0,0,0,0,0,0,0,0,0,
0,0,0,0,0,0,0,0,0,0,0,0,0,0,0,0,
0,0,0,0,0,0,0,0,0,0,0,0,0,0,0,0,
0,0,0,0,0,0,0,0,0,0,0,0,0,0,0,0,
0,0,0,0,0,0,0,0,0,0,0,0,0,0,0,0,
0,0,0,0,0,0,0,0,0,0,0,0,0,0,0,0,
0,0,0,0,0,0,0,0,0,0,0,0,0,0,0,0,
194,194,194,194,194,194,194,194,194,194,194,194,194,194,194,194,
26,26,26,26,27,28,26,26,27,28,26,27,26,26,26,27,
50,50,50,50,51,52,50,50,51,52,50,51,50,50,50,51,
3221225525,3221225525,3221225525,3221225525,3221225525,3221225525,3221225525,3221225525,3221225524,3221225523,3221225525,3221225524,3221225523,3221225525,3221225525,3221225525,
3221225501,3221225501,3221225501,3221225501,3221225501,3221225501,3221225501,3221225501,3221225500,3221225499,3221225501,3221225500,3221225500,3221225499,3221225498,1610612765,
3221225667,3221225667,3221225667,3221225667,3221225667,3221225667,3221225667,3221225667,3221225667,3221225667,3221225667,3221225667,3221225667,3221225667,1610612931,1610612765
</chunk>
   <chunk x="-1344" y="32" width="16" height="16">
0,0,0,0,0,0,0,0,0,0,0,0,0,0,0,0,
0,0,0,0,0,0,0,0,0,0,0,0,0,0,0,0,
0,0,0,0,0,0,0,0,0,0,0,0,0,0,0,0,
0,0,0,0,0,0,0,0,0,0,0,0,0,0,0,0,
0,0,0,0,0,0,0,0,0,0,0,0,0,0,0,0,
0,0,0,0,0,0,0,0,0,0,0,0,0,0,0,0,
0,0,0,0,0,0,0,0,0,0,0,0,0,0,0,0,
0,0,0,0,0,0,0,0,0,0,0,0,0,0,0,0,
0,0,0,0,0,0,0,0,0,0,0,0,0,0,0,0,
0,0,0,0,0,0,0,0,0,0,0,0,0,0,0,0,
194,194,194,194,195,194,194,194,194,194,194,194,194,195,194,194,
26,26,27,28,29,26,26,26,27,28,26,27,28,29,26,26,
50,50,51,52,53,50,50,50,51,52,50,51,52,53,50,50,
3221225525,3221225524,3221225523,3221225522,3221225522,3221225525,3221225525,3221225525,3221225525,3221225525,3221225525,3221225524,3221225523,3221225522,3221225525,3221225525,
2684354586,3221225501,3221225501,3221225501,3221225501,3221225501,3221225501,3221225501,3221225501,3221225501,3221225501,3221225500,3221225499,3221225498,3221225501,3221225501,
2684354586,2684354754,3221225667,3221225667,3221225667,3221225667,3221225667,3221225667,3221225667,3221225667,3221225667,3221225667,3221225667,3221225666,3221225667,3221225667
</chunk>
   <chunk x="-1328" y="32" width="16" height="16">
0,0,0,0,0,0,0,0,0,0,0,0,0,0,0,0,
0,0,0,0,0,0,0,0,0,0,0,0,0,0,0,0,
0,0,0,0,0,0,0,0,0,0,0,0,0,0,0,0,
0,0,0,0,0,0,0,0,0,0,0,0,0,0,0,0,
0,0,0,0,0,0,0,0,0,0,0,0,0,0,0,0,
0,0,0,0,0,0,0,0,0,0,0,0,0,0,0,0,
0,0,0,0,0,0,0,0,0,0,0,0,0,0,0,0,
0,0,0,0,0,0,0,0,0,0,0,0,0,0,0,0,
0,0,0,0,0,0,0,0,0,0,0,0,0,0,0,0,
0,0,0,0,0,0,0,0,0,0,0,0,0,0,0,0,
194,194,194,194,194,194,194,195,194,194,194,194,194,194,194,194,
26,26,27,28,26,27,28,29,26,26,26,26,27,28,26,27,
50,50,51,52,50,51,52,53,50,50,50,50,51,52,50,51,
3221225525,3221225525,3221225525,3221225525,3221225525,3221225524,3221225523,3221225522,3221225525,3221225525,3221225525,3221225525,3221225525,3221225525,3221225525,3221225524,
3221225501,3221225501,3221225501,3221225501,3221225501,3221225500,3221225499,3221225498,3221225501,3221225501,3221225501,3221225501,3221225501,3221225501,3221225501,3221225500,
3221225667,3221225667,3221225667,3221225667,3221225667,3221225667,3221225667,3221225666,3221225667,3221225667,3221225667,3221225667,3221225667,3221225667,3221225667,3221225667
</chunk>
   <chunk x="-1312" y="32" width="16" height="16">
0,0,0,0,0,0,0,0,0,0,0,0,0,0,0,0,
0,0,0,0,0,0,0,0,0,0,0,0,0,0,0,0,
0,0,0,0,0,0,0,0,0,0,0,0,0,0,0,0,
0,0,0,0,0,0,0,0,0,0,0,0,0,0,0,0,
0,0,0,0,0,0,0,0,0,0,0,0,0,0,0,0,
0,0,0,0,0,0,0,0,0,0,0,0,0,0,0,0,
0,0,0,0,0,0,0,0,0,0,0,0,0,0,0,0,
0,0,0,0,0,0,0,0,0,0,0,0,0,0,0,0,
0,0,0,0,0,0,0,0,0,0,0,0,0,0,0,0,
0,0,0,0,0,0,0,0,0,0,0,0,0,0,0,0,
194,195,194,194,194,194,194,194,194,194,194,195,194,194,194,194,
28,29,26,26,26,26,27,28,26,27,28,29,26,26,26,26,
52,53,50,50,50,50,51,52,50,51,52,53,50,50,50,50,
3221225523,3221225522,3221225525,3221225525,3221225525,3221225525,3221225525,3221225525,3221225525,3221225524,3221225523,3221225522,3221225525,3221225525,3221225525,3221225525,
3221225499,3221225498,3221225501,3221225501,3221225501,3221225501,3221225501,3221225501,3221225501,3221225500,3221225499,3221225498,3221225501,3221225501,3221225501,3221225501,
3221225667,3221225666,3221225667,3221225667,3221225667,3221225667,3221225667,3221225667,3221225667,3221225667,3221225667,3221225666,3221225667,3221225667,3221225667,3221225667
</chunk>
   <chunk x="-1296" y="32" width="16" height="16">
0,0,0,0,0,0,0,0,0,0,0,0,0,0,0,0,
0,0,0,0,0,0,0,0,0,0,0,0,0,0,0,0,
0,0,0,0,0,0,0,0,0,0,0,0,0,0,0,0,
0,0,0,0,0,0,0,0,0,0,0,0,0,0,0,0,
0,0,0,0,0,0,0,0,0,0,0,0,0,0,0,0,
0,0,0,0,0,0,0,0,0,0,0,0,0,0,0,0,
0,0,0,0,0,0,0,0,0,0,0,0,0,0,0,0,
0,0,0,0,0,0,0,0,0,0,0,0,0,0,0,0,
0,0,0,0,0,0,0,0,0,0,0,0,0,0,0,0,
0,0,0,0,0,0,0,0,0,0,0,0,0,0,0,0,
194,194,194,194,194,195,194,194,194,194,194,194,194,194,194,195,
27,28,26,27,28,29,26,26,26,26,27,28,26,27,28,29,
51,52,50,51,52,53,50,50,50,50,51,52,50,51,52,53,
3221225525,3221225525,3221225525,3221225524,3221225523,3221225522,3221225525,3221225525,3221225525,3221225525,3221225525,3221225525,3221225525,3221225524,3221225523,3221225522,
3221225501,3221225501,3221225501,3221225500,3221225499,3221225498,3221225501,3221225501,3221225501,3221225501,3221225501,3221225501,3221225501,3221225500,3221225499,3221225498,
3221225667,3221225667,3221225667,3221225667,3221225667,3221225666,3221225667,3221225667,3221225667,3221225667,3221225667,3221225667,3221225667,3221225667,3221225667,3221225666
</chunk>
   <chunk x="-1280" y="32" width="16" height="16">
0,0,0,0,0,0,0,0,0,0,0,0,0,0,0,0,
0,0,0,0,0,0,0,0,0,0,0,0,0,0,0,0,
0,0,0,0,0,0,0,0,0,0,0,0,0,0,0,0,
0,0,0,0,0,0,0,0,0,0,0,0,0,0,0,0,
0,0,0,0,0,0,0,0,0,0,0,0,0,0,0,0,
0,0,0,0,0,0,0,0,0,0,0,0,0,0,0,0,
0,0,0,0,0,0,0,0,0,0,0,0,0,0,0,0,
0,0,0,0,0,0,0,0,0,0,0,0,0,0,0,0,
0,0,0,0,0,0,0,0,0,0,0,0,0,0,0,0,
0,0,0,0,0,0,0,0,0,0,0,0,0,0,0,0,
194,194,194,194,194,194,194,194,194,195,194,194,194,194,194,194,
26,26,26,26,27,28,26,27,28,29,26,26,26,26,27,28,
50,50,50,50,51,52,50,51,52,53,50,50,50,50,51,52,
3221225525,3221225525,3221225525,3221225525,3221225525,3221225525,3221225525,3221225524,3221225523,3221225522,3221225525,3221225525,3221225525,3221225525,3221225525,3221225525,
3221225501,3221225501,3221225501,3221225501,3221225501,3221225501,3221225501,3221225500,3221225499,3221225498,3221225501,3221225501,3221225501,3221225501,3221225501,3221225501,
3221225667,3221225667,3221225667,3221225667,3221225667,3221225667,3221225667,3221225667,3221225667,3221225666,3221225667,3221225667,3221225667,3221225667,3221225667,3221225667
</chunk>
   <chunk x="-1264" y="32" width="16" height="16">
0,0,0,0,0,0,0,0,0,0,0,0,0,0,0,0,
0,0,0,0,0,0,0,0,0,0,0,0,0,0,0,0,
0,0,0,0,0,0,0,0,0,0,0,0,0,0,0,0,
0,0,0,0,0,0,0,0,0,0,0,0,0,0,0,0,
0,0,0,0,0,0,0,0,0,0,0,0,0,0,0,0,
0,0,0,0,0,0,0,0,0,0,0,0,0,0,0,0,
0,0,0,0,0,0,0,0,0,0,0,0,0,0,0,0,
0,0,0,0,0,0,0,0,0,0,0,0,0,0,0,0,
0,0,0,0,0,0,0,0,0,0,0,0,0,0,0,0,
0,0,0,0,0,0,0,0,0,0,0,0,0,0,0,0,
194,194,194,195,194,194,194,194,194,194,194,194,194,195,194,194,
26,27,28,29,26,26,26,26,27,28,26,27,28,29,26,26,
50,51,52,53,50,50,50,50,51,52,50,51,52,53,50,50,
3221225525,3221225524,3221225523,3221225522,3221225525,3221225525,3221225525,3221225525,3221225525,3221225525,3221225525,3221225524,3221225523,3221225522,3221225525,3221225525,
3221225501,3221225500,3221225499,3221225498,3221225501,3221225501,3221225501,3221225501,3221225501,3221225501,3221225501,3221225500,3221225499,3221225498,3221225501,3221225501,
3221225667,3221225667,3221225667,3221225666,3221225667,3221225667,3221225667,3221225667,3221225667,3221225667,3221225667,3221225667,3221225667,3221225666,3221225667,3221225667
</chunk>
   <chunk x="-1248" y="32" width="16" height="16">
0,0,0,0,0,0,0,0,0,0,0,0,0,0,0,0,
0,0,0,0,0,0,0,0,0,0,0,0,0,0,0,0,
0,0,0,0,0,0,0,0,0,0,0,0,0,0,0,0,
0,0,0,0,0,0,0,0,0,0,0,0,0,0,0,0,
0,0,0,0,0,0,0,0,0,0,0,0,0,0,0,0,
0,0,0,0,0,0,0,0,0,0,0,0,0,0,0,0,
0,0,0,0,0,0,0,0,0,0,0,0,0,0,0,0,
0,0,0,0,0,0,0,0,0,0,0,0,0,0,0,0,
0,0,0,0,0,0,0,0,0,0,0,0,0,0,0,0,
0,0,0,0,0,0,0,0,0,0,0,0,0,0,0,0,
194,194,194,194,194,195,194,194,194,194,194,194,194,194,194,195,
27,28,26,27,28,29,26,26,26,26,27,28,26,27,28,29,
51,52,50,51,52,53,50,50,50,50,51,52,50,51,52,53,
3221225525,3221225525,3221225525,3221225524,3221225523,3221225522,3221225525,3221225525,3221225525,3221225525,3221225525,3221225525,3221225525,3221225524,3221225523,3221225522,
3221225501,3221225501,3221225501,3221225500,3221225499,3221225498,3221225501,3221225501,3221225501,3221225501,3221225501,3221225501,3221225501,3221225500,3221225499,3221225498,
3221225667,3221225667,3221225667,3221225667,3221225667,3221225666,3221225667,3221225667,3221225667,3221225667,3221225667,3221225667,3221225667,3221225667,3221225667,3221225666
</chunk>
   <chunk x="-1232" y="32" width="16" height="16">
0,0,0,0,0,0,0,0,0,0,0,0,0,0,0,0,
0,0,0,0,0,0,0,0,0,0,0,0,0,0,0,0,
0,0,0,0,0,0,0,0,0,0,0,0,0,0,0,0,
0,0,0,0,0,0,0,0,0,0,0,0,0,0,0,0,
0,0,0,0,0,0,0,0,0,0,0,0,0,0,0,0,
0,0,0,0,0,0,0,0,0,0,0,0,0,0,0,0,
0,0,0,0,0,0,0,0,0,0,0,0,0,0,0,0,
0,0,0,0,0,0,0,0,0,0,0,0,0,0,0,0,
0,0,0,0,0,0,0,0,0,0,0,0,0,0,0,0,
0,0,0,0,0,0,0,0,0,0,0,0,0,0,0,0,
194,194,194,194,194,194,194,194,194,194,194,194,194,194,194,194,
26,26,26,26,27,28,26,27,26,27,28,26,27,26,26,26,
50,50,50,50,51,52,50,51,50,51,52,50,51,50,50,50,
3221225525,3221225525,3221225525,3221225525,3221225525,3221225525,3221225525,3221225524,3221225525,3221225524,3221225523,3221225525,3221225524,3221225523,3221225525,3221225525,
3221225501,3221225501,3221225501,3221225501,3221225501,3221225501,3221225501,3221225500,3221225501,3221225500,3221225499,3221225501,3221225500,3221225499,3221225498,1610612765,
3221225667,3221225667,3221225667,3221225667,3221225667,3221225667,3221225667,3221225667,3221225667,3221225667,3221225667,3221225667,3221225667,3221225667,1610612931,1610612765
</chunk>
   <chunk x="-1216" y="32" width="16" height="16">
0,0,0,0,0,0,0,0,0,0,0,0,0,0,0,0,
0,0,0,0,0,0,0,0,0,0,0,0,0,0,0,0,
0,0,0,0,0,0,0,0,0,0,0,0,0,0,0,0,
0,0,0,0,0,0,0,0,0,0,0,0,0,0,0,0,
0,0,0,0,0,0,0,0,0,0,0,0,0,0,0,0,
0,0,0,0,0,0,0,0,0,0,0,0,0,0,0,0,
0,0,0,0,0,0,0,0,0,0,0,0,0,0,0,0,
0,0,0,0,0,0,0,0,0,0,0,0,0,0,0,0,
0,0,0,0,0,0,0,0,0,0,0,0,0,0,0,0,
0,0,0,0,0,0,0,0,0,0,0,0,0,0,0,0,
194,194,194,194,0,0,0,0,0,0,0,0,0,0,0,0,
27,26,26,27,0,0,0,0,0,0,0,0,0,0,0,0,
51,50,50,51,0,0,0,0,0,0,0,0,0,0,0,0,
3221225524,3221225525,3221225525,3221225524,0,0,0,0,0,0,0,0,0,0,0,0,
1610612789,2684354610,2684354586,3221225501,0,0,0,0,0,0,0,0,0,0,0,0,
1610612789,2684354610,2684354586,2684354754,0,0,0,0,0,0,0,0,0,0,0,0
</chunk>
   <chunk x="-1360" y="48" width="16" height="16">
0,0,0,0,0,0,0,0,0,0,0,0,0,0,1610612931,1610612765,
0,0,0,0,0,0,0,0,0,0,0,0,0,0,1610612931,1610612765,
0,0,0,0,0,0,0,0,0,0,0,0,0,0,1610612931,1610612765,
0,0,0,0,0,0,0,0,0,0,0,0,0,0,1610612931,1610612765,
0,0,0,0,0,0,0,0,0,0,0,0,0,0,1610612931,1610612765,
0,0,0,0,0,0,0,0,0,0,0,0,0,0,1610612931,1610612765,
0,0,0,0,0,0,0,0,0,0,0,0,0,0,1610612931,1610612764,
0,0,0,0,0,0,0,0,0,0,0,0,0,0,1610612931,1610612763,
0,0,0,0,0,0,0,0,0,0,0,0,0,0,1610612930,1610612762,
0,0,0,0,0,0,0,0,0,0,0,0,0,0,1610612931,1610612764,
0,0,0,0,0,0,0,0,0,0,0,0,0,0,1610612931,1610612763,
0,0,0,0,0,0,0,0,0,0,0,0,0,0,1610612931,1610612765,
0,0,0,0,0,0,0,0,0,0,0,0,0,0,1610612931,1610612765,
0,0,0,0,0,0,0,0,0,0,0,0,0,0,1610612931,1610612765,
0,0,0,0,0,0,0,0,0,0,0,0,0,0,1610612931,1610612765,
0,0,0,0,0,0,0,0,0,0,0,0,0,0,1610612931,1610612765
</chunk>
   <chunk x="-1344" y="48" width="16" height="16">
2684354586,2684354754,0,0,0,0,0,0,0,0,0,0,0,0,0,0,
2684354586,2684354754,0,0,0,0,0,0,0,0,0,0,0,0,0,0,
2684354586,2684354754,0,0,0,0,0,0,0,0,0,0,0,0,0,0,
2684354586,2684354754,0,0,0,0,0,0,0,0,0,0,0,0,0,0,
2684354587,2684354754,0,0,0,0,0,0,0,0,0,0,0,0,0,0,
2684354588,2684354754,0,0,0,0,0,0,0,0,0,0,0,0,0,0,
2684354589,2684354755,0,0,0,0,0,0,0,0,0,0,0,0,0,0,
2684354589,2684354755,0,0,0,0,0,0,0,0,0,0,0,0,0,0,
2684354589,2684354755,0,0,0,0,0,0,0,0,0,0,0,0,0,0,
2684354589,2684354755,0,0,0,0,0,0,0,0,0,0,0,0,0,0,
2684354589,2684354755,0,0,0,0,0,0,0,0,0,0,0,0,0,0,
2684354586,2684354754,0,0,0,0,0,0,0,0,0,0,0,0,0,0,
2684354586,2684354754,0,0,0,0,0,0,0,0,0,0,0,0,0,0,
2684354587,2684354754,0,0,0,0,0,0,0,0,0,0,0,0,0,0,
2684354588,2684354754,0,0,0,0,0,0,0,0,0,0,0,0,0,0,
2684354586,2684354754,0,0,0,0,0,0,0,0,0,0,0,0,0,0
</chunk>
   <chunk x="-1232" y="48" width="16" height="16">
0,0,0,0,0,0,0,0,0,0,0,0,0,0,1610612931,1610612765,
0,0,0,0,0,0,0,0,0,0,0,0,0,0,1610612931,1610612765,
0,0,0,0,0,0,0,0,0,0,0,0,0,0,1610612931,1610612765,
0,0,0,0,0,0,0,0,0,0,0,0,0,0,1610612931,1610612765,
0,0,0,0,0,0,0,0,0,0,0,0,0,0,1610612931,1610612765,
0,0,0,0,0,0,0,0,0,0,0,0,0,0,1610612931,1610612765,
0,0,0,0,0,0,0,0,0,0,0,0,0,0,1610612931,1610612765,
0,0,0,0,0,0,0,0,0,0,0,0,0,0,1610612931,1610612764,
0,0,0,0,0,0,0,0,0,0,0,0,0,0,1610612931,1610612763,
0,0,0,0,0,0,0,0,0,0,0,0,0,0,1610612930,1610612762,
0,0,0,0,0,0,0,0,0,0,0,0,0,0,1610612931,1610612765,
0,0,0,0,0,0,0,0,0,0,0,0,0,0,1610612931,1610612765,
0,0,0,0,0,0,0,0,0,0,0,0,0,0,1610612931,1610612765,
0,0,0,0,0,0,0,0,0,0,0,0,0,0,1610612931,1610612765,
0,0,0,0,0,0,0,0,0,0,0,0,0,0,1610612931,1610612764,
0,0,0,0,0,0,0,0,0,0,0,0,0,0,1610612931,1610612763
</chunk>
   <chunk x="-1216" y="48" width="16" height="16">
1610612789,2684354610,2684354586,2684354754,0,0,0,0,0,0,0,0,0,0,0,0,
1610612789,2684354610,2684354586,2684354754,0,0,0,0,0,0,0,0,0,0,0,0,
1610612789,2684354611,2684354586,2684354754,0,0,0,0,0,0,0,0,0,0,0,0,
1610612789,2684354612,2684354586,2684354754,0,0,0,0,0,0,0,0,0,0,0,0,
1610612789,2684354610,2684354586,2684354754,0,0,0,0,0,0,0,0,0,0,0,0,
1610612789,2684354612,2684354588,2684354754,0,0,0,0,0,0,0,0,0,0,0,0,
1610612789,2684354610,2684354586,2684354754,0,0,0,0,0,0,0,0,0,0,0,0,
1610612788,2684354611,2684354587,2684354754,0,0,0,0,0,0,0,0,0,0,0,0,
1610612787,2684354612,2684354588,2684354754,0,0,0,0,0,0,0,0,0,0,0,0,
1610612786,2684354613,2684354589,2684354755,0,0,0,0,0,0,0,0,0,0,0,0,
1610612789,2684354610,2684354586,2684354754,0,0,0,0,0,0,0,0,0,0,0,0,
1610612789,2684354611,2684354587,2684354754,0,0,0,0,0,0,0,0,0,0,0,0,
1610612789,2684354612,2684354588,2684354754,0,0,0,0,0,0,0,0,0,0,0,0,
1610612789,2684354610,2684354586,2684354754,0,0,0,0,0,0,0,0,0,0,0,0,
1610612788,2684354611,2684354587,2684354754,194,194,194,194,194,194,194,194,194,195,194,194,
1610612787,2684354612,26,26,26,26,26,26,27,28,26,27,28,29,26,26
</chunk>
   <chunk x="-1200" y="48" width="16" height="16">
0,0,0,0,0,0,0,0,0,0,0,0,0,0,0,0,
0,0,0,0,0,0,0,0,0,0,0,0,0,0,0,0,
0,0,0,0,0,0,0,0,0,0,0,0,0,0,0,0,
0,0,0,0,0,0,0,0,0,0,0,0,0,0,0,0,
0,0,0,0,0,0,0,0,0,0,0,0,0,0,0,0,
0,0,0,0,0,0,0,0,0,0,0,0,0,0,0,0,
0,0,0,0,0,0,0,0,0,0,0,0,0,0,0,0,
0,0,0,0,0,0,0,0,0,0,0,0,0,0,0,0,
0,0,0,0,0,0,0,0,0,0,0,0,0,0,0,0,
0,0,0,0,0,0,0,0,0,0,0,0,0,0,0,0,
0,0,0,0,0,0,0,0,0,0,0,0,0,0,0,0,
0,0,0,0,0,0,0,0,0,0,0,0,0,0,0,0,
0,0,0,0,0,0,0,0,0,0,0,0,0,0,0,0,
0,0,0,0,0,0,0,0,0,0,0,0,0,0,0,0,
194,194,194,194,194,194,194,195,194,194,194,194,194,194,194,194,
26,26,27,28,26,27,28,29,26,26,26,26,27,28,26,27
</chunk>
   <chunk x="-1184" y="48" width="16" height="16">
0,0,0,0,0,0,0,0,0,0,0,0,0,0,0,0,
0,0,0,0,0,0,0,0,0,0,0,0,0,0,0,0,
0,0,0,0,0,0,0,0,0,0,0,0,0,0,0,0,
0,0,0,0,0,0,0,0,0,0,0,0,0,0,0,0,
0,0,0,0,0,0,0,0,0,0,0,0,0,0,0,0,
0,0,0,0,0,0,0,0,0,0,0,0,0,0,0,0,
0,0,0,0,0,0,0,0,0,0,0,0,0,0,0,0,
0,0,0,0,0,0,0,0,0,0,0,0,0,0,0,0,
0,0,0,0,0,0,0,0,0,0,0,0,0,0,0,0,
0,0,0,0,0,0,0,0,0,0,0,0,0,0,0,0,
0,0,0,0,0,0,0,0,0,0,0,0,0,0,0,0,
0,0,0,0,0,0,0,0,0,0,0,0,0,0,0,0,
0,0,0,0,0,0,0,0,0,0,0,0,0,0,0,0,
0,0,0,0,0,0,0,0,0,0,0,0,0,0,0,0,
194,195,194,194,194,194,194,194,194,194,194,195,194,194,194,194,
28,29,26,26,26,26,27,28,26,27,28,29,26,26,26,26
</chunk>
   <chunk x="-1168" y="48" width="16" height="16">
0,0,0,0,0,0,0,0,0,0,0,0,0,0,0,0,
0,0,0,0,0,0,0,0,0,0,0,0,0,0,0,0,
0,0,0,0,0,0,0,0,0,0,0,0,0,0,0,0,
0,0,0,0,0,0,0,0,0,0,0,0,0,0,0,0,
0,0,0,0,0,0,0,0,0,0,0,0,0,0,0,0,
0,0,0,0,0,0,0,0,0,0,0,0,0,0,0,0,
0,0,0,0,0,0,0,0,0,0,0,0,0,0,0,0,
0,0,0,0,0,0,0,0,0,0,0,0,0,0,0,0,
0,0,0,0,0,0,0,0,0,0,0,0,0,0,0,0,
0,0,0,0,0,0,0,0,0,0,0,0,0,0,0,0,
0,0,0,0,0,0,0,0,0,0,0,0,0,0,0,0,
0,0,0,0,0,0,0,0,0,0,0,0,0,0,0,0,
0,0,0,0,0,0,0,0,0,0,0,0,0,0,0,0,
0,0,0,0,0,0,0,0,0,0,0,0,0,0,0,0,
194,194,194,194,194,195,194,194,194,194,194,194,194,194,194,195,
27,28,26,27,28,29,26,26,26,26,27,28,26,27,28,29
</chunk>
   <chunk x="-1152" y="48" width="16" height="16">
0,0,0,0,0,0,0,0,0,0,0,0,0,0,0,0,
0,0,0,0,0,0,0,0,0,0,0,0,0,0,0,0,
0,0,0,0,0,0,0,0,0,0,0,0,0,0,0,0,
0,0,0,0,0,0,0,0,0,0,0,0,0,0,0,0,
0,0,0,0,0,0,0,0,0,0,0,0,0,0,0,0,
0,0,0,0,0,0,0,0,0,0,0,0,0,0,0,0,
0,0,0,0,0,0,0,0,0,0,0,0,0,0,0,0,
0,0,0,0,0,0,0,0,0,0,0,0,0,0,0,0,
0,0,0,0,0,0,0,0,0,0,0,0,0,0,0,0,
0,0,0,0,0,0,0,0,0,0,0,0,0,0,0,0,
0,0,0,0,0,0,0,0,0,0,0,0,0,0,0,0,
0,0,0,0,0,0,0,0,0,0,0,0,0,0,0,0,
0,0,0,0,0,0,0,0,0,0,0,0,0,0,0,0,
0,0,0,0,0,0,0,0,0,0,0,0,0,0,0,0,
194,194,194,194,194,194,194,194,194,195,194,194,194,194,194,194,
26,26,26,26,27,28,26,27,28,29,26,26,27,28,26,27
</chunk>
   <chunk x="-1136" y="48" width="16" height="16">
0,0,0,0,0,0,0,0,0,0,0,0,0,0,0,0,
0,0,0,0,0,0,0,0,0,0,0,0,0,0,0,0,
0,0,0,0,0,0,0,0,0,0,0,0,0,0,0,0,
0,0,0,0,0,0,0,0,0,0,0,0,0,0,0,0,
0,0,0,0,0,0,0,0,0,0,0,0,0,0,0,0,
0,0,0,0,0,0,0,0,0,0,0,0,0,0,0,0,
0,0,0,0,0,0,0,0,0,0,0,0,0,0,0,0,
0,0,0,0,0,0,0,0,0,0,0,0,0,0,0,0,
0,0,0,0,0,0,0,0,0,0,0,0,0,0,0,0,
0,0,0,0,0,0,0,0,0,0,0,0,0,0,0,0,
0,0,0,0,0,0,0,0,0,0,0,0,0,0,0,0,
0,0,0,0,0,0,0,0,0,0,0,0,0,0,0,0,
0,0,0,0,0,0,0,0,0,0,0,0,0,0,0,0,
0,0,0,0,0,0,0,0,0,0,0,0,0,0,0,0,
194,195,194,194,194,194,194,194,194,194,194,195,194,194,194,194,
28,29,26,26,26,26,27,28,26,27,28,29,26,26,26,26
</chunk>
   <chunk x="-1120" y="48" width="16" height="16">
0,0,0,0,0,0,0,0,0,0,0,0,0,0,0,0,
0,0,0,0,0,0,0,0,0,0,0,0,0,0,0,0,
0,0,0,0,0,0,0,0,0,0,0,0,0,0,0,0,
0,0,0,0,0,0,0,0,0,0,0,0,0,0,0,0,
0,0,0,0,0,0,0,0,0,0,0,0,0,0,0,0,
0,0,0,0,0,0,0,0,0,0,0,0,0,0,0,0,
0,0,0,0,0,0,0,0,0,0,0,0,0,0,0,0,
0,0,0,0,0,0,0,0,0,0,0,0,0,0,0,0,
0,0,0,0,0,0,0,0,0,0,0,0,0,0,0,0,
0,0,0,0,0,0,0,0,0,0,0,0,0,0,0,0,
0,0,0,0,0,0,0,0,0,0,0,0,0,0,0,0,
0,0,0,0,0,0,0,0,0,0,0,0,0,0,0,0,
0,0,0,0,0,0,0,0,0,0,0,0,0,0,0,0,
0,0,0,0,0,0,0,0,0,0,0,0,0,0,0,0,
194,194,194,194,194,195,194,194,194,194,194,194,194,195,194,194,
27,28,26,27,28,29,26,26,27,28,26,27,28,29,26,26
</chunk>
   <chunk x="-1104" y="48" width="16" height="16">
0,0,0,0,0,0,0,0,0,0,0,0,0,0,0,0,
0,0,0,0,0,0,0,0,0,0,0,0,0,0,0,0,
0,0,0,0,0,0,0,0,0,0,0,0,0,0,0,0,
0,0,0,0,0,0,0,0,0,0,0,0,0,0,0,0,
0,0,0,0,0,0,0,0,0,0,0,0,0,0,0,0,
0,0,0,0,0,0,0,0,0,0,0,0,0,0,0,0,
0,0,0,0,0,0,0,0,0,0,0,0,0,0,0,0,
0,0,0,0,0,0,0,0,0,0,0,0,0,0,0,0,
0,0,0,0,0,0,0,0,0,0,0,0,0,0,0,0,
0,0,0,0,0,0,0,0,0,0,0,0,0,0,0,0,
0,0,0,0,0,0,0,0,0,0,0,0,0,0,0,0,
0,0,0,0,0,0,0,0,0,0,0,0,0,0,0,0,
0,0,0,0,0,0,0,0,0,0,0,0,0,0,0,0,
0,0,0,0,0,0,0,0,0,0,0,0,0,0,0,0,
194,194,194,194,194,194,194,195,194,194,194,194,194,194,194,194,
26,26,27,28,26,27,28,29,26,26,26,26,27,28,26,27
</chunk>
   <chunk x="-1088" y="48" width="16" height="16">
0,0,0,0,0,0,0,0,0,0,0,0,0,0,0,0,
0,0,0,0,0,0,0,0,0,0,0,0,0,0,0,0,
0,0,0,0,0,0,0,0,0,0,0,0,0,0,0,0,
0,0,0,0,0,0,0,0,0,0,0,0,0,0,0,0,
0,0,0,0,0,0,0,0,0,0,0,0,0,0,0,0,
0,0,0,0,0,0,0,0,0,0,0,0,0,0,0,0,
0,0,0,0,0,0,0,0,0,0,0,0,0,0,0,0,
0,0,0,0,0,0,0,0,0,0,0,0,0,0,0,0,
0,0,0,0,0,0,0,0,0,0,0,0,0,0,0,0,
0,0,0,0,0,0,0,0,0,0,0,0,0,0,0,0,
0,0,0,0,0,0,0,0,0,0,0,0,0,0,0,0,
0,0,0,0,0,0,0,0,0,0,0,0,0,0,0,0,
0,0,0,0,0,0,0,0,0,0,0,0,0,0,0,0,
0,0,0,0,0,0,0,0,0,0,0,0,0,0,0,0,
194,195,194,194,194,194,194,194,194,194,194,195,194,194,194,194,
28,29,26,26,26,26,27,28,26,27,28,29,26,26,26,26
</chunk>
   <chunk x="-1072" y="48" width="16" height="16">
0,0,0,0,0,0,0,0,0,0,0,0,0,0,0,0,
0,0,0,0,0,0,0,0,0,0,0,0,0,0,0,0,
0,0,0,0,0,0,0,0,0,0,0,0,0,0,0,0,
0,0,0,0,0,0,0,0,0,0,0,0,0,0,0,0,
0,0,0,0,0,0,0,0,0,0,0,0,0,0,0,0,
0,0,0,0,0,0,0,0,0,0,0,0,0,0,0,0,
0,0,0,0,0,0,0,0,0,0,0,0,0,0,0,0,
0,0,0,0,0,0,0,0,0,0,0,0,0,0,0,0,
0,0,0,0,0,0,0,0,0,0,0,0,0,0,0,0,
0,0,0,0,0,0,0,0,0,0,0,0,0,0,0,0,
0,0,0,0,0,0,0,0,0,0,0,0,0,0,0,0,
0,0,0,0,0,0,0,0,0,0,0,0,0,0,0,0,
0,0,0,0,0,0,0,0,0,0,0,0,0,0,0,0,
0,0,0,0,0,0,0,0,0,0,0,0,0,0,0,0,
194,194,194,194,194,195,194,194,194,194,194,194,194,194,194,194,
27,28,26,27,28,29,26,26,26,26,27,28,26,27,26,27
</chunk>
   <chunk x="-1056" y="48" width="16" height="16">
0,0,0,0,0,0,0,0,0,0,0,0,0,0,0,0,
0,0,0,0,0,0,0,0,0,0,0,0,0,0,0,0,
0,0,0,0,0,0,0,0,0,0,0,0,0,0,0,0,
0,0,0,0,0,0,0,0,0,0,0,0,0,0,0,0,
0,0,0,0,0,0,0,0,0,0,0,0,0,0,0,0,
0,0,0,0,0,0,0,0,0,0,0,0,0,0,0,0,
0,0,0,0,0,0,0,0,0,0,0,0,0,0,0,0,
0,0,0,0,0,0,0,0,0,0,0,0,0,0,0,0,
0,0,0,0,0,0,0,0,0,0,0,0,0,0,0,0,
0,0,0,0,0,0,0,0,0,0,0,0,0,0,0,0,
0,0,0,0,0,0,0,0,0,0,0,0,0,0,0,0,
0,0,0,0,0,0,0,0,0,0,0,0,0,0,0,0,
0,0,0,0,0,0,0,0,0,0,0,0,0,0,0,0,
0,0,0,0,0,0,0,0,0,0,0,0,0,0,0,0,
194,194,194,194,194,194,194,194,194,194,194,195,194,194,194,194,
28,26,27,26,26,26,27,26,26,27,28,29,26,26,26,26
</chunk>
   <chunk x="-1040" y="48" width="16" height="16">
0,0,0,0,0,0,0,0,0,0,0,0,0,0,0,0,
0,0,0,0,0,0,0,0,0,0,0,0,0,0,0,0,
0,0,0,0,0,0,0,0,0,0,0,0,0,0,0,0,
0,0,0,0,0,0,0,0,0,0,0,0,0,0,0,0,
0,0,0,0,0,0,0,0,0,0,0,0,0,0,0,0,
0,0,0,0,0,0,0,0,0,0,0,0,0,0,0,0,
0,0,0,0,0,0,0,0,0,0,0,0,0,0,0,0,
0,0,0,0,0,0,0,0,0,0,0,0,0,0,0,0,
0,0,0,0,0,0,0,0,0,0,0,0,0,0,0,0,
0,0,0,0,0,0,0,0,0,0,0,0,0,0,0,0,
0,0,0,0,0,0,0,0,0,0,0,0,0,0,0,0,
0,0,0,0,0,0,0,0,0,0,0,0,0,0,0,0,
0,0,0,0,0,0,0,0,0,0,0,0,0,0,0,0,
0,0,0,0,0,0,0,0,0,0,0,0,0,0,0,0,
194,194,194,194,194,195,194,194,194,194,194,194,194,194,194,195,
27,28,26,27,28,29,26,26,26,26,27,28,26,27,28,29
</chunk>
   <chunk x="-1024" y="48" width="16" height="16">
0,0,0,0,0,0,0,0,0,0,0,0,0,0,0,0,
0,0,0,0,0,0,0,0,0,0,0,0,0,0,0,0,
0,0,0,0,0,0,0,0,0,0,0,0,0,0,0,0,
0,0,0,0,0,0,0,0,0,0,0,0,0,0,0,0,
0,0,0,0,0,0,0,0,0,0,0,0,0,0,0,0,
0,0,0,0,0,0,0,0,0,0,0,0,0,0,0,0,
0,0,0,0,0,0,0,0,0,0,0,0,0,0,0,0,
0,0,0,0,0,0,0,0,0,0,0,0,0,0,0,0,
0,0,0,0,0,0,0,0,0,0,0,0,0,0,0,0,
0,0,0,0,0,0,0,0,0,0,0,0,0,0,0,0,
0,0,0,0,0,0,0,0,0,0,0,0,0,0,0,0,
0,0,0,0,0,0,0,0,0,0,0,0,0,0,0,0,
0,0,0,0,0,0,0,0,0,0,0,0,0,0,0,0,
0,0,0,0,0,0,0,0,0,0,0,0,0,0,0,0,
194,194,194,194,194,194,194,194,194,195,194,194,194,194,194,194,
26,26,26,26,27,28,26,27,28,29,26,26,26,26,27,28
</chunk>
   <chunk x="-1008" y="48" width="16" height="16">
0,0,0,0,0,0,0,0,0,0,0,0,0,0,0,0,
0,0,0,0,0,0,0,0,0,0,0,0,0,0,0,0,
0,0,0,0,0,0,0,0,0,0,0,0,0,0,0,0,
0,0,0,0,0,0,0,0,0,0,0,0,0,0,0,0,
0,0,0,0,0,0,0,0,0,0,0,0,0,0,0,0,
0,0,0,0,0,0,0,0,0,0,0,0,0,0,0,0,
0,0,0,0,0,0,0,0,0,0,0,0,0,0,0,0,
0,0,0,0,0,0,0,0,0,0,0,0,0,0,0,0,
0,0,0,0,0,0,0,0,0,0,0,0,0,0,0,0,
0,0,0,0,0,0,0,0,0,0,0,0,0,0,0,0,
0,0,0,0,0,0,0,0,0,0,0,0,0,0,0,0,
0,0,0,0,0,0,0,0,0,0,0,0,0,0,0,0,
0,0,0,0,0,0,0,0,0,0,0,0,0,0,0,0,
0,0,0,0,0,0,0,0,0,0,0,0,0,0,0,0,
194,194,194,195,194,194,194,194,194,194,194,194,194,195,194,194,
26,27,28,29,26,26,26,26,27,28,26,27,28,29,26,26
</chunk>
   <chunk x="-992" y="48" width="16" height="16">
0,0,0,0,0,0,0,0,0,0,0,0,0,0,0,0,
0,0,0,0,0,0,0,0,0,0,0,0,0,0,0,0,
0,0,0,0,0,0,0,0,0,0,0,0,0,0,0,0,
0,0,0,0,0,0,0,0,0,0,0,0,0,0,0,0,
0,0,0,0,0,0,0,0,0,0,0,0,0,0,0,0,
0,0,0,0,0,0,0,0,0,0,0,0,0,0,0,0,
0,0,0,0,0,0,0,0,0,0,0,0,0,0,0,0,
0,0,0,0,0,0,0,0,0,0,0,0,0,0,0,0,
0,0,0,0,0,0,0,0,0,0,0,0,0,0,0,0,
0,0,0,0,0,0,0,0,0,0,0,0,0,0,0,0,
0,0,0,0,0,0,0,0,0,0,0,0,0,0,0,0,
0,0,0,0,0,0,0,0,0,0,0,0,0,0,0,0,
0,0,0,0,0,0,0,0,0,0,0,0,0,0,0,0,
0,0,0,0,0,0,0,0,0,0,0,0,0,0,0,0,
194,194,194,194,194,194,194,195,194,194,194,194,194,194,194,194,
26,26,27,28,26,27,28,29,26,26,26,26,27,28,26,27
</chunk>
   <chunk x="-976" y="48" width="16" height="16">
0,0,0,0,0,0,0,0,0,0,0,0,0,0,0,0,
0,0,0,0,0,0,0,0,0,0,0,0,0,0,0,0,
0,0,0,0,0,0,0,0,0,0,0,0,0,0,0,0,
0,0,0,0,0,0,0,0,0,0,0,0,0,0,0,0,
0,0,0,0,0,0,0,0,0,0,0,0,0,0,0,0,
0,0,0,0,0,0,0,0,0,0,0,0,0,0,0,0,
0,0,0,0,0,0,0,0,0,0,0,0,0,0,0,0,
0,0,0,0,0,0,0,0,0,0,0,0,0,0,0,0,
0,0,0,0,0,0,0,0,0,0,0,0,0,0,0,0,
0,0,0,0,0,0,0,0,0,0,0,0,0,0,0,0,
0,0,0,0,0,0,0,0,0,0,0,0,0,0,0,0,
0,0,0,0,0,0,0,0,0,0,0,0,0,0,0,0,
0,0,0,0,0,0,0,0,0,0,0,0,0,0,0,0,
0,0,0,0,0,0,0,0,0,0,0,0,0,0,0,0,
194,195,194,194,194,194,194,194,194,194,194,194,194,194,194,195,
28,29,26,27,28,26,27,26,26,26,27,26,26,27,28,29
</chunk>
   <chunk x="-960" y="48" width="16" height="16">
0,0,0,0,0,0,0,0,0,0,0,0,0,0,0,0,
0,0,0,0,0,0,0,0,0,0,0,0,0,0,0,0,
0,0,0,0,0,0,0,0,0,0,0,0,0,0,0,0,
0,0,0,0,0,0,0,0,0,0,0,0,0,0,0,0,
0,0,0,0,0,0,0,0,0,0,0,0,0,0,0,0,
0,0,0,0,0,0,0,0,0,0,0,0,0,0,0,0,
0,0,0,0,0,0,0,0,0,0,0,0,0,0,0,0,
0,0,0,0,0,0,0,0,0,0,0,0,0,0,0,0,
0,0,0,0,0,0,0,0,0,0,0,0,0,0,0,0,
0,0,0,0,0,0,0,0,0,0,0,0,0,0,0,0,
0,0,0,0,0,0,0,0,0,0,0,0,0,0,0,0,
0,0,0,0,0,0,0,0,0,0,0,0,0,0,0,0,
0,0,0,0,0,0,0,0,0,0,0,0,0,0,0,0,
0,0,0,0,0,0,0,0,0,0,0,0,0,0,0,0,
194,194,194,194,194,194,194,194,194,195,0,0,0,0,0,0,
26,26,26,26,27,28,26,27,28,29,0,0,0,0,0,0
</chunk>
   <chunk x="-1360" y="64" width="16" height="16">
0,0,0,0,0,0,0,0,0,0,0,0,0,0,1610612931,1610612765,
0,0,0,0,0,0,0,0,0,0,0,0,0,0,1610612931,1610612765,
0,0,0,0,0,0,0,0,0,0,0,0,0,0,1610612931,1610612765,
0,0,0,0,0,0,0,0,0,0,0,0,0,0,1610612931,1610612765,
0,0,0,0,0,0,0,0,0,0,0,0,0,0,1610612931,1610612765,
0,0,0,0,0,0,0,0,0,0,0,0,0,0,1610612931,1610612765,
0,0,0,0,0,0,0,0,0,0,0,0,0,0,1610612931,1610612765,
0,0,0,0,0,0,0,0,0,0,0,0,0,0,1610612931,1610612765,
0,0,0,0,0,0,0,0,0,0,0,0,0,0,1610612931,1610612765,
0,0,0,0,0,0,0,0,0,0,0,0,0,0,1610612931,1610612765,
0,0,0,0,0,0,0,0,0,0,0,0,0,0,1610612931,1610612765,
0,0,0,0,0,0,0,0,0,0,0,0,0,0,1610612931,1610612765,
0,0,0,0,0,0,0,0,0,0,0,0,0,0,1610612931,1610612765,
0,0,0,0,0,0,0,0,0,0,0,0,0,0,1610612931,1610612765,
0,0,0,0,0,0,0,0,0,0,0,0,0,0,1610612931,1610612765,
0,0,0,0,0,0,0,0,0,0,0,0,0,0,1610612931,1610612765
</chunk>
   <chunk x="-1344" y="64" width="16" height="16">
2684354587,2684354754,0,0,0,0,0,0,0,0,0,0,0,0,0,0,
2684354586,2684354754,0,0,0,0,0,0,0,0,0,0,0,0,0,0,
2684354586,2684354754,0,0,0,0,0,0,0,0,0,0,0,0,0,0,
2684354587,2684354754,0,0,0,0,0,0,0,0,0,0,0,0,0,0,
2684354586,2684354754,0,0,0,0,0,0,0,0,0,0,0,0,0,0,
2684354586,2684354754,0,0,0,0,0,0,0,0,0,0,0,0,0,0,
2684354587,2684354754,0,0,0,0,0,0,0,0,0,0,0,0,0,0,
2684354588,2684354754,0,0,0,0,0,0,0,0,0,0,0,0,0,0,
2684354586,2684354754,0,0,0,0,0,0,0,0,0,0,0,0,0,0,
2684354587,2684354754,0,0,0,0,0,0,0,0,0,0,0,0,0,0,
2684354588,2684354754,0,0,0,0,0,0,0,0,0,0,0,0,0,0,
2684354586,2684354754,0,0,0,0,0,0,0,0,0,0,0,0,0,0,
2684354586,2684354754,0,0,0,0,0,0,0,0,0,0,0,0,0,0,
2684354587,2684354754,0,0,0,0,0,0,0,0,0,0,0,0,0,0,
2684354588,2684354754,0,0,0,0,0,0,0,0,0,0,0,0,0,0,
2684354586,2684354754,0,0,0,0,0,0,0,0,0,0,0,0,0,0
</chunk>
   <chunk x="-1232" y="64" width="16" height="16">
0,0,0,0,0,0,0,0,0,0,0,0,0,0,1610612930,1610612762,
0,0,0,0,0,0,0,0,0,0,0,0,0,0,1610612930,1610612763,
0,0,0,0,0,0,0,0,0,0,0,0,0,0,1610612930,1610612762,
0,0,0,0,0,0,0,0,0,0,0,0,0,0,1610612930,1610612762,
0,0,0,0,0,0,0,0,0,0,0,0,0,0,1610612931,1610612763,
0,0,0,0,0,0,0,0,0,0,0,0,0,0,1610612930,1610612762,
0,0,0,0,0,0,0,0,0,0,0,0,0,0,1610612931,1610612765,
0,0,0,0,0,0,0,0,0,0,0,0,0,0,1610612931,1610612765,
0,0,0,0,0,0,0,0,0,0,0,0,0,0,1610612931,1610612765,
0,0,0,0,0,0,0,0,0,0,0,0,0,0,1610612931,1610612765,
0,0,0,0,0,0,0,0,0,0,0,0,0,0,1610612931,1610612765,
0,0,0,0,0,0,0,0,0,0,0,0,0,0,1610612931,1610612764,
0,0,0,0,0,0,0,0,0,0,0,0,0,0,1610612931,1610612763,
0,0,0,0,0,0,0,0,0,0,0,0,0,0,1610612930,1610612762,
0,0,0,0,0,0,0,0,0,0,0,0,0,0,1610612931,1610612765,
0,0,0,0,0,0,0,0,0,0,0,0,0,0,1610612931,1610612765
</chunk>
   <chunk x="-1216" y="64" width="16" height="16">
1610612786,2684354613,50,50,50,50,50,50,51,52,50,51,52,53,50,50,
1610612787,2684354612,3221225525,3221225525,3221225525,3221225525,3221225525,3221225525,3221225525,3221225525,3221225525,3221225524,3221225523,3221225522,3221225525,3221225525,
1610612786,2684354613,3221225501,3221225501,3221225501,3221225501,3221225501,3221225501,3221225501,3221225501,3221225501,3221225500,3221225499,3221225498,3221225501,3221225501,
1610612786,2684354613,2684354586,2684354754,3221225667,3221225667,3221225667,3221225667,3221225667,3221225667,3221225667,3221225667,3221225667,3221225666,3221225667,3221225667,
1610612787,2684354612,2684354588,2684354754,0,0,0,0,0,0,0,0,0,0,0,0,
1610612786,2684354613,2684354589,2684354755,0,0,0,0,0,0,0,0,0,0,0,0,
1610612789,2684354610,2684354586,2684354754,0,0,0,0,0,0,0,0,0,0,0,0,
1610612789,2684354610,2684354586,2684354754,0,0,0,0,0,0,0,0,0,0,0,0,
1610612789,2684354611,2684354587,2684354754,0,0,0,0,0,0,0,0,0,0,0,0,
1610612789,2684354612,2684354588,2684354754,0,0,0,0,0,0,0,0,0,0,0,0,
1610612789,2684354610,2684354586,2684354754,0,0,0,0,0,0,0,0,0,0,0,0,
1610612788,2684354611,2684354587,2684354754,0,0,0,0,0,0,0,0,0,0,0,0,
1610612787,2684354612,2684354588,2684354754,0,0,0,0,0,0,0,0,0,0,0,0,
1610612786,2684354613,2684354589,2684354755,0,0,0,0,0,0,0,0,0,0,0,0,
1610612789,2684354610,2684354586,2684354754,0,0,0,0,0,0,0,0,0,0,0,0,
1610612789,2684354611,2684354587,2684354754,0,0,0,0,0,0,0,0,0,0,0,0
</chunk>
   <chunk x="-1200" y="64" width="16" height="16">
50,50,51,52,50,51,52,53,50,50,50,50,51,52,50,51,
3221225525,3221225525,3221225525,3221225525,3221225525,3221225524,3221225523,3221225522,3221225525,3221225525,3221225525,3221225525,3221225525,3221225525,3221225525,3221225524,
3221225501,3221225501,3221225501,3221225501,3221225501,3221225500,3221225499,3221225498,3221225501,3221225501,3221225501,3221225501,3221225501,3221225501,3221225501,3221225500,
3221225667,3221225667,3221225667,3221225667,3221225667,3221225667,3221225667,3221225666,3221225667,3221225667,3221225667,3221225667,3221225667,3221225667,3221225667,3221225667,
0,0,0,0,0,0,0,0,0,0,0,0,0,0,0,0,
0,0,0,0,0,0,0,0,0,0,0,0,0,0,0,0,
0,0,0,0,0,0,0,0,0,0,0,0,0,0,0,0,
0,0,0,0,0,0,0,0,0,0,0,0,0,0,0,0,
0,0,0,0,0,0,0,0,0,0,0,0,0,0,0,0,
0,0,0,0,0,0,0,0,0,0,0,0,0,0,0,0,
0,0,0,0,0,0,0,0,0,0,0,0,0,0,0,0,
0,0,0,0,0,0,0,0,0,0,0,0,0,0,0,0,
0,0,0,0,0,0,0,0,0,0,0,0,0,0,0,0,
0,0,0,0,0,0,0,0,0,0,0,0,0,0,0,0,
0,0,0,0,0,0,0,0,0,0,0,0,0,0,0,0,
0,0,0,0,0,0,0,0,0,0,0,0,0,0,0,0
</chunk>
   <chunk x="-1184" y="64" width="16" height="16">
52,53,50,50,50,50,51,52,50,51,52,53,50,50,50,50,
3221225523,3221225522,3221225525,3221225525,3221225525,3221225525,3221225525,3221225525,3221225525,3221225524,3221225523,3221225522,3221225525,3221225525,3221225525,3221225525,
3221225499,3221225498,3221225501,3221225501,3221225501,3221225501,3221225501,3221225501,3221225501,3221225500,3221225499,3221225498,3221225501,3221225501,3221225501,3221225501,
3221225667,3221225666,3221225667,3221225667,3221225667,3221225667,3221225667,3221225667,3221225667,3221225667,3221225667,3221225666,3221225667,3221225667,3221225667,3221225667,
0,0,0,0,0,0,0,0,0,0,0,0,0,0,0,0,
0,0,0,0,0,0,0,0,0,0,0,0,0,0,0,0,
0,0,0,0,0,0,0,0,0,0,0,0,0,0,0,0,
0,0,0,0,0,0,0,0,0,0,0,0,0,0,0,0,
0,0,0,0,0,0,0,0,0,0,0,0,0,0,0,0,
0,0,0,0,0,0,0,0,0,0,0,0,0,0,0,0,
0,0,0,0,0,0,0,0,0,0,0,0,0,0,0,0,
0,0,0,0,0,0,0,0,0,0,0,0,0,0,0,0,
0,0,0,0,0,0,0,0,0,0,0,0,0,0,0,0,
0,0,0,0,0,0,0,0,0,0,0,0,0,0,0,0,
0,0,0,0,0,0,0,0,0,0,0,0,0,0,0,0,
0,0,0,0,0,0,0,0,0,0,0,0,0,0,0,0
</chunk>
   <chunk x="-1168" y="64" width="16" height="16">
51,52,50,51,52,53,50,50,50,50,51,52,50,51,52,53,
3221225525,3221225525,3221225525,3221225524,3221225523,3221225522,3221225525,3221225525,3221225525,3221225525,3221225525,3221225525,3221225525,3221225524,3221225523,3221225522,
3221225501,3221225501,3221225501,3221225500,3221225499,3221225498,3221225501,3221225501,3221225501,3221225501,3221225501,3221225501,3221225501,3221225500,3221225499,3221225498,
3221225667,3221225667,3221225667,3221225667,3221225667,3221225666,3221225667,3221225667,3221225667,3221225667,3221225667,3221225667,3221225667,3221225667,3221225667,3221225666,
0,0,0,0,0,0,0,0,0,0,0,0,0,0,0,0,
0,0,0,0,0,0,0,0,0,0,0,0,0,0,0,0,
0,0,0,0,0,0,0,0,0,0,0,0,0,0,0,0,
0,0,0,0,0,0,0,0,0,0,0,0,0,0,0,0,
0,0,0,0,0,0,0,0,0,0,0,0,0,0,0,0,
0,0,0,0,0,0,0,0,0,0,0,0,0,0,0,0,
0,0,0,0,0,0,0,0,0,0,0,0,0,0,0,0,
0,0,0,0,0,0,0,0,0,0,0,0,0,0,0,0,
0,0,0,0,0,0,0,0,0,0,0,0,0,0,0,0,
0,0,0,0,0,0,0,0,0,0,0,0,0,0,0,0,
0,0,0,0,0,0,0,0,0,0,0,0,0,0,0,0,
0,0,0,0,0,0,0,0,0,0,0,0,0,0,0,0
</chunk>
   <chunk x="-1152" y="64" width="16" height="16">
50,50,50,50,51,52,50,51,52,53,50,50,51,52,50,51,
3221225525,3221225525,3221225525,3221225525,3221225525,3221225525,3221225525,3221225524,3221225523,3221225522,3221225525,3221225525,3221225525,3221225525,3221225525,3221225524,
3221225501,3221225501,3221225501,3221225501,3221225501,3221225501,3221225501,3221225500,3221225499,3221225498,3221225501,3221225501,3221225501,3221225501,3221225501,3221225500,
3221225667,3221225667,3221225667,3221225667,3221225667,3221225667,3221225667,3221225667,3221225667,3221225666,3221225667,3221225667,3221225667,3221225667,3221225667,3221225667,
0,0,0,0,0,0,0,0,0,0,0,0,0,0,0,0,
0,0,0,0,0,0,0,0,0,0,0,0,0,0,0,0,
0,0,0,0,0,0,0,0,0,0,0,0,0,0,0,0,
0,0,0,0,0,0,0,0,0,0,0,0,0,0,0,0,
0,0,0,0,0,0,0,0,0,0,0,0,0,0,0,0,
0,0,0,0,0,0,0,0,0,0,0,0,0,0,0,0,
0,0,0,0,0,0,0,0,0,0,0,0,0,0,0,0,
0,0,0,0,0,0,0,0,0,0,0,0,0,0,0,0,
0,0,0,0,0,0,0,0,0,0,0,0,0,0,0,0,
0,0,0,0,0,0,0,0,0,0,0,0,0,0,0,0,
0,0,0,0,0,0,0,0,0,0,0,0,0,0,0,0,
0,0,0,0,0,0,0,0,0,0,0,0,0,0,0,0
</chunk>
   <chunk x="-1136" y="64" width="16" height="16">
52,53,50,50,50,50,51,52,50,51,52,53,50,50,50,50,
3221225523,3221225522,3221225525,3221225525,3221225525,3221225525,3221225525,3221225525,3221225525,3221225524,3221225523,3221225522,3221225525,3221225525,3221225525,3221225525,
3221225499,3221225498,3221225501,3221225501,3221225501,3221225501,3221225501,3221225501,3221225501,3221225500,3221225499,3221225498,3221225501,3221225501,3221225501,3221225501,
3221225667,3221225666,3221225667,3221225667,3221225667,3221225667,3221225667,3221225667,3221225667,3221225667,3221225667,3221225666,3221225667,3221225667,3221225667,3221225667,
0,0,0,0,0,0,0,0,0,0,0,0,0,0,0,0,
0,0,0,0,0,0,0,0,0,0,0,0,0,0,0,0,
0,0,0,0,0,0,0,0,0,0,0,0,0,0,0,0,
0,0,0,0,0,0,0,0,0,0,0,0,0,0,0,0,
0,0,0,0,0,0,0,0,0,0,0,0,0,0,0,0,
0,0,0,0,0,0,0,0,0,0,0,0,0,0,0,0,
0,0,0,0,0,0,0,0,0,0,0,0,0,0,0,0,
0,0,0,0,0,0,0,0,0,0,0,0,0,0,0,0,
0,0,0,0,0,0,0,0,0,0,0,0,0,0,0,0,
0,0,0,0,0,0,0,0,0,0,0,0,0,0,0,0,
0,0,0,0,0,0,0,0,0,0,0,0,0,0,0,0,
0,0,0,0,0,0,0,0,0,0,0,0,0,0,0,0
</chunk>
   <chunk x="-1120" y="64" width="16" height="16">
51,52,50,51,52,53,50,50,51,52,50,51,52,53,50,50,
3221225525,3221225525,3221225525,3221225524,3221225523,3221225522,3221225525,3221225525,3221225525,3221225525,3221225525,3221225524,3221225523,3221225522,3221225525,3221225525,
3221225501,3221225501,3221225501,3221225500,3221225499,3221225498,3221225501,3221225501,3221225501,3221225501,3221225501,3221225500,3221225499,3221225498,3221225501,3221225501,
3221225667,3221225667,3221225667,3221225667,3221225667,3221225666,3221225667,3221225667,3221225667,3221225667,3221225667,3221225667,3221225667,3221225666,3221225667,3221225667,
0,0,0,0,0,0,0,0,0,0,0,0,0,0,0,0,
0,0,0,0,0,0,0,0,0,0,0,0,0,0,0,0,
0,0,0,0,0,0,0,0,0,0,0,0,0,0,0,0,
0,0,0,0,0,0,0,0,0,0,0,0,0,0,0,0,
0,0,0,0,0,0,0,0,0,0,0,0,0,0,0,0,
0,0,0,0,0,0,0,0,0,0,0,0,0,0,0,0,
0,0,0,0,0,0,0,0,0,0,0,0,0,0,0,0,
0,0,0,0,0,0,0,0,0,0,0,0,0,0,0,0,
0,0,0,0,0,0,0,0,0,0,0,0,0,0,0,0,
0,0,0,0,0,0,0,0,0,0,0,0,0,0,0,0,
0,0,0,0,0,0,0,0,0,0,0,0,0,0,0,0,
0,0,0,0,0,0,0,0,0,0,0,0,0,0,0,0
</chunk>
   <chunk x="-1104" y="64" width="16" height="16">
50,50,51,52,50,51,52,53,50,50,50,50,51,52,50,51,
3221225525,3221225525,3221225525,3221225525,3221225525,3221225524,3221225523,3221225522,3221225525,3221225525,3221225525,3221225525,3221225525,3221225525,3221225525,3221225524,
3221225501,3221225501,3221225501,3221225501,3221225501,3221225500,3221225499,3221225498,3221225501,3221225501,3221225501,3221225501,3221225501,3221225501,3221225501,3221225500,
3221225667,3221225667,3221225667,3221225667,3221225667,3221225667,3221225667,3221225666,3221225667,3221225667,3221225667,3221225667,3221225667,3221225667,3221225667,3221225667,
0,0,0,0,0,0,0,0,0,0,0,0,0,0,0,0,
0,0,0,0,0,0,0,0,0,0,0,0,0,0,0,0,
0,0,0,0,0,0,0,0,0,0,0,0,0,0,0,0,
0,0,0,0,0,0,0,0,0,0,0,0,0,0,0,0,
0,0,0,0,0,0,0,0,0,0,0,0,0,0,0,0,
0,0,0,0,0,0,0,0,0,0,0,0,0,0,0,0,
0,0,0,0,0,0,0,0,0,0,0,0,0,0,0,0,
0,0,0,0,0,0,0,0,0,0,0,0,0,0,0,0,
0,0,0,0,0,0,0,0,0,0,0,0,0,0,0,0,
0,0,0,0,0,0,0,0,0,0,0,0,0,0,0,0,
0,0,0,0,0,0,0,0,0,0,0,0,0,0,0,0,
0,0,0,0,0,0,0,0,0,0,0,0,0,0,0,0
</chunk>
   <chunk x="-1088" y="64" width="16" height="16">
52,53,50,50,50,50,51,52,50,51,52,53,50,50,50,50,
3221225523,3221225522,3221225525,3221225525,3221225525,3221225525,3221225525,3221225525,3221225525,3221225524,3221225523,3221225522,3221225525,3221225525,3221225525,3221225525,
3221225499,3221225498,3221225501,3221225501,3221225501,3221225501,3221225501,3221225501,3221225501,3221225500,3221225499,3221225498,3221225501,3221225501,3221225501,3221225501,
3221225667,3221225666,3221225667,3221225667,3221225667,3221225667,3221225667,3221225667,3221225667,3221225667,3221225667,3221225666,3221225667,3221225667,3221225667,3221225667,
0,0,0,0,0,0,0,0,0,0,0,0,0,0,0,0,
0,0,0,0,0,0,0,0,0,0,0,0,0,0,0,0,
0,0,0,0,0,0,0,0,0,0,0,0,0,0,0,0,
0,0,0,0,0,0,0,0,0,0,0,0,0,0,0,0,
0,0,0,0,0,0,0,0,0,0,0,0,0,0,0,0,
0,0,0,0,0,0,0,0,0,0,0,0,0,0,0,0,
0,0,0,0,0,0,0,0,0,0,0,0,0,0,0,0,
0,0,0,0,0,0,0,0,0,0,0,0,0,0,0,0,
0,0,0,0,0,0,0,0,0,0,0,0,0,0,0,0,
0,0,0,0,0,0,0,0,0,0,0,0,0,0,0,0,
0,0,0,0,0,0,0,0,0,0,0,0,0,0,0,0,
0,0,0,0,0,0,0,0,0,0,0,0,0,0,0,0
</chunk>
   <chunk x="-1072" y="64" width="16" height="16">
51,52,50,51,52,53,50,50,50,50,51,52,50,51,50,51,
3221225525,3221225525,3221225525,3221225524,3221225523,3221225522,3221225525,3221225525,3221225525,3221225525,3221225525,3221225525,3221225525,3221225524,3221225525,3221225524,
3221225501,3221225501,3221225501,3221225500,3221225499,3221225498,3221225501,3221225501,3221225501,3221225501,3221225501,3221225501,3221225501,3221225500,3221225501,3221225500,
3221225667,3221225667,3221225667,3221225667,3221225667,3221225666,3221225667,3221225667,3221225667,3221225667,3221225667,3221225667,3221225667,3221225667,3221225667,3221225667,
0,0,0,0,0,0,0,0,0,0,0,0,0,0,0,0,
0,0,0,0,0,0,0,0,0,0,0,0,0,0,0,0,
0,0,0,0,0,0,0,0,0,0,0,0,0,0,0,0,
0,0,0,0,0,0,0,0,0,0,0,0,0,0,0,0,
0,0,0,0,0,0,0,0,0,0,0,0,0,0,0,0,
0,0,0,0,0,0,0,0,0,0,0,0,0,0,0,0,
0,0,0,0,0,0,0,0,0,0,0,0,0,0,0,0,
0,0,0,0,0,0,0,0,0,0,0,0,0,0,0,0,
0,0,0,0,0,0,0,0,0,0,0,0,0,0,0,0,
0,0,0,0,0,0,0,0,0,0,0,0,0,0,0,0,
0,0,0,0,0,0,0,0,0,0,0,0,0,0,0,0,
0,0,0,0,0,0,0,0,0,0,0,0,0,0,0,0
</chunk>
   <chunk x="-1056" y="64" width="16" height="16">
52,50,51,50,50,50,51,50,50,51,52,53,50,50,50,50,
3221225523,3221225525,3221225524,3221225523,3221225525,3221225525,3221225524,3221225525,3221225525,3221225524,3221225523,3221225522,3221225525,3221225525,3221225525,3221225525,
3221225499,3221225501,3221225500,3221225499,3221225498,1610612765,1610612789,2684354610,2684354586,3221225501,3221225501,3221225501,3221225501,3221225501,3221225501,3221225501,
3221225667,3221225667,3221225667,3221225667,1610612931,1610612765,1610612789,2684354610,2684354586,2684354754,3221225667,3221225667,3221225667,3221225667,3221225667,3221225667,
0,0,0,0,1610612931,1610612765,1610612789,2684354610,2684354586,2684354754,0,0,0,0,0,0,
0,0,0,0,1610612931,1610612765,1610612789,2684354610,2684354586,2684354754,0,0,0,0,0,0,
0,0,0,0,1610612931,1610612765,1610612789,2684354611,2684354586,2684354754,0,0,0,0,0,0,
0,0,0,0,1610612931,1610612765,1610612789,2684354612,2684354586,2684354754,0,0,0,0,0,0,
0,0,0,0,1610612931,1610612765,1610612789,2684354610,2684354586,2684354754,0,0,0,0,0,0,
0,0,0,0,1610612931,1610612765,1610612789,2684354612,2684354588,2684354754,0,0,0,0,0,0,
0,0,0,0,1610612931,1610612765,1610612789,2684354610,2684354586,2684354754,0,0,0,0,0,0,
0,0,0,0,1610612931,1610612764,1610612788,2684354611,2684354587,2684354754,0,0,0,0,0,0,
0,0,0,0,1610612931,1610612763,1610612787,2684354612,2684354588,2684354754,0,0,0,0,0,0,
0,0,0,0,1610612930,1610612762,1610612786,2684354613,2684354589,2684354755,0,0,0,0,0,0,
0,0,0,0,1610612931,1610612765,1610612789,2684354610,2684354586,2684354754,0,0,0,0,0,0,
0,0,0,0,1610612931,1610612765,1610612789,2684354611,2684354587,2684354754,0,0,0,0,0,0
</chunk>
   <chunk x="-1040" y="64" width="16" height="16">
51,52,50,51,52,53,50,50,50,50,51,52,50,51,52,53,
3221225525,3221225525,3221225525,3221225524,3221225523,3221225522,3221225525,3221225525,3221225525,3221225525,3221225525,3221225525,3221225525,3221225524,3221225523,3221225522,
3221225501,3221225501,3221225501,3221225500,3221225499,3221225498,3221225501,3221225501,3221225501,3221225501,3221225501,3221225501,3221225501,3221225500,3221225499,3221225498,
3221225667,3221225667,3221225667,3221225667,3221225667,3221225666,3221225667,3221225667,3221225667,3221225667,3221225667,3221225667,3221225667,3221225667,3221225667,3221225666,
0,0,0,0,0,0,0,0,0,0,0,0,0,0,0,0,
0,0,0,0,0,0,0,0,0,0,0,0,0,0,0,0,
0,0,0,0,0,0,0,0,0,0,0,0,0,0,0,0,
0,0,0,0,0,0,0,0,0,0,0,0,0,0,0,0,
0,0,0,0,0,0,0,0,0,0,0,0,0,0,0,0,
0,0,0,0,0,0,0,0,0,0,0,0,0,0,0,0,
0,0,0,0,0,0,0,0,0,0,0,0,0,0,0,0,
0,0,0,0,0,0,0,0,0,0,0,0,0,0,0,0,
0,0,0,0,0,0,0,0,0,0,0,0,0,0,0,0,
0,0,0,0,0,0,0,0,0,0,0,0,0,0,0,0,
0,0,0,0,0,0,0,0,0,0,0,0,0,0,0,0,
0,0,0,0,0,0,0,0,0,0,0,0,0,0,0,0
</chunk>
   <chunk x="-1024" y="64" width="16" height="16">
50,50,50,50,51,52,50,51,52,53,50,50,50,50,51,52,
3221225525,3221225525,3221225525,3221225525,3221225525,3221225525,3221225525,3221225524,3221225523,3221225522,3221225525,3221225525,3221225525,3221225525,3221225525,3221225525,
3221225501,3221225501,3221225501,3221225501,3221225501,3221225501,3221225501,3221225500,3221225499,3221225498,3221225501,3221225501,3221225501,3221225501,3221225501,3221225501,
3221225667,3221225667,3221225667,3221225667,3221225667,3221225667,3221225667,3221225667,3221225667,3221225666,3221225667,3221225667,3221225667,3221225667,3221225667,3221225667,
0,0,0,0,0,0,0,0,0,0,0,0,0,0,0,0,
0,0,0,0,0,0,0,0,0,0,0,0,0,0,0,0,
0,0,0,0,0,0,0,0,0,0,0,0,0,0,0,0,
0,0,0,0,0,0,0,0,0,0,0,0,0,0,0,0,
0,0,0,0,0,0,0,0,0,0,0,0,0,0,0,0,
0,0,0,0,0,0,0,0,0,0,0,0,0,0,0,0,
0,0,0,0,0,0,0,0,0,0,0,0,0,0,0,0,
0,0,0,0,0,0,0,0,0,0,0,0,0,0,0,0,
0,0,0,0,0,0,0,0,0,0,0,0,0,0,0,0,
0,0,0,0,0,0,0,0,0,0,0,0,0,0,0,0,
0,0,0,0,0,0,0,0,0,0,0,0,0,0,0,0,
0,0,0,0,0,0,0,0,0,0,0,0,0,0,0,0
</chunk>
   <chunk x="-1008" y="64" width="16" height="16">
50,51,52,53,50,50,50,50,51,52,50,51,52,53,50,50,
3221225525,3221225524,3221225523,3221225522,3221225525,3221225525,3221225525,3221225525,3221225525,3221225525,3221225525,3221225524,3221225523,3221225522,3221225525,3221225525,
3221225501,3221225500,3221225499,3221225498,3221225501,3221225501,3221225501,3221225501,3221225501,3221225501,3221225501,3221225500,3221225499,3221225498,3221225501,3221225501,
3221225667,3221225667,3221225667,3221225666,3221225667,3221225667,3221225667,3221225667,3221225667,3221225667,3221225667,3221225667,3221225667,3221225666,3221225667,3221225667,
0,0,0,0,0,0,0,0,0,0,0,0,0,0,0,0,
0,0,0,0,0,0,0,0,0,0,0,0,0,0,0,0,
0,0,0,0,0,0,0,0,0,0,0,0,0,0,0,0,
0,0,0,0,0,0,0,0,0,0,0,0,0,0,0,0,
0,0,0,0,0,0,0,0,0,0,0,0,0,0,0,0,
0,0,0,0,0,0,0,0,0,0,0,0,0,0,0,0,
0,0,0,0,0,0,0,0,0,0,0,0,0,0,0,0,
0,0,0,0,0,0,0,0,0,0,0,0,0,0,0,0,
0,0,0,0,0,0,0,0,0,0,0,0,0,0,0,0,
0,0,0,0,0,0,0,0,0,0,0,0,0,0,0,0,
0,0,0,0,0,0,0,0,0,0,0,0,0,0,0,0,
0,0,0,0,0,0,0,0,0,0,0,0,0,0,0,0
</chunk>
   <chunk x="-992" y="64" width="16" height="16">
50,50,51,52,50,51,52,53,50,50,50,50,51,52,50,51,
3221225525,3221225525,3221225525,3221225525,3221225525,3221225524,3221225523,3221225522,3221225525,3221225525,3221225525,3221225525,3221225525,3221225525,3221225525,3221225524,
3221225501,3221225501,3221225501,3221225501,3221225501,3221225500,3221225499,3221225498,3221225501,3221225501,3221225501,3221225501,3221225501,3221225501,3221225501,3221225500,
3221225667,3221225667,3221225667,3221225667,3221225667,3221225667,3221225667,3221225666,3221225667,3221225667,3221225667,3221225667,3221225667,3221225667,3221225667,3221225667,
0,0,0,0,0,0,0,0,0,0,0,0,0,0,0,0,
0,0,0,0,0,0,0,0,0,0,0,0,0,0,0,0,
0,0,0,0,0,0,0,0,0,0,0,0,0,0,0,0,
0,0,0,0,0,0,0,0,0,0,0,0,0,0,0,0,
0,0,0,0,0,0,0,0,0,0,0,0,0,0,0,0,
0,0,0,0,0,0,0,0,0,0,0,0,0,0,0,0,
0,0,0,0,0,0,0,0,0,0,0,0,0,0,0,0,
0,0,0,0,0,0,0,0,0,0,0,0,0,0,0,0,
0,0,0,0,0,0,0,0,0,0,0,0,0,0,0,0,
0,0,0,0,0,0,0,0,0,0,0,0,0,0,0,0,
0,0,0,0,0,0,0,0,0,0,0,0,0,0,0,0,
0,0,0,0,0,0,0,0,0,0,0,0,0,0,0,0
</chunk>
   <chunk x="-976" y="64" width="16" height="16">
52,53,50,51,52,50,51,50,50,50,51,50,50,51,52,53,
3221225523,3221225522,3221225525,3221225524,3221225523,3221225525,3221225524,3221225523,3221225525,3221225525,3221225524,3221225525,3221225525,3221225524,3221225523,3221225522,
3221225499,3221225498,3221225501,3221225500,3221225499,3221225501,3221225500,3221225499,3221225498,1610612765,1610612789,2684354610,2684354586,3221225501,3221225501,3221225501,
3221225667,3221225666,3221225667,3221225667,3221225667,3221225667,3221225667,3221225667,1610612931,1610612765,1610612789,2684354610,2684354586,2684354754,3221225667,3221225667,
0,0,0,0,0,0,0,0,1610612931,1610612765,1610612789,2684354610,2684354586,2684354754,0,0,
0,0,0,0,0,0,0,0,1610612931,1610612765,1610612789,2684354610,2684354586,2684354754,0,0,
0,0,0,0,0,0,0,0,1610612931,1610612765,1610612789,2684354611,2684354586,2684354754,0,0,
0,0,0,0,0,0,0,0,1610612931,1610612765,1610612789,2684354612,2684354586,2684354754,0,0,
0,0,0,0,0,0,0,0,1610612931,1610612765,1610612789,2684354610,2684354586,2684354754,0,0,
0,0,0,0,0,0,0,0,1610612931,1610612765,1610612789,2684354612,2684354588,2684354754,0,0,
0,0,0,0,0,0,0,0,1610612931,1610612765,1610612789,2684354610,2684354586,2684354754,0,0,
0,0,0,0,0,0,0,0,1610612931,1610612764,1610612788,2684354611,2684354587,2684354754,0,0,
0,0,0,0,0,0,0,0,1610612931,1610612763,1610612787,2684354612,2684354588,2684354754,0,0,
0,0,0,0,0,0,0,0,1610612930,1610612762,1610612786,2684354613,2684354589,2684354755,0,0,
0,0,0,0,0,0,0,0,1610612931,1610612765,1610612789,2684354610,2684354586,2684354754,0,0,
0,0,0,0,0,0,0,0,1610612931,1610612765,1610612789,2684354611,2684354587,2684354754,0,0
</chunk>
   <chunk x="-960" y="64" width="16" height="16">
50,50,50,50,51,52,50,51,52,53,0,0,0,0,0,0,
3221225525,3221225525,3221225525,3221225525,3221225525,3221225525,3221225525,3221225524,3221225523,3221225522,0,0,0,0,0,0,
3221225501,3221225501,3221225501,3221225501,3221225501,3221225501,3221225501,3221225500,3221225499,3221225498,0,0,0,0,0,0,
3221225667,3221225667,3221225667,3221225667,3221225667,3221225667,3221225667,3221225667,3221225667,3221225666,0,0,0,0,0,0,
0,0,0,0,0,0,0,0,0,0,0,0,0,0,0,0,
0,0,0,0,0,0,0,0,0,0,0,0,0,0,0,0,
0,0,0,0,0,0,0,0,0,0,0,0,0,0,0,0,
0,0,0,0,0,0,0,0,0,0,0,0,0,0,0,0,
0,0,0,0,0,0,0,0,0,0,0,0,0,0,0,0,
0,0,0,0,0,0,0,0,0,0,0,0,0,0,0,0,
0,0,0,0,0,0,0,0,0,0,0,0,0,0,0,0,
0,0,0,0,0,0,0,0,0,0,0,0,0,0,0,0,
0,0,0,0,0,0,0,0,0,0,0,0,0,0,0,0,
0,0,0,0,0,0,0,0,0,0,0,0,0,0,0,0,
0,0,0,0,0,0,0,0,0,0,0,0,0,0,0,0,
0,0,0,0,0,0,0,0,0,0,0,0,0,0,0,0
</chunk>
   <chunk x="-1360" y="80" width="16" height="16">
0,0,0,0,0,0,0,0,0,0,0,0,0,0,1610612931,1610612765,
0,0,0,0,0,0,0,0,0,0,0,0,0,0,1610612931,1610612765,
0,0,0,0,0,0,0,0,0,0,0,0,0,0,1610612931,1610612765,
0,0,0,0,0,0,0,0,0,0,0,0,0,0,1610612931,1610612765,
0,0,0,0,0,0,0,0,0,0,0,0,0,0,1610612931,1610612765,
0,0,0,0,0,0,0,0,0,0,0,0,0,0,1610612931,1610612765,
0,0,0,0,0,0,0,0,0,0,0,0,0,0,1610612931,1610612765,
0,0,0,0,0,0,0,0,0,0,0,0,0,0,1610612931,1610612765,
0,0,0,0,0,0,0,0,0,0,0,0,0,0,1610612931,1610612765,
0,0,0,0,0,0,0,0,0,0,0,0,0,0,1610612931,1610612765,
0,0,0,0,0,0,0,0,0,0,0,0,0,0,1610612931,1610612765,
0,0,0,0,0,0,0,0,0,0,0,0,0,0,1610612931,1610612765,
0,0,0,0,0,0,0,0,0,0,0,0,0,0,1610612931,1610612765,
0,0,0,0,0,0,0,0,0,0,0,0,0,0,1610612931,1610612765,
0,0,0,0,0,0,0,0,0,0,0,0,0,0,1610612931,1610612765,
0,0,0,0,0,0,0,0,0,0,0,0,0,0,1610612931,1610612765
</chunk>
   <chunk x="-1344" y="80" width="16" height="16">
2684354587,2684354754,0,0,0,0,0,0,0,0,0,0,0,0,0,0,
2684354586,2684354754,0,0,0,0,0,0,0,0,0,0,0,0,0,0,
2684354586,2684354754,0,0,0,0,0,0,0,0,0,0,0,0,0,0,
2684354586,2684354754,0,0,0,0,0,0,0,0,0,0,0,0,0,0,
2684354586,2684354754,0,0,0,0,0,0,0,0,0,0,0,0,0,0,
2684354586,2684354754,0,0,0,0,0,0,0,0,0,0,0,0,0,0,
2684354586,2684354754,0,0,0,0,0,0,0,0,0,0,0,0,0,0,
2684354586,2684354754,0,0,0,0,0,0,0,0,0,0,0,0,0,0,
2684354587,2684354754,0,0,0,0,0,0,0,0,0,0,0,0,0,0,
2684354588,2684354754,0,0,0,0,0,0,0,0,0,0,0,0,0,0,
2684354586,2684354754,0,0,0,0,0,0,0,0,0,0,0,0,0,0,
2684354587,2684354754,0,0,0,0,0,0,0,0,0,0,0,0,0,0,
2684354588,2684354754,0,0,0,0,0,0,0,0,0,0,0,0,0,0,
2684354586,2684354754,0,0,0,0,0,0,0,0,0,0,0,0,0,0,
2684354586,2684354754,0,0,0,0,0,0,0,0,0,0,0,0,0,0,
2684354587,2684354754,0,0,0,0,0,0,0,0,0,0,0,0,0,0
</chunk>
   <chunk x="-1232" y="80" width="16" height="16">
0,0,0,0,0,0,0,0,0,0,0,0,0,0,1610612931,1610612765,
0,0,0,0,0,0,0,0,0,0,0,0,0,0,1610612931,1610612765,
0,0,0,0,0,0,0,0,0,0,0,0,0,0,1610612931,1610612764,
0,0,0,0,0,0,0,0,0,0,0,0,0,0,1610612931,1610612763,
0,0,0,0,0,0,0,0,0,0,0,0,0,0,1610612930,1610612762,
0,0,0,0,0,0,0,0,0,0,0,0,0,0,1610612931,1610612764,
0,0,0,0,0,0,0,0,0,0,0,0,0,0,1610612931,1610612763,
0,0,0,0,0,0,0,0,0,0,0,0,0,0,1610612930,1610612762,
0,0,0,0,0,0,0,0,0,0,0,0,0,0,1610612931,1610612765,
0,0,0,0,0,0,0,0,0,0,0,0,0,0,1610612931,1610612765,
0,0,0,0,0,0,0,0,0,0,0,0,0,0,1610612931,1610612765,
0,0,0,0,0,0,0,0,0,0,0,0,0,0,1610612931,1610612765,
0,0,0,0,0,0,0,0,0,0,0,0,0,0,1610612931,1610612765,
0,0,0,0,0,0,0,0,0,0,0,0,0,0,1610612931,1610612764,
0,0,0,0,0,0,0,0,0,0,0,0,0,0,1610612931,1610612763,
0,0,0,0,0,0,0,0,0,0,0,0,0,0,1610612930,1610612762
</chunk>
   <chunk x="-1216" y="80" width="16" height="16">
1610612789,2684354612,2684354588,2684354754,0,0,0,0,0,0,0,0,0,0,0,0,
1610612789,2684354610,2684354586,2684354754,0,0,0,0,0,0,0,0,0,0,0,0,
1610612788,2684354611,2684354587,2684354754,0,0,0,0,0,0,0,0,0,0,0,0,
1610612787,2684354612,2684354588,2684354754,0,0,0,0,0,0,0,0,0,0,0,0,
1610612786,2684354613,2684354589,2684354755,0,0,0,0,0,0,0,0,0,0,0,0,
1610612788,2684354611,2684354587,2684354754,0,0,0,0,0,0,0,0,0,0,0,0,
1610612787,2684354612,2684354588,2684354754,0,0,0,0,0,0,0,0,0,0,0,0,
1610612786,2684354613,2684354589,2684354755,0,0,0,0,0,0,0,0,0,0,0,0,
1610612789,2684354610,2684354586,2684354754,0,0,0,0,0,0,0,0,0,0,0,0,
1610612789,2684354610,2684354586,2684354754,0,0,0,0,0,0,0,0,0,0,0,0,
1610612789,2684354611,2684354587,2684354754,0,0,0,0,0,0,0,0,0,0,0,0,
1610612789,2684354612,2684354588,2684354754,0,0,0,0,0,0,0,0,0,0,0,0,
1610612789,2684354610,2684354586,2684354754,0,0,0,0,0,0,0,0,0,0,0,0,
1610612788,2684354611,2684354587,2684354754,0,0,0,0,0,0,0,0,0,0,0,0,
1610612787,2684354612,2684354588,2684354754,0,0,0,0,0,0,0,0,0,0,0,0,
1610612786,2684354613,2684354589,2684354755,0,0,0,0,0,0,0,0,0,0,0,0
</chunk>
   <chunk x="-1056" y="80" width="16" height="16">
0,0,0,0,1610612931,1610612765,1610612789,2684354612,2684354588,2684354754,0,0,0,0,0,0,
0,0,0,0,1610612931,1610612765,1610612789,2684354610,2684354586,2684354754,0,0,0,0,0,0,
0,0,0,0,1610612931,1610612764,1610612788,2684354611,2684354587,2684354754,0,0,0,0,0,0,
0,0,0,0,1610612931,1610612763,1610612787,2684354612,2684354588,2684354754,0,0,0,0,0,0,
0,0,0,0,1610612930,1610612762,1610612786,2684354613,2684354589,2684354755,0,0,0,0,0,0,
0,0,0,0,1610612931,1610612764,1610612788,2684354611,2684354587,2684354754,0,0,0,0,0,0,
0,0,0,0,1610612931,1610612763,1610612787,2684354612,2684354588,2684354754,0,0,0,0,0,0,
0,0,0,0,1610612930,1610612762,1610612786,2684354613,2684354589,2684354755,0,0,0,0,0,0,
0,0,0,0,1610612931,1610612765,1610612789,2684354610,2684354586,2684354754,0,0,0,0,0,0,
0,0,0,0,1610612931,1610612765,1610612789,2684354610,2684354586,2684354754,0,0,0,0,0,0,
0,0,0,0,1610612931,1610612765,1610612789,2684354611,2684354587,2684354754,0,0,0,0,0,0,
0,0,0,0,1610612931,1610612765,1610612789,2684354612,2684354588,2684354754,0,0,0,0,0,0,
0,0,0,0,1610612931,1610612765,1610612789,2684354610,2684354586,2684354754,0,0,0,0,0,0,
0,0,0,0,1610612931,1610612764,1610612788,2684354611,2684354587,2684354754,0,0,0,0,0,0,
0,0,0,0,1610612931,1610612763,1610612787,2684354612,2684354588,2684354754,0,0,0,0,0,0,
0,0,0,0,1610612930,1610612762,1610612786,2684354613,2684354589,2684354755,0,0,0,0,0,0
</chunk>
   <chunk x="-976" y="80" width="16" height="16">
0,0,0,0,0,0,0,0,1610612931,1610612765,1610612789,2684354612,2684354588,2684354754,0,0,
0,0,0,0,0,0,0,0,1610612931,1610612765,1610612789,2684354610,2684354586,2684354754,0,0,
0,0,0,0,0,0,0,0,1610612931,1610612764,1610612788,2684354611,2684354587,2684354754,0,0,
0,0,0,0,0,0,0,0,1610612931,1610612763,1610612787,2684354612,2684354588,2684354754,0,0,
0,0,0,0,0,0,0,0,1610612930,1610612762,1610612786,2684354613,2684354589,2684354755,0,0,
0,0,0,0,0,0,0,0,1610612931,1610612764,1610612788,2684354611,2684354587,2684354754,0,0,
0,0,0,0,0,0,0,0,1610612931,1610612763,1610612787,2684354612,2684354588,2684354754,0,0,
0,0,0,0,0,0,0,0,1610612930,1610612762,1610612786,2684354613,2684354589,2684354755,0,0,
0,0,0,0,0,0,0,0,1610612931,1610612765,1610612789,2684354610,2684354586,2684354754,0,0,
0,0,0,0,0,0,0,0,1610612931,1610612765,1610612789,2684354610,2684354586,2684354754,0,0,
0,0,0,0,0,0,0,0,1610612931,1610612765,1610612789,2684354611,2684354587,2684354754,0,0,
0,0,0,0,0,0,0,0,1610612931,1610612765,1610612789,2684354612,2684354588,2684354754,0,0,
0,0,0,0,0,0,0,0,1610612931,1610612765,1610612789,2684354610,2684354586,2684354754,0,0,
0,0,0,0,0,0,0,0,1610612931,1610612764,1610612788,2684354611,2684354587,2684354754,0,0,
0,0,0,0,0,0,0,0,1610612931,1610612763,1610612787,2684354612,2684354588,2684354754,0,0,
0,0,0,0,0,0,0,0,1610612930,1610612762,1610612786,2684354613,2684354589,2684354755,0,0
</chunk>
   <chunk x="-1360" y="96" width="16" height="16">
0,0,0,0,0,0,0,0,0,0,0,0,0,0,1610612931,1610612765,
0,0,0,0,0,0,0,0,0,0,0,0,0,0,1610612931,1610612765,
0,0,0,0,0,0,0,0,0,0,0,0,0,0,1610612931,1610612765,
0,0,0,0,0,0,0,0,0,0,0,0,0,0,1610612931,1610612765,
0,0,0,0,0,0,0,0,0,0,0,0,0,0,1610612931,1610612764,
0,0,0,0,0,0,0,0,0,0,0,0,0,0,1610612931,1610612763,
0,0,0,0,0,0,0,0,0,0,0,0,0,0,1610612930,1610612762,
0,0,0,0,0,0,0,0,0,0,0,0,0,0,1610612931,1610612765,
0,0,0,0,0,0,0,0,0,0,0,0,0,0,1610612931,1610612765,
0,0,0,0,0,0,0,0,0,0,0,0,0,0,1610612931,1610612765,
0,0,0,0,0,0,0,0,0,0,0,0,0,0,1610612931,1610612765,
0,0,0,0,0,0,0,0,0,0,0,0,0,0,1610612931,1610612765,
0,0,0,0,0,0,0,0,0,0,0,0,0,0,1610612931,1610612765,
0,0,0,0,0,0,0,0,0,0,0,0,0,0,1610612931,1610612765,
0,0,0,0,0,0,0,0,0,0,0,0,0,0,1610612931,1610612765,
0,0,0,0,0,0,0,0,0,0,0,0,0,0,1610612931,1610612765
</chunk>
   <chunk x="-1344" y="96" width="16" height="16">
2684354588,2684354754,0,0,0,0,0,0,0,0,0,0,0,0,0,0,
2684354586,2684354754,0,0,0,0,0,0,0,0,0,0,0,0,0,0,
2684354587,2684354754,0,0,0,0,0,0,0,0,0,0,0,0,0,0,
2684354588,2684354754,0,0,0,0,0,0,0,0,0,0,0,0,0,0,
2684354589,2684354755,0,0,0,0,0,0,0,0,0,0,0,0,0,0,
2684354589,2684354755,0,0,0,0,0,0,0,0,0,0,0,0,0,0,
2684354589,2684354755,0,0,0,0,0,0,0,0,0,0,0,0,0,0,
2684354586,2684354754,0,0,0,0,0,0,0,0,0,0,0,0,0,0,
2684354586,2684354754,0,0,0,0,0,0,0,0,0,0,0,0,0,0,
2684354587,2684354754,0,0,0,0,0,0,0,0,0,0,0,0,0,0,
2684354588,2684354754,0,0,0,0,0,0,0,0,0,0,0,0,0,0,
2684354586,2684354754,0,0,0,0,0,0,0,0,0,0,0,0,0,0,
2684354587,2684354754,0,0,0,0,0,0,0,0,0,0,0,0,0,0,
2684354588,2684354754,0,0,0,0,0,0,0,0,0,0,0,0,0,0,
2684354586,2684354754,0,0,0,0,0,0,0,0,0,0,0,0,0,0,
2684354586,2684354754,0,0,0,0,0,0,0,0,0,0,0,0,0,0
</chunk>
   <chunk x="-1232" y="96" width="16" height="16">
0,0,0,0,0,0,0,0,0,0,0,0,0,0,1610612931,1610612765,
0,0,0,0,0,0,0,0,0,0,0,0,0,0,1610612931,1610612765,
0,0,0,0,0,0,0,0,0,0,0,0,0,0,1610612931,1610612765,
0,0,0,0,0,0,0,0,0,0,0,0,0,0,1610612931,1610612765,
0,0,0,0,0,0,0,0,0,0,0,0,0,0,1610612931,1610612764,
0,0,0,0,0,0,0,0,0,0,0,0,0,0,1610612931,1610612763,
0,0,0,0,0,0,0,0,0,0,0,0,0,0,1610612930,1610612762,
0,0,0,0,0,0,0,0,0,0,0,0,0,0,1610612931,1610612765,
0,0,0,0,0,0,0,0,0,0,0,0,0,0,1610612931,1610612765,
0,0,0,0,0,0,0,0,0,0,0,0,0,0,1610612931,1610612765,
0,0,0,0,0,0,0,0,0,0,0,0,0,0,1610612931,1610612765,
0,0,0,0,0,0,0,0,0,0,0,0,0,0,1610612931,1610612764,
0,0,0,0,0,0,0,0,0,0,0,0,0,0,1610612931,1610612763,
0,0,0,0,0,0,0,0,0,0,0,0,0,0,1610612930,1610612762,
0,0,0,0,0,0,0,0,0,0,0,0,0,0,1610612931,1610612765,
0,0,0,0,0,0,0,0,0,0,0,0,0,0,1610612931,1610612765
</chunk>
   <chunk x="-1216" y="96" width="16" height="16">
1610612789,2684354610,2684354586,2684354754,0,0,0,0,0,0,0,0,0,0,0,0,
1610612789,2684354611,2684354587,2684354754,0,0,0,0,0,0,0,0,0,0,0,0,
1610612789,2684354612,2684354588,2684354754,0,0,0,0,0,0,0,0,0,0,0,0,
1610612789,2684354610,2684354586,2684354754,0,0,0,0,0,0,0,0,0,0,0,0,
1610612788,2684354611,2684354587,2684354754,0,0,0,0,0,0,0,0,0,0,0,0,
1610612787,2684354612,2684354588,2684354754,0,0,0,0,0,0,0,0,0,0,0,0,
1610612786,2684354613,2684354589,2684354755,0,0,0,0,0,0,0,0,0,0,0,0,
1610612789,2684354610,2684354586,2684354754,0,0,0,0,0,0,0,0,0,0,0,0,
1610612789,2684354611,2684354587,2684354754,0,0,0,0,0,0,0,0,0,0,0,0,
1610612789,2684354612,2684354588,2684354754,0,0,0,0,0,0,0,0,0,0,0,0,
1610612789,2684354610,2684354586,2684354754,0,0,0,0,0,0,0,0,0,0,0,0,
1610612788,2684354611,2684354587,2684354754,0,0,0,0,0,0,0,0,0,0,0,0,
1610612787,2684354612,2684354588,2684354754,0,0,0,0,0,0,0,0,0,0,0,0,
1610612786,2684354613,2684354589,2684354755,0,0,0,0,0,0,0,0,0,0,0,0,
1610612789,2684354610,2684354586,2684354754,0,0,0,0,0,0,0,0,0,0,0,0,
1610612789,2684354611,2684354587,2684354754,0,0,0,0,0,0,0,0,0,0,0,0
</chunk>
   <chunk x="-1056" y="96" width="16" height="16">
0,0,0,0,1610612931,1610612765,1610612789,2684354610,2684354586,2684354754,0,0,0,0,0,0,
0,0,0,0,1610612931,1610612765,1610612789,2684354611,2684354587,2684354754,0,0,0,0,0,0,
0,0,0,0,1610612931,1610612765,1610612789,2684354612,2684354588,2684354754,0,0,0,0,0,0,
0,0,0,0,1610612931,1610612765,1610612789,2684354610,2684354586,2684354754,0,0,0,0,0,0,
0,0,0,0,1610612931,1610612764,1610612788,2684354611,2684354587,2684354754,0,0,0,0,0,0,
0,0,0,0,1610612931,1610612763,1610612787,2684354612,2684354588,2684354754,0,0,0,0,0,0,
0,0,0,0,1610612930,1610612762,1610612786,2684354613,2684354589,2684354755,0,0,0,0,0,0,
0,0,0,0,1610612931,1610612765,1610612789,2684354610,2684354586,2684354754,0,0,0,0,0,0,
0,0,0,0,1610612931,1610612765,1610612789,2684354611,2684354587,2684354754,0,0,0,0,0,0,
0,0,0,0,1610612931,1610612765,1610612789,2684354612,2684354588,2684354754,0,0,0,0,0,0,
0,0,0,0,1610612931,1610612765,1610612789,2684354610,2684354586,2684354754,0,0,0,0,0,0,
0,0,0,0,1610612931,1610612764,1610612788,2684354611,2684354587,2684354754,0,0,0,0,0,0,
0,0,0,0,1610612931,1610612763,1610612787,2684354612,2684354588,2684354754,0,0,0,0,0,0,
0,0,0,0,1610612930,1610612762,1610612786,2684354613,2684354589,2684354755,0,0,0,0,0,0,
0,0,0,0,1610612931,1610612765,1610612789,2684354610,2684354586,2684354754,0,0,0,0,0,0,
0,0,0,0,1610612931,1610612765,1610612789,2684354611,2684354587,2684354754,0,0,0,0,0,0
</chunk>
   <chunk x="-976" y="96" width="16" height="16">
0,0,0,0,0,0,0,0,1610612931,1610612765,1610612789,2684354610,2684354586,2684354754,0,0,
0,0,0,0,0,0,0,0,1610612931,1610612765,1610612789,2684354611,2684354587,2684354754,0,0,
0,0,0,0,0,0,0,0,1610612931,1610612765,1610612789,2684354612,2684354588,2684354754,0,0,
0,0,0,0,0,0,0,0,1610612931,1610612765,1610612789,2684354610,2684354586,2684354754,0,0,
0,0,0,0,0,0,0,0,1610612931,1610612764,1610612788,2684354611,2684354587,2684354754,0,0,
0,0,0,0,0,0,0,0,1610612931,1610612763,1610612787,2684354612,2684354588,2684354754,0,0,
0,0,0,0,0,0,0,0,1610612930,1610612762,1610612786,2684354613,2684354589,2684354755,0,0,
0,0,0,0,0,0,0,0,1610612931,1610612765,1610612789,2684354610,2684354586,2684354754,0,0,
0,0,0,0,0,0,0,0,1610612931,1610612765,1610612789,2684354611,2684354587,2684354754,0,0,
0,0,0,0,0,0,0,0,1610612931,1610612765,1610612789,2684354612,2684354588,2684354754,0,0,
0,0,0,0,0,0,0,0,1610612931,1610612765,1610612789,2684354610,2684354586,2684354754,0,0,
0,0,0,0,0,0,0,0,1610612931,1610612764,1610612788,2684354611,2684354587,2684354754,0,0,
0,0,0,0,0,0,0,0,1610612931,1610612763,1610612787,2684354612,2684354588,2684354754,0,0,
0,0,0,0,0,0,0,0,1610612930,1610612762,1610612786,2684354613,2684354589,2684354755,0,0,
0,0,0,0,0,0,0,0,1610612931,1610612765,1610612789,2684354610,2684354586,2684354754,0,0,
0,0,0,0,0,0,0,0,1610612931,1610612765,1610612789,2684354611,2684354587,2684354754,0,0
</chunk>
   <chunk x="-1360" y="112" width="16" height="16">
0,0,0,0,0,0,0,0,0,0,0,0,0,0,1610612931,1610612765,
0,0,0,0,0,0,0,0,0,0,0,0,0,0,1610612931,1610612765,
0,0,0,0,0,0,0,0,0,0,0,0,0,0,1610612931,1610612765,
0,0,0,0,0,0,0,0,0,0,0,0,0,0,1610612931,1610612765,
0,0,0,0,0,0,0,0,0,0,0,0,0,0,1610612931,1610612765,
0,0,0,0,0,0,0,0,0,0,0,0,0,0,1610612931,1610612764,
0,0,0,0,0,0,0,0,0,0,0,0,0,0,1610612931,1610612763,
0,0,0,0,0,0,0,0,0,0,0,0,0,0,1610612931,1610612765,
0,0,0,0,0,0,0,0,0,0,0,0,0,0,1610612931,1610612765,
0,0,0,0,0,0,0,0,0,0,0,0,0,0,1610612931,1610612765,
0,0,0,0,0,0,0,0,0,0,0,0,0,0,1610612931,1610612765,
0,0,0,0,0,0,0,0,0,0,0,0,0,0,1610612931,1610612765,
0,0,0,0,0,0,0,0,0,0,0,0,0,0,1610612931,1610612765,
0,0,0,0,0,0,0,0,0,0,0,0,0,0,1610612931,1610612765,
0,0,0,0,0,0,0,0,0,0,0,0,0,0,1610612931,1610612765,
0,0,0,0,0,0,0,0,0,0,0,0,0,0,1610612931,1610612765
</chunk>
   <chunk x="-1344" y="112" width="16" height="16">
2684354587,2684354754,0,0,0,0,0,0,0,0,0,0,0,0,0,0,
2684354588,2684354754,0,0,0,0,0,0,0,0,0,0,0,0,0,0,
2684354586,2684354754,0,0,0,0,0,0,0,0,0,0,0,0,0,0,
2684354587,2684354754,0,0,0,0,0,0,0,0,0,0,0,0,0,0,
2684354588,2684354754,0,0,0,0,0,0,0,0,0,0,0,0,0,0,
2684354589,2684354755,0,0,0,0,0,0,0,0,0,0,0,0,0,0,
2684354589,2684354755,0,0,0,0,0,0,0,0,0,0,0,0,0,0,
2684354586,2684354754,0,0,0,0,0,0,0,0,0,0,0,0,0,0,
2684354586,2684354754,0,0,0,0,0,0,0,0,0,0,0,0,0,0,
2684354587,2684354754,0,0,0,0,0,0,0,0,0,0,0,0,0,0,
2684354588,2684354754,0,0,0,0,0,0,0,0,0,0,0,0,0,0,
2684354586,2684354754,0,0,0,0,0,0,0,0,0,0,0,0,0,0,
2684354587,2684354754,0,0,0,0,0,0,0,0,0,0,0,0,0,0,
2684354588,2684354754,0,0,0,0,0,0,0,0,0,0,0,0,0,0,
2684354586,2684354754,0,0,0,0,0,0,0,0,0,0,0,0,0,0,
2684354586,2684354754,0,0,0,0,0,0,0,0,0,0,0,0,0,0
</chunk>
   <chunk x="-1232" y="112" width="16" height="16">
0,0,0,0,0,0,0,0,0,0,0,0,0,0,1610612931,1610612765,
0,0,0,0,0,0,0,0,0,0,0,0,0,0,1610612931,1610612765,
0,0,0,0,0,0,0,0,0,0,0,0,0,0,1610612931,1610612764,
0,0,0,0,0,0,0,0,0,0,0,0,0,0,1610612931,1610612763,
0,0,0,0,0,0,0,0,0,0,0,0,0,0,1610612930,1610612762,
0,0,0,0,0,0,0,0,0,0,0,0,0,0,1610612931,1610612765,
0,0,0,0,0,0,0,0,0,0,0,0,0,0,1610612931,1610612765,
0,0,0,0,0,0,0,0,0,0,0,0,0,0,1610612931,1610612765,
0,0,0,0,0,0,0,0,0,0,0,0,0,0,1610612931,1610612765,
0,0,0,0,0,0,0,0,0,0,0,0,0,0,1610612931,1610612765,
0,0,0,0,0,0,0,0,0,0,0,0,0,0,1610612931,1610612765,
0,0,0,0,0,0,0,0,0,0,0,0,0,0,1610612931,1610612765,
0,0,0,0,0,0,0,0,0,0,0,0,0,0,1610612931,1610612764,
0,0,0,0,0,0,0,0,0,0,0,0,0,0,1610612931,1610612763,
0,0,0,0,0,0,0,0,0,0,0,0,0,0,1610612930,1610612762,
0,0,0,0,0,0,0,0,0,0,0,0,0,0,1610612931,1610612765
</chunk>
   <chunk x="-1216" y="112" width="16" height="16">
1610612789,2684354612,2684354588,2684354754,0,0,0,0,0,0,0,0,0,0,0,0,
1610612789,2684354610,2684354586,2684354754,0,0,0,0,0,0,0,0,0,0,0,0,
1610612788,2684354611,2684354587,2684354754,0,0,0,0,0,0,0,0,0,0,0,0,
1610612787,2684354612,2684354588,2684354754,0,0,0,0,0,0,0,0,0,0,0,0,
1610612786,2684354613,2684354589,2684354755,0,0,0,0,0,0,0,0,0,0,0,0,
1610612789,2684354610,2684354586,2684354754,0,0,0,0,0,0,0,0,0,0,0,0,
1610612789,2684354610,2684354586,2684354754,0,0,0,0,0,0,0,0,0,0,0,0,
1610612789,2684354610,2684354586,2684354754,0,0,0,0,0,0,0,0,0,0,0,0,
1610612789,2684354610,2684354586,2684354754,0,0,0,0,0,0,0,0,0,0,0,0,
1610612789,2684354611,2684354587,2684354754,0,0,0,0,0,0,0,0,0,0,0,0,
1610612789,2684354612,2684354588,2684354754,0,0,0,0,0,0,0,0,0,0,0,0,
1610612789,2684354610,2684354586,2684354754,0,0,0,0,0,0,0,0,0,0,0,0,
1610612788,2684354611,2684354587,2684354754,0,0,0,0,0,0,0,0,0,0,0,0,
1610612787,2684354612,2684354588,2684354754,0,0,0,0,0,0,0,0,0,0,0,0,
1610612786,2684354613,2684354589,2684354755,0,0,0,0,0,0,0,0,0,0,0,0,
1610612789,2684354610,2684354586,2684354754,0,0,0,0,0,0,0,0,0,0,0,0
</chunk>
   <chunk x="-1056" y="112" width="16" height="16">
0,0,0,0,1610612931,1610612765,1610612789,2684354612,2684354588,2684354754,0,0,0,0,0,0,
0,0,0,0,1610612931,1610612765,1610612789,2684354610,2684354586,2684354754,0,0,0,0,0,0,
0,0,0,0,1610612931,1610612764,1610612788,2684354611,2684354587,2684354754,0,0,0,0,0,0,
0,0,0,0,1610612931,1610612763,1610612787,2684354612,2684354588,2684354754,0,0,0,0,0,0,
0,0,0,0,1610612930,1610612762,1610612786,2684354613,2684354589,2684354755,0,0,0,0,0,0,
0,0,0,0,1610612931,1610612765,1610612789,2684354610,2684354586,2684354754,0,0,0,0,0,0,
0,0,0,0,1610612931,1610612765,1610612789,2684354610,2684354586,2684354754,0,0,0,0,0,0,
0,0,0,0,1610612931,1610612765,1610612789,2684354610,2684354586,2684354754,0,0,0,0,0,0,
0,0,0,0,1610612931,1610612765,1610612789,2684354610,2684354586,2684354754,0,0,0,0,0,0,
0,0,0,0,1610612931,1610612765,1610612789,2684354611,2684354587,2684354754,0,0,0,0,0,0,
0,0,0,0,1610612931,1610612765,1610612789,2684354612,2684354588,2684354754,0,0,0,0,0,0,
0,0,0,0,1610612931,1610612765,1610612789,2684354610,2684354586,2684354754,0,0,0,0,0,0,
0,0,0,0,1610612931,1610612764,1610612788,2684354611,2684354587,2684354754,0,0,0,0,0,0,
0,0,0,0,1610612931,1610612763,1610612787,2684354612,2684354588,2684354754,0,0,0,0,0,0,
0,0,0,0,1610612930,1610612762,1610612786,2684354613,2684354589,2684354755,0,0,0,0,0,0,
0,0,0,0,1610612931,1610612765,1610612789,2684354610,2684354586,2684354754,0,0,0,0,0,0
</chunk>
   <chunk x="-976" y="112" width="16" height="16">
0,0,0,0,0,0,0,0,1610612931,1610612765,1610612789,2684354612,2684354588,2684354754,0,0,
0,0,0,0,0,0,0,0,1610612931,1610612765,1610612789,2684354610,2684354586,2684354754,0,0,
0,0,0,0,0,0,0,0,1610612931,1610612764,1610612788,2684354611,2684354587,2684354754,0,0,
0,0,0,0,0,0,0,0,1610612931,1610612763,1610612787,2684354612,2684354588,2684354754,0,0,
0,0,0,0,0,0,0,0,1610612930,1610612762,1610612786,2684354613,2684354589,2684354755,0,0,
0,0,0,0,0,0,0,0,1610612931,1610612765,1610612789,2684354610,2684354586,2684354754,0,0,
0,0,0,0,0,0,0,0,1610612931,1610612765,1610612789,2684354610,2684354586,2684354754,0,0,
0,0,0,0,0,0,0,0,1610612931,1610612765,1610612789,2684354610,2684354586,2684354754,0,0,
0,0,0,0,0,0,0,0,1610612931,1610612765,1610612789,2684354610,2684354586,2684354754,0,0,
0,0,0,0,0,0,0,0,1610612931,1610612765,1610612789,2684354611,2684354587,2684354754,0,0,
0,0,0,0,0,0,0,0,1610612931,1610612765,1610612789,2684354612,2684354588,2684354754,0,0,
0,0,0,0,0,0,0,0,1610612931,1610612765,1610612789,2684354610,2684354586,2684354754,0,0,
0,0,0,0,0,0,0,0,1610612931,1610612764,1610612788,2684354611,2684354587,2684354754,0,0,
0,0,0,0,0,0,0,0,1610612931,1610612763,1610612787,2684354612,2684354588,2684354754,0,0,
0,0,0,0,0,0,0,0,1610612930,1610612762,1610612786,2684354613,2684354589,2684354755,0,0,
0,0,0,0,0,0,0,0,1610612931,1610612765,1610612789,2684354610,2684354586,2684354754,0,0
</chunk>
   <chunk x="-1360" y="128" width="16" height="16">
0,0,0,0,0,0,0,0,0,0,0,0,0,0,1610612931,1610612765,
0,0,0,0,0,0,0,0,0,0,0,0,0,0,1610612931,1610612765,
0,0,0,0,0,0,0,0,0,0,0,0,0,0,1610612931,1610612765,
0,0,0,0,0,0,0,0,0,0,0,0,0,0,1610612931,1610612765,
0,0,0,0,0,0,0,0,0,0,0,0,0,0,1610612931,1610612765,
0,0,0,0,0,0,0,0,0,0,0,0,0,0,1610612931,1610612765,
0,0,0,0,0,0,0,0,0,0,0,0,0,0,1610612930,1610612762,
0,0,0,0,0,0,0,0,0,0,0,0,0,0,1610612930,1610612762,
0,0,0,0,0,0,0,0,0,0,0,0,0,0,1610612930,1610612762,
0,0,0,0,0,0,0,0,0,0,0,0,0,0,1610612931,1610612765,
0,0,0,0,0,0,0,0,0,0,0,0,0,0,1610612930,1610612764,
0,0,0,0,0,0,0,0,0,0,0,0,0,0,1610612930,1610612763,
0,0,0,0,0,0,0,0,0,0,0,0,0,0,1610612930,1610612762,
0,0,0,0,0,0,0,0,0,0,0,0,0,0,1610612930,1610612762,
0,0,0,0,0,0,0,0,0,0,0,0,0,0,1610612930,1610612763,
0,0,0,0,0,0,0,0,0,0,0,0,0,0,0,0
</chunk>
   <chunk x="-1344" y="128" width="16" height="16">
2684354587,2684354754,0,0,0,0,0,0,0,0,0,0,0,0,0,0,
2684354588,2684354754,0,0,0,0,0,0,0,0,0,0,0,0,0,0,
2684354586,2684354754,0,0,0,0,0,0,0,0,0,0,0,0,0,0,
2684354586,2684354754,0,0,0,0,0,0,0,0,0,0,0,0,0,0,
2684354586,2684354754,0,0,0,0,0,0,0,0,0,0,0,0,0,0,
2684354587,2684354754,0,0,0,0,0,0,0,0,0,0,0,0,0,0,
2684354589,2684354755,0,0,0,0,0,0,0,0,0,0,0,0,0,0,
2684354589,2684354755,0,0,0,0,0,0,0,0,0,0,0,0,0,0,
2684354589,2684354755,0,0,0,0,0,0,0,0,0,0,0,0,0,0,
2684354589,2684354755,0,0,0,0,0,0,0,0,0,0,0,0,0,0,
2684354589,2684354755,0,0,0,0,0,0,0,0,0,0,0,0,0,0,
2684354589,2684354755,0,0,0,0,0,0,0,0,0,0,0,0,0,0,
2684354589,0,0,0,0,0,0,0,0,0,0,0,0,0,0,0,
26,29,29,29,29,29,2684354587,2684354754,0,0,0,0,0,0,0,0,
3221225501,3221225498,3221225498,3221225498,3221225498,3221225498,2684354586,2684354754,0,0,0,0,0,0,0,0,
0,0,0,0,0,1610612765,2684354586,2684354754,0,0,0,0,0,0,0,0
</chunk>
   <chunk x="-1232" y="128" width="16" height="16">
0,0,0,0,0,0,0,0,0,0,0,0,0,0,1610612931,1610612765,
0,0,0,0,0,0,0,0,0,0,0,0,0,0,1610612931,1610612765,
0,0,0,0,0,0,0,0,0,0,0,0,0,0,1610612931,1610612765,
0,0,0,0,0,0,0,0,0,0,0,0,0,0,1610612931,1610612765,
0,0,0,0,0,0,0,0,0,0,0,0,0,0,1610612931,1610612764,
0,0,0,0,0,0,0,0,0,0,0,0,0,0,1610612931,1610612763,
0,0,0,0,0,0,0,0,0,0,0,0,0,0,1610612930,1610612762,
0,0,0,0,0,0,0,0,0,0,0,0,0,0,1610612931,1610612765,
0,0,0,0,0,0,0,0,0,0,0,0,0,0,1610612931,1610612765,
0,0,0,0,0,0,0,0,0,0,0,0,0,0,1610612931,1610612765,
0,0,0,0,0,0,0,0,0,0,0,0,0,0,1610612931,1610612765,
0,0,0,0,0,0,0,0,0,0,0,0,0,0,1610612931,1610612764,
0,0,0,0,0,0,0,0,0,0,0,0,0,0,1610612931,1610612763,
0,0,0,0,0,0,0,0,0,0,0,0,0,0,1610612930,1610612762,
0,0,0,0,0,0,0,0,0,0,0,0,0,0,1610612931,1610612765,
0,0,0,0,0,0,0,0,0,0,0,0,0,0,1610612931,1610612765
</chunk>
   <chunk x="-1216" y="128" width="16" height="16">
1610612789,2684354610,2684354586,2684354754,0,0,0,0,0,0,0,0,0,0,0,0,
1610612789,2684354611,2684354587,2684354754,0,0,0,0,0,0,0,0,0,0,0,0,
1610612789,2684354612,2684354588,2684354754,0,0,0,0,0,0,0,0,0,0,0,0,
1610612789,2684354610,2684354586,2684354754,0,0,0,0,0,0,0,0,0,0,0,0,
1610612788,2684354611,2684354587,2684354754,0,0,0,0,0,0,0,0,0,0,0,0,
1610612787,2684354612,2684354588,2684354754,0,0,0,0,0,0,0,0,0,0,0,0,
1610612786,2684354613,2684354589,2684354755,0,0,0,0,0,0,0,0,0,0,0,0,
1610612789,2684354610,2684354586,2684354754,0,0,0,0,0,0,0,0,0,0,0,0,
1610612789,2684354611,2684354587,2684354754,0,0,0,0,0,0,0,0,0,0,0,0,
1610612789,2684354612,2684354588,2684354754,0,0,0,0,0,0,0,0,0,0,0,0,
1610612789,2684354610,2684354586,2684354754,0,0,0,0,0,0,0,0,0,0,0,0,
1610612788,2684354611,2684354587,2684354754,0,0,0,0,0,0,0,0,0,0,0,0,
1610612787,2684354612,2684354588,2684354754,0,0,0,0,0,0,0,0,0,0,0,0,
1610612786,2684354613,2684354589,2684354755,0,0,0,0,0,0,0,0,0,0,0,0,
1610612789,2684354610,2684354586,2684354754,0,0,0,0,0,0,0,0,0,0,0,0,
1610612789,2684354611,2684354587,2684354754,0,0,0,0,0,0,0,0,0,0,0,0
</chunk>
   <chunk x="-1056" y="128" width="16" height="16">
0,0,0,0,1610612931,1610612765,1610612789,2684354610,2684354586,2684354754,0,0,0,0,0,0,
0,0,0,0,1610612931,1610612765,1610612789,2684354611,2684354587,2684354754,0,0,0,0,0,0,
0,0,0,0,1610612931,1610612765,1610612789,2684354612,2684354588,2684354754,0,0,0,0,0,0,
0,0,0,0,1610612931,1610612765,1610612789,2684354610,2684354586,2684354754,0,0,0,0,0,0,
0,0,0,0,1610612931,1610612764,1610612788,2684354611,2684354587,2684354754,0,0,0,0,0,0,
0,0,0,0,1610612931,1610612763,1610612787,2684354612,2684354588,2684354754,0,0,0,0,0,0,
0,0,0,0,1610612930,1610612762,1610612786,2684354613,2684354589,2684354755,0,0,0,0,0,0,
0,0,0,0,1610612931,1610612765,1610612789,2684354610,2684354586,2684354754,0,0,0,0,0,0,
0,0,0,0,1610612931,1610612765,1610612789,2684354611,2684354587,2684354754,0,0,0,0,0,0,
0,0,0,0,1610612931,1610612765,1610612789,2684354612,2684354588,2684354754,0,0,0,0,0,0,
0,0,0,0,1610612931,1610612765,1610612789,2684354610,2684354586,2684354754,0,0,0,0,0,0,
0,0,0,0,1610612931,1610612764,1610612788,2684354611,2684354587,2684354754,0,0,0,0,0,0,
0,0,0,0,1610612931,1610612763,1610612787,2684354612,2684354588,2684354754,0,0,0,0,0,0,
0,0,0,0,1610612930,1610612762,1610612786,2684354613,2684354589,2684354755,0,0,0,0,0,0,
0,0,0,0,1610612931,1610612765,1610612789,2684354610,2684354586,2684354754,0,0,0,0,0,0,
0,0,0,0,1610612931,1610612765,1610612789,2684354611,2684354587,2684354754,0,0,0,0,0,0
</chunk>
   <chunk x="-976" y="128" width="16" height="16">
0,0,0,0,0,0,0,0,1610612931,1610612765,1610612789,2684354610,2684354586,2684354754,0,0,
0,0,0,0,0,0,0,0,1610612931,1610612765,1610612789,2684354611,2684354587,2684354754,0,0,
0,0,0,0,0,0,0,0,1610612931,1610612765,1610612789,2684354612,2684354588,2684354754,0,0,
0,0,0,0,0,0,0,0,1610612931,1610612765,1610612789,2684354610,2684354586,2684354754,0,0,
0,0,0,0,0,0,0,0,1610612931,1610612764,1610612788,2684354611,2684354587,2684354754,0,0,
0,0,0,0,0,0,0,0,1610612931,1610612763,1610612787,2684354612,2684354588,2684354754,0,0,
0,0,0,0,0,0,0,0,1610612930,1610612762,1610612786,2684354613,2684354589,2684354755,0,0,
0,0,0,0,0,0,0,0,1610612931,1610612765,1610612789,2684354610,2684354586,2684354754,0,0,
0,0,0,0,0,0,0,0,1610612931,1610612765,1610612789,2684354611,2684354587,2684354754,0,0,
0,0,0,0,0,0,0,0,1610612931,1610612765,1610612789,2684354612,2684354588,2684354754,0,0,
0,0,0,0,0,0,0,0,1610612931,1610612765,1610612789,2684354610,2684354586,2684354754,0,0,
0,0,0,0,0,0,0,0,1610612931,1610612764,1610612788,2684354611,2684354587,2684354754,0,0,
0,0,0,0,0,0,0,0,1610612931,1610612763,1610612787,2684354612,2684354588,2684354754,0,0,
0,0,0,0,0,0,0,0,1610612930,1610612762,1610612786,2684354613,2684354589,2684354755,0,0,
0,0,0,0,0,0,0,0,1610612931,1610612765,1610612789,2684354610,2684354586,2684354754,0,0,
0,0,0,0,0,0,0,0,1610612931,1610612765,1610612789,2684354611,2684354587,2684354754,0,0
</chunk>
   <chunk x="-1344" y="144" width="16" height="16">
0,0,0,0,1610612931,1610612765,2684354587,2684354754,0,0,0,0,0,0,0,0,
0,0,0,0,1610612931,1610612765,2684354588,2684354754,0,0,0,0,0,0,0,0,
0,0,0,0,1610612931,1610612765,2684354589,2684354755,0,0,0,0,0,0,0,0,
0,0,0,0,1610612931,1610612765,2684354586,2684354754,0,0,0,0,0,0,0,0,
0,0,0,0,1610612931,1610612765,2684354586,2684354754,0,0,0,0,0,0,0,0,
0,0,0,0,1610612931,1610612765,2684354586,2684354754,0,0,0,0,0,0,0,0,
0,0,0,0,1610612931,1610612764,2684354589,2684354755,0,0,0,0,0,0,0,0,
0,0,0,0,1610612931,1610612763,2684354589,2684354755,0,0,0,0,0,0,0,0,
0,0,0,0,1610612930,1610612762,2684354589,2684354755,0,0,0,0,0,0,0,0,
0,0,0,0,1610612931,1610612765,2684354588,2684354754,0,0,0,0,0,0,0,0,
0,0,0,0,1610612931,1610612764,2684354589,2684354755,0,0,0,0,0,0,0,0,
0,0,0,0,1610612931,1610612763,2684354589,2684354755,0,0,0,0,0,0,0,0,
0,0,0,0,1610612930,1610612762,2684354589,2684354755,0,0,0,0,0,0,0,0,
0,0,0,0,1610612931,1610612765,2684354588,2684354754,0,0,0,0,0,0,0,0,
0,0,0,0,1610612931,1610612764,2684354589,2684354755,0,0,0,0,0,0,0,0,
0,0,0,0,1610612931,1610612763,2684354589,2684354755,0,0,0,0,0,0,0,0
</chunk>
   <chunk x="-1232" y="144" width="16" height="16">
0,0,0,0,0,0,0,0,0,0,0,0,0,0,1610612931,1610612765,
0,0,0,0,0,0,0,0,0,0,0,0,0,0,1610612931,1610612765,
0,0,0,0,0,0,0,0,0,0,0,0,0,0,1610612931,1610612764,
0,0,0,0,0,0,0,0,0,0,0,0,0,0,1610612931,1610612763,
0,0,0,0,0,0,0,0,0,0,0,0,0,0,1610612930,1610612762,
0,0,0,0,0,0,0,0,0,0,0,0,0,0,1610612931,1610612765,
0,0,0,0,0,0,0,0,0,0,0,0,0,0,1610612931,1610612765,
0,0,0,0,0,0,0,0,0,0,0,0,0,0,1610612931,1610612765,
0,0,0,0,0,0,0,0,0,0,0,0,0,0,1610612931,1610612765,
0,0,0,0,0,0,0,0,0,0,0,0,0,0,1610612931,1610612765,
0,0,0,0,0,0,0,0,0,0,0,0,0,0,1610612931,1610612764,
0,0,0,0,0,0,0,0,0,0,0,0,0,0,1610612931,1610612763,
0,0,0,0,0,0,0,0,0,0,0,0,0,0,1610612930,1610612762,
0,0,0,0,0,0,0,0,0,0,0,0,0,0,1610612931,1610612765,
0,0,0,0,0,0,0,0,0,0,0,0,0,0,1610612931,1610612765,
0,0,0,0,0,0,0,0,0,0,0,0,0,0,1610612931,1610612765
</chunk>
   <chunk x="-1216" y="144" width="16" height="16">
1610612789,2684354612,2684354588,2684354754,0,0,0,0,0,0,0,0,0,0,0,0,
1610612789,2684354610,2684354586,2684354754,0,0,0,0,0,0,0,0,0,0,0,0,
1610612788,2684354611,2684354587,2684354754,0,0,0,0,0,0,0,0,0,0,0,0,
1610612787,2684354612,2684354588,2684354754,0,0,0,0,0,0,0,0,0,0,0,0,
1610612786,2684354613,2684354589,2684354755,0,0,0,0,0,0,0,0,0,0,0,0,
1610612789,2684354610,2684354586,2684354754,0,0,0,0,0,0,0,0,0,0,0,0,
1610612789,2684354610,2684354586,2684354754,0,0,0,0,0,0,0,0,0,0,0,0,
1610612789,2684354611,2684354587,2684354754,0,0,0,0,0,0,0,0,0,0,0,0,
1610612789,2684354612,2684354588,2684354754,0,0,0,0,0,0,0,0,0,0,0,0,
1610612789,2684354610,2684354586,2684354754,0,0,0,0,0,0,0,0,0,0,0,0,
1610612788,2684354611,2684354587,2684354754,0,0,0,0,0,0,0,0,0,0,0,0,
1610612787,2684354612,2684354588,2684354754,0,0,0,0,0,0,0,0,0,0,0,0,
1610612786,2684354613,2684354589,2684354755,0,0,0,0,0,0,0,0,0,0,0,0,
1610612789,2684354610,2684354586,2684354754,0,0,0,0,0,0,0,0,0,0,0,0,
1610612789,2684354611,2684354587,2684354754,0,0,0,0,0,0,0,0,0,0,0,0,
1610612789,2684354612,2684354588,2684354754,0,0,0,0,0,0,0,0,0,0,0,0
</chunk>
   <chunk x="-1056" y="144" width="16" height="16">
0,0,0,0,1610612931,1610612765,1610612789,2684354612,2684354588,2684354754,0,0,0,0,0,0,
0,0,0,0,1610612931,1610612765,1610612789,2684354610,2684354586,2684354754,0,0,0,0,0,0,
0,0,0,0,1610612931,1610612764,1610612788,2684354611,2684354587,2684354754,0,0,0,0,0,0,
0,0,0,0,1610612931,1610612763,1610612787,2684354612,2684354588,2684354754,0,0,0,0,0,0,
0,0,0,0,1610612930,1610612762,1610612786,2684354613,2684354589,2684354755,0,0,0,0,0,0,
0,0,0,0,1610612931,1610612765,1610612789,2684354610,2684354586,2684354754,0,0,0,0,0,0,
0,0,0,0,1610612931,1610612765,1610612789,2684354610,2684354586,2684354754,0,0,0,0,0,0,
0,0,0,0,1610612931,1610612765,1610612789,2684354611,2684354587,2684354754,0,0,0,0,0,0,
0,0,0,0,1610612931,1610612765,1610612789,2684354612,2684354588,2684354754,0,0,0,0,0,0,
0,0,0,0,1610612931,1610612765,1610612789,2684354610,2684354586,2684354754,0,0,0,0,0,0,
0,0,0,0,1610612931,1610612764,1610612788,2684354611,2684354587,2684354754,0,0,0,0,0,0,
0,0,0,0,1610612931,1610612763,1610612787,2684354612,2684354588,2684354754,0,0,0,0,0,0,
0,0,0,0,1610612930,1610612762,1610612786,2684354613,2684354589,2684354755,0,0,0,0,0,0,
0,0,0,0,1610612931,1610612765,1610612789,2684354610,2684354586,2684354754,0,0,0,0,0,0,
0,0,0,0,1610612931,1610612765,1610612789,2684354611,2684354587,2684354754,0,0,0,0,0,0,
0,0,0,0,1610612931,1610612765,1610612789,2684354612,2684354588,2684354754,0,0,0,0,0,0
</chunk>
   <chunk x="-976" y="144" width="16" height="16">
0,0,0,0,0,0,0,0,1610612931,1610612765,1610612789,2684354612,2684354588,2684354754,0,0,
0,0,0,0,0,0,0,0,1610612931,1610612765,1610612789,2684354610,2684354586,2684354754,0,0,
0,0,0,0,0,0,0,0,1610612931,1610612764,1610612788,2684354611,2684354587,2684354754,0,0,
0,0,0,0,0,0,0,0,1610612931,1610612763,1610612787,2684354612,2684354588,2684354754,0,0,
0,0,0,0,0,0,0,0,1610612930,1610612762,1610612786,2684354613,2684354589,2684354755,0,0,
0,0,0,0,0,0,0,0,1610612931,1610612765,1610612789,2684354610,2684354586,2684354754,0,0,
0,0,0,0,0,0,0,0,1610612931,1610612765,1610612789,2684354610,2684354586,2684354754,0,0,
0,0,0,0,0,0,0,0,1610612931,1610612765,1610612789,2684354611,2684354587,2684354754,0,0,
0,0,0,0,0,0,0,0,1610612931,1610612765,1610612789,2684354612,2684354588,2684354754,0,0,
0,0,0,0,0,0,0,0,1610612931,1610612765,1610612789,2684354610,2684354586,2684354754,0,0,
0,0,0,0,0,0,0,0,1610612931,1610612764,1610612788,2684354611,2684354587,2684354754,0,0,
0,0,0,0,0,0,0,0,1610612931,1610612763,1610612787,2684354612,2684354588,2684354754,0,0,
0,0,0,0,0,0,0,0,1610612930,1610612762,1610612786,2684354613,2684354589,2684354755,0,0,
0,0,0,0,0,0,0,0,1610612931,1610612765,1610612789,2684354610,2684354586,2684354754,0,0,
0,0,0,0,0,0,0,0,1610612931,1610612765,1610612789,2684354611,2684354587,2684354754,0,0,
0,0,0,0,0,0,0,0,1610612931,1610612765,1610612789,2684354612,2684354588,2684354754,0,0
</chunk>
   <chunk x="-640" y="144" width="16" height="16">
0,0,0,0,0,0,0,0,0,0,0,0,0,0,0,0,
0,0,0,0,0,0,0,0,0,0,0,0,0,0,0,0,
0,0,0,0,0,0,0,0,0,0,0,0,0,0,0,0,
0,0,0,0,0,0,0,0,0,0,0,0,0,0,0,0,
0,0,0,0,0,0,0,0,0,0,0,0,0,0,0,0,
0,0,0,0,0,0,0,0,0,0,0,0,0,0,0,0,
0,0,0,0,0,0,0,0,0,0,0,0,0,0,0,0,
0,0,0,0,0,0,0,0,0,0,0,0,0,0,0,0,
0,0,0,0,0,0,0,0,0,0,0,0,0,0,0,0,
0,0,0,0,0,0,0,0,0,0,0,0,0,0,0,0,
0,0,0,0,0,0,0,0,0,0,0,0,123,0,0,0,
0,0,0,0,0,0,0,0,0,0,0,0,0,0,0,0,
0,0,0,0,0,0,0,0,0,0,0,0,0,0,0,0,
0,0,0,0,0,0,0,0,0,0,0,0,0,0,0,0,
0,0,0,0,0,0,0,0,0,0,0,0,0,0,0,0,
0,0,0,0,0,0,0,0,0,0,0,0,0,0,0,0
</chunk>
   <chunk x="-1344" y="160" width="16" height="16">
0,0,0,0,1610612930,1610612762,2684354589,2684354755,0,0,0,0,0,0,0,0,
0,0,0,0,1610612931,1610612765,2684354586,2684354754,0,0,0,0,0,0,0,0,
0,0,0,0,1610612931,1610612765,2684354587,2684354754,0,0,0,0,0,0,0,0,
0,0,0,0,1610612931,1610612765,2684354588,2684354754,0,0,0,0,0,0,0,0,
0,0,0,0,1610612931,1610612765,2684354586,2684354754,0,0,0,0,0,0,0,0,
0,0,0,0,1610612931,1610612765,2684354587,2684354754,0,0,0,0,0,0,0,0,
0,0,0,0,1610612931,1610612765,2684354588,2684354754,0,0,0,0,0,0,0,0,
0,0,0,0,1610612931,1610612764,2684354589,2684354755,0,0,0,0,0,0,0,0,
0,0,0,0,1610612931,1610612763,2684354589,2684354755,0,0,0,0,0,0,0,0,
0,0,0,0,1610612930,1610612762,2684354589,2684354755,0,0,0,0,0,0,0,0,
0,0,0,0,1610612931,1610612765,2684354587,2684354754,0,0,0,0,0,0,0,0,
0,0,0,0,1610612931,1610612765,2684354588,2684354754,0,0,0,0,0,0,0,0,
0,0,0,0,1610612931,1610612765,2684354586,2684354754,0,0,0,0,0,0,0,0,
0,0,0,0,1610612931,1610612765,2684354587,2684354754,0,0,0,0,0,0,0,0,
0,0,0,0,1610612931,1610612765,2684354588,2684354754,0,0,0,0,0,0,0,0,
0,0,0,0,1610612931,1610612764,2684354589,2684354755,0,0,0,0,0,0,0,0
</chunk>
   <chunk x="-1232" y="160" width="16" height="16">
0,0,0,0,0,0,0,0,0,0,0,0,0,0,1610612931,1610612765,
0,0,0,0,0,0,0,0,0,0,0,0,0,0,1610612931,1610612764,
0,0,0,0,0,0,0,0,0,0,0,0,0,0,1610612931,1610612763,
0,0,0,0,0,0,0,0,0,0,0,0,0,0,1610612930,1610612762,
0,0,0,0,0,0,0,0,0,0,0,0,0,0,1610612931,1610612765,
0,0,0,0,0,0,0,0,0,0,0,0,0,0,1610612931,1610612765,
0,0,0,0,0,0,0,0,0,0,0,0,0,0,1610612931,1610612765,
0,0,0,0,0,0,0,0,0,0,0,0,0,0,1610612931,1610612765,
0,0,0,0,0,0,0,0,0,0,0,0,0,0,1610612931,1610612765,
0,0,0,0,0,0,0,0,0,0,0,0,0,0,1610612931,1610612765,
0,0,0,0,0,0,0,0,0,0,0,0,0,0,1610612931,1610612764,
0,0,0,0,0,0,0,0,0,0,0,0,0,0,1610612931,1610612763,
0,0,0,0,0,0,0,0,0,0,0,0,0,0,1610612930,1610612762,
0,0,0,0,0,0,0,0,0,0,0,0,0,0,1610612931,1610612765,
0,0,0,0,0,0,0,0,0,0,0,0,0,0,1610612931,1610612765,
0,0,0,0,0,0,0,0,0,0,0,0,0,0,1610612931,1610612765
</chunk>
   <chunk x="-1216" y="160" width="16" height="16">
1610612789,2684354610,2684354586,2684354754,0,0,0,0,0,0,0,0,0,0,0,0,
1610612788,2684354611,2684354587,2684354754,0,0,0,0,0,0,0,0,0,0,0,0,
1610612787,2684354612,2684354588,2684354754,0,0,0,0,0,0,0,0,0,0,0,0,
1610612786,2684354613,2684354589,2684354755,0,0,0,0,0,0,0,0,0,0,0,0,
1610612789,2684354610,2684354586,2684354754,0,0,0,0,0,0,0,0,0,0,0,0,
1610612789,2684354610,2684354586,2684354754,0,0,0,0,0,0,0,0,0,0,0,0,
1610612789,2684354610,2684354586,2684354754,0,0,0,0,0,0,0,0,0,0,0,0,
1610612789,2684354611,2684354587,2684354754,0,0,0,0,0,0,0,0,0,0,0,0,
1610612789,2684354612,2684354588,2684354754,0,0,0,0,0,0,0,0,0,0,0,0,
1610612789,2684354610,2684354586,2684354754,0,0,0,0,0,0,0,0,0,0,0,0,
1610612788,2684354611,2684354587,2684354754,0,0,0,0,0,0,0,0,0,0,0,0,
1610612787,2684354612,2684354588,2684354754,0,0,0,0,0,0,0,0,0,0,0,0,
1610612786,2684354613,2684354589,2684354755,0,0,0,0,0,0,0,0,0,0,0,0,
1610612789,2684354610,2684354586,2684354754,0,0,0,0,0,0,0,0,0,0,0,0,
1610612789,2684354610,2684354586,2684354754,0,0,0,0,0,0,0,0,0,0,0,0,
1610612789,2684354611,2684354587,2684354754,0,0,0,0,0,0,0,0,0,0,0,0
</chunk>
   <chunk x="-1056" y="160" width="16" height="16">
0,0,0,0,1610612931,1610612765,1610612789,2684354610,2684354586,2684354754,0,0,0,0,0,0,
0,0,0,0,1610612931,1610612764,1610612788,2684354611,2684354587,2684354754,0,0,0,0,0,0,
0,0,0,0,1610612931,1610612763,1610612787,2684354612,2684354588,2684354754,0,0,0,0,0,0,
0,0,0,0,1610612930,1610612762,1610612786,2684354613,2684354589,2684354755,0,0,0,0,0,0,
0,0,0,0,1610612931,1610612765,1610612789,2684354610,2684354586,2684354754,0,0,0,0,0,0,
0,0,0,0,1610612931,1610612765,1610612789,2684354610,2684354586,2684354754,0,0,0,0,0,0,
0,0,0,0,1610612931,1610612765,1610612789,2684354610,2684354586,2684354754,0,0,0,0,0,0,
0,0,0,0,1610612931,1610612765,1610612789,2684354611,2684354587,2684354754,0,0,0,0,0,0,
0,0,0,0,1610612931,1610612765,1610612789,2684354612,2684354588,2684354754,0,0,0,0,0,0,
0,0,0,0,1610612931,1610612765,1610612789,2684354610,2684354586,2684354754,0,0,0,0,0,0,
0,0,0,0,1610612931,1610612764,1610612788,2684354611,2684354587,2684354754,0,0,0,0,0,0,
0,0,0,0,1610612931,1610612763,1610612787,2684354612,2684354588,2684354754,0,0,0,0,0,0,
0,0,0,0,1610612930,1610612762,1610612786,2684354613,2684354589,2684354755,0,0,0,0,0,0,
0,0,0,0,1610612931,1610612765,1610612789,2684354610,2684354586,2684354754,0,0,0,0,0,0,
0,0,0,0,1610612931,1610612765,1610612789,2684354610,2684354586,2684354754,0,0,0,0,0,0,
0,0,0,0,1610612931,1610612765,1610612789,2684354611,2684354587,2684354754,0,0,0,0,0,0
</chunk>
   <chunk x="-976" y="160" width="16" height="16">
0,0,0,0,0,0,0,0,1610612931,1610612765,1610612789,2684354610,2684354586,2684354754,0,0,
0,0,0,0,0,0,0,0,1610612931,1610612764,1610612788,2684354611,2684354587,2684354754,0,0,
0,0,0,0,0,0,0,0,1610612931,1610612763,1610612787,2684354612,2684354588,2684354754,0,0,
0,0,0,0,0,0,0,0,1610612930,1610612762,1610612786,2684354613,2684354589,2684354755,0,0,
0,0,0,0,0,0,0,0,1610612931,1610612765,1610612789,2684354610,2684354586,2684354754,0,0,
0,0,0,0,0,0,0,0,1610612931,1610612765,1610612789,2684354610,2684354586,2684354754,0,0,
0,0,0,0,0,0,0,0,1610612931,1610612765,1610612789,2684354610,2684354586,2684354754,0,0,
0,0,0,0,0,0,0,0,1610612931,1610612765,1610612789,2684354611,2684354587,2684354754,0,0,
0,0,0,0,0,0,0,0,1610612931,1610612765,1610612789,2684354612,2684354588,2684354754,0,0,
0,0,0,0,0,0,0,0,1610612931,1610612765,1610612789,2684354610,2684354586,2684354754,0,0,
0,0,0,0,0,0,0,0,1610612931,1610612764,1610612788,2684354611,2684354587,2684354754,0,0,
0,0,0,0,0,0,0,0,1610612931,1610612763,1610612787,2684354612,2684354588,2684354754,0,0,
0,0,0,0,0,0,0,0,1610612930,1610612762,1610612786,2684354613,2684354589,2684354755,0,0,
0,0,0,0,0,0,0,0,1610612931,1610612765,1610612789,2684354610,2684354586,2684354754,0,0,
0,0,0,0,0,0,0,0,1610612931,1610612765,1610612789,2684354610,2684354586,2684354754,0,0,
0,0,0,0,0,0,0,0,1610612931,1610612765,1610612789,2684354611,2684354587,2684354754,0,0
</chunk>
   <chunk x="-576" y="160" width="16" height="16">
0,0,0,0,0,0,0,0,0,0,0,0,0,0,0,0,
0,0,0,0,0,0,0,0,0,0,0,0,0,0,0,0,
0,0,0,0,0,0,0,0,0,0,0,0,0,0,0,0,
0,0,0,0,0,0,0,0,0,0,0,0,0,0,0,0,
0,0,0,0,0,0,0,0,0,0,0,0,0,0,0,0,
0,0,0,0,0,0,0,0,0,0,0,0,0,0,0,0,
0,0,0,0,0,0,0,0,0,0,0,0,0,0,0,0,
0,0,0,0,0,0,0,0,0,0,0,0,0,0,0,0,
0,0,0,0,0,0,0,0,0,0,0,123,0,0,0,0,
0,0,0,0,0,0,0,0,0,0,0,0,0,0,0,0,
0,0,0,0,0,0,0,0,0,0,0,0,0,0,0,0,
0,0,0,0,0,0,0,0,0,0,0,0,0,0,0,0,
0,0,0,0,0,0,0,0,0,0,0,0,0,0,0,0,
0,0,0,0,0,0,0,0,0,0,0,0,0,0,0,0,
0,0,0,0,0,0,0,0,0,0,0,0,0,0,0,0,
0,0,0,0,0,0,0,0,0,0,0,0,0,0,0,0
</chunk>
   <chunk x="-528" y="160" width="16" height="16">
0,0,0,0,0,0,0,0,0,0,0,0,0,0,0,0,
0,0,0,0,0,0,0,0,0,0,0,0,0,0,0,0,
0,0,0,0,0,0,0,0,0,0,0,0,123,0,0,0,
0,0,0,0,0,0,0,0,0,0,0,0,0,0,0,0,
0,0,0,0,0,0,0,0,0,0,0,0,0,0,0,0,
0,0,0,0,0,0,0,0,0,0,0,0,0,0,0,0,
0,0,0,0,0,0,0,0,0,0,0,0,0,0,0,0,
0,0,0,0,0,0,0,0,0,0,0,0,0,0,0,0,
0,0,0,0,0,0,0,0,0,0,0,0,0,0,0,0,
0,0,0,0,0,0,0,0,0,0,0,0,0,0,0,0,
0,0,0,0,0,0,0,0,0,0,0,0,0,0,0,0,
0,0,0,0,0,0,0,0,0,0,0,0,0,0,0,0,
0,0,0,0,0,0,0,0,0,0,0,0,0,0,0,0,
0,0,0,0,0,0,0,0,0,0,0,0,0,0,0,0,
0,0,0,0,0,0,0,0,0,0,0,0,0,0,0,0,
0,0,0,0,0,0,0,0,0,0,0,0,0,0,0,0
</chunk>
   <chunk x="-1344" y="176" width="16" height="16">
0,0,0,0,1610612931,1610612763,2684354589,2684354755,0,0,0,0,0,0,0,0,
0,0,0,0,1610612930,1610612762,2684354589,2684354755,0,0,0,0,0,0,0,0,
0,0,0,0,1610612931,1610612765,2684354588,2684354754,0,0,0,0,0,0,0,0,
0,0,0,0,1610612931,1610612765,2684354586,2684354754,0,0,0,0,0,0,0,0,
0,0,0,0,1610612931,1610612765,2684354587,2684354754,0,0,0,0,0,0,0,0,
0,0,0,0,1610612931,1610612765,2684354588,2684354754,0,0,0,0,0,0,0,0,
0,0,0,0,1610612931,1610612764,2684354589,2684354755,0,0,0,0,0,0,0,0,
0,0,0,0,1610612931,1610612763,2684354589,2684354755,0,0,0,0,0,0,0,0,
0,0,0,0,1610612930,1610612762,2684354589,2684354755,0,0,0,0,0,0,0,0,
0,0,0,0,1610612931,1610612765,2684354588,2684354754,0,0,0,0,0,0,0,0,
0,0,0,0,1610612931,1610612765,2684354586,2684354754,0,0,0,0,0,0,0,0,
0,0,0,0,1610612931,1610612765,2684354587,2684354754,0,0,0,0,0,0,0,0,
0,0,0,0,1610612931,1610612765,2684354588,2684354754,0,0,0,0,0,0,0,0,
0,0,0,0,1610612931,1610612764,2684354589,2684354755,0,0,0,0,0,0,0,0,
0,0,0,0,1610612931,1610612763,2684354589,2684354755,0,0,0,0,0,0,0,0,
0,0,0,0,1610612930,1610612762,2684354589,2684354755,0,0,0,0,0,0,0,0
</chunk>
   <chunk x="-1232" y="176" width="16" height="16">
0,0,0,0,0,0,0,0,0,0,0,0,0,0,1610612931,1610612765,
0,0,0,0,0,0,0,0,0,0,0,0,0,0,1610612931,1610612765,
0,0,0,0,0,0,0,0,0,0,0,0,0,0,1610612931,1610612764,
0,0,0,0,0,0,0,0,0,0,0,0,0,0,1610612931,1610612763,
0,0,0,0,0,0,0,0,0,0,0,0,0,0,1610612930,1610612762,
0,0,0,0,0,0,0,0,0,0,0,0,0,0,1610612931,1610612765,
0,0,0,0,0,0,0,0,0,0,0,0,0,0,1610612931,1610612765,
0,0,0,0,0,0,0,0,0,0,0,0,0,0,1610612931,1610612765,
0,0,0,0,0,0,0,0,0,0,0,0,0,0,1610612931,1610612765,
0,0,0,0,0,0,0,0,0,0,0,0,0,0,1610612931,1610612764,
0,0,0,0,0,0,0,0,0,0,0,0,0,0,1610612931,1610612763,
0,0,0,0,0,0,0,0,0,0,0,0,0,0,1610612930,1610612762,
0,0,0,0,0,0,0,0,0,0,0,0,0,0,1610612931,1610612765,
0,0,0,0,0,0,0,0,0,0,0,0,0,0,1610612931,1610612765,
0,0,0,0,0,0,0,0,0,0,0,0,0,0,1610612931,1610612764,
0,0,0,0,0,0,0,0,0,0,0,0,0,0,1610612931,1610612763
</chunk>
   <chunk x="-1216" y="176" width="16" height="16">
1610612789,2684354612,2684354588,2684354754,0,0,0,0,0,0,0,0,0,0,0,0,
1610612789,2684354610,2684354586,2684354754,0,0,0,0,0,0,0,0,0,0,0,0,
1610612788,2684354611,2684354587,2684354754,0,0,0,0,0,0,0,0,0,0,0,0,
1610612787,2684354612,2684354588,2684354754,0,0,0,0,0,0,0,0,0,0,0,0,
1610612786,2684354613,2684354589,2684354755,0,0,0,0,0,0,0,0,0,0,0,0,
1610612789,2684354610,2684354586,2684354754,0,0,0,0,0,0,0,0,0,0,0,0,
1610612789,2684354611,2684354587,2684354754,0,0,0,0,0,0,0,0,0,0,0,0,
1610612789,2684354612,2684354588,2684354754,0,0,0,0,0,0,0,0,0,0,0,0,
1610612789,2684354610,2684354586,2684354754,0,0,0,0,0,0,0,0,0,0,0,0,
1610612788,2684354611,2684354587,2684354754,0,0,0,0,0,0,0,0,0,0,0,0,
1610612787,2684354612,2684354588,2684354754,0,0,0,0,0,0,0,0,0,0,0,0,
1610612786,2684354613,2684354589,2684354755,0,0,0,0,0,0,0,0,0,0,0,0,
1610612789,2684354612,2684354588,2684354754,0,0,0,0,0,0,0,0,0,0,0,0,
1610612789,2684354610,2684354586,2684354754,0,0,0,0,0,0,0,0,0,0,0,0,
1610612788,2684354611,2684354587,2684354754,0,0,0,0,0,0,0,0,0,0,0,0,
1610612787,2684354612,2684354588,2684354754,0,0,0,0,0,0,0,0,0,0,0,0
</chunk>
   <chunk x="-1056" y="176" width="16" height="16">
0,0,0,0,1610612931,1610612765,1610612789,2684354612,2684354588,2684354754,0,0,0,0,0,0,
0,0,0,0,1610612931,1610612765,1610612789,2684354610,2684354586,2684354754,0,0,0,0,0,0,
0,0,0,0,1610612931,1610612764,1610612788,2684354611,2684354587,2684354754,0,0,0,0,0,0,
0,0,0,0,1610612931,1610612763,1610612787,2684354612,2684354588,2684354754,0,0,0,0,0,0,
0,0,0,0,1610612930,1610612762,1610612786,2684354613,2684354589,2684354755,0,0,0,0,0,0,
0,0,0,0,1610612931,1610612765,1610612789,2684354610,2684354586,2684354754,0,0,0,0,0,0,
0,0,0,0,1610612931,1610612765,1610612789,2684354611,2684354587,2684354754,0,0,0,0,0,0,
0,0,0,0,1610612931,1610612765,1610612789,2684354612,2684354588,2684354754,0,0,0,0,0,0,
0,0,0,0,1610612931,1610612765,1610612789,2684354610,2684354586,2684354754,0,0,0,0,0,0,
0,0,0,0,1610612931,1610612764,1610612788,2684354611,2684354587,2684354754,0,0,0,0,0,0,
0,0,0,0,1610612931,1610612763,1610612787,2684354612,2684354588,2684354754,0,0,0,0,0,0,
0,0,0,0,1610612930,1610612762,1610612786,2684354613,2684354589,2684354755,0,0,0,0,0,0,
0,0,0,0,1610612931,1610612765,1610612789,2684354612,2684354588,2684354754,0,0,0,0,0,0,
0,0,0,0,1610612931,1610612765,1610612789,2684354610,2684354586,2684354754,0,0,0,0,0,0,
0,0,0,0,1610612931,1610612764,1610612788,2684354611,2684354587,2684354754,0,0,0,0,0,0,
0,0,0,0,1610612931,1610612763,1610612787,2684354612,2684354588,2684354754,0,0,0,0,0,0
</chunk>
   <chunk x="-976" y="176" width="16" height="16">
0,0,0,0,0,0,0,0,1610612931,1610612765,1610612789,2684354612,2684354588,2684354754,0,0,
0,0,0,0,0,0,0,0,1610612931,1610612765,1610612789,2684354610,2684354586,2684354754,0,0,
0,0,0,0,0,0,0,0,1610612931,1610612764,1610612788,2684354611,2684354587,2684354754,0,0,
0,0,0,0,0,0,0,0,1610612931,1610612763,1610612787,2684354612,2684354588,2684354754,0,0,
0,0,0,0,0,0,0,0,1610612930,1610612762,1610612786,2684354613,2684354589,2684354755,0,0,
0,0,0,0,0,0,0,0,1610612931,1610612765,1610612789,2684354610,2684354586,2684354754,0,0,
0,0,0,0,0,0,0,0,1610612931,1610612765,1610612789,2684354611,2684354587,2684354754,0,0,
0,0,0,0,0,0,0,0,1610612931,1610612765,1610612789,2684354612,2684354588,2684354754,0,0,
0,0,0,0,0,0,0,0,1610612931,1610612765,1610612789,2684354610,2684354586,2684354754,0,0,
0,0,0,0,0,0,0,0,1610612931,1610612764,1610612788,2684354611,2684354587,2684354754,0,0,
0,0,0,0,0,0,0,0,1610612931,1610612763,1610612787,2684354612,2684354588,2684354754,0,0,
0,0,0,0,0,0,0,0,1610612930,1610612762,1610612786,2684354613,2684354589,2684354755,0,0,
0,0,0,0,0,0,0,0,1610612931,1610612765,1610612789,2684354612,2684354588,2684354754,0,0,
0,0,0,0,0,0,0,0,1610612931,1610612765,1610612789,2684354610,2684354586,2684354754,0,0,
0,0,0,0,0,0,0,0,1610612931,1610612764,1610612788,2684354611,2684354587,2684354754,0,0,
0,0,0,0,0,0,0,0,1610612931,1610612763,1610612787,2684354612,2684354588,2684354754,0,0
</chunk>
   <chunk x="-1344" y="192" width="16" height="16">
0,0,0,0,1610612931,1610612765,2684354587,2684354754,0,0,0,0,0,0,0,0,
0,0,0,0,1610612931,1610612765,2684354588,2684354754,0,0,0,0,0,0,0,0,
0,0,0,0,1610612931,1610612765,2684354586,2684354754,0,0,0,0,0,0,0,0,
0,0,0,0,1610612931,1610612765,2684354587,2684354754,0,0,0,0,0,0,0,0,
0,0,0,0,1610612931,1610612765,2684354588,2684354754,0,0,0,0,0,0,0,0,
0,0,0,0,1610612931,1610612764,2684354589,2684354755,0,0,0,0,0,0,0,0,
0,0,0,0,1610612931,1610612763,2684354589,2684354755,0,0,0,0,0,0,0,0,
0,0,0,0,1610612930,1610612762,2684354589,2684354755,0,0,0,0,0,0,0,0,
0,0,0,0,1610612931,1610612765,2684354586,2684354754,0,0,0,0,0,0,0,0,
0,0,0,0,1610612931,1610612765,2684354587,2684354754,0,0,0,0,0,0,0,0,
0,0,0,0,1610612931,1610612765,2684354588,2684354754,0,0,0,0,0,0,0,0,
0,0,0,0,1610612931,1610612765,2684354586,2684354754,0,0,0,0,0,0,0,0,
0,0,0,0,1610612931,1610612765,2684354587,2684354754,0,0,0,0,0,0,0,0,
0,0,0,0,1610612931,1610612765,2684354588,2684354754,0,0,0,0,0,0,0,0,
0,0,0,0,1610612931,1610612764,2684354589,2684354755,0,0,0,0,0,0,0,0,
0,0,0,0,1610612930,1610612762,2684354589,2684354755,0,0,0,0,0,0,0,0
</chunk>
   <chunk x="-1232" y="192" width="16" height="16">
0,0,0,0,0,0,0,0,0,0,0,0,0,0,1610612930,1610612762,
0,0,0,0,0,0,0,0,0,0,0,0,0,0,1610612931,1610612765,
0,0,0,0,0,0,0,0,0,0,0,0,0,0,1610612931,1610612765,
0,0,0,0,0,0,0,0,0,0,0,0,0,0,1610612931,1610612765,
0,0,0,0,0,0,0,0,0,0,0,0,0,0,1610612931,1610612765,
0,0,0,0,0,0,0,0,0,0,0,0,0,0,1610612931,1610612765,
0,0,0,0,0,0,0,0,0,0,0,0,0,0,1610612931,1610612764,
0,0,0,0,0,0,0,0,0,0,0,0,0,0,1610612931,1610612763,
0,0,0,0,0,0,0,0,0,0,0,0,0,0,1610612930,1610612762,
0,0,0,0,0,0,0,0,0,0,0,0,0,0,1610612931,1610612765,
0,0,0,0,0,0,0,0,0,0,0,0,0,0,1610612931,1610612765,
0,0,0,0,0,0,0,0,0,0,0,0,0,0,1610612931,1610612765,
0,0,0,0,0,0,0,0,0,0,0,0,0,0,1610612931,1610612765,
0,0,0,0,0,0,0,0,0,0,0,0,0,0,1610612931,1610612764,
0,0,0,0,0,0,0,0,0,0,0,0,0,0,1610612931,1610612765,
0,0,0,0,0,0,0,0,0,0,0,0,0,0,1610612931,1610612764
</chunk>
   <chunk x="-1216" y="192" width="16" height="16">
1610612786,2684354613,2684354589,2684354755,0,0,0,0,0,0,0,0,0,0,0,0,
1610612789,2684354610,2684354586,2684354754,0,0,0,0,0,0,0,0,0,0,0,0,
1610612789,2684354610,2684354586,2684354754,0,0,0,0,0,0,0,0,0,0,0,0,
1610612789,2684354611,2684354587,2684354754,0,0,0,0,0,0,0,0,0,0,0,0,
1610612789,2684354612,2684354588,2684354754,0,0,0,0,0,0,0,0,0,0,0,0,
1610612789,2684354610,2684354586,2684354754,0,0,0,0,0,0,0,0,0,0,0,0,
1610612788,2684354611,2684354587,2684354754,0,0,0,0,0,0,0,0,0,0,0,0,
1610612787,2684354612,2684354588,2684354754,0,0,0,0,0,0,0,0,0,0,0,0,
1610612786,2684354613,2684354589,2684354755,0,0,0,0,0,0,0,0,0,0,0,0,
1610612789,2684354610,2684354586,2684354754,0,0,0,0,0,0,0,0,0,0,0,0,
1610612789,2684354611,2684354587,2684354754,0,0,0,0,0,0,0,0,0,0,0,0,
1610612789,2684354612,2684354588,2684354754,0,0,0,0,0,0,0,0,0,0,0,0,
1610612789,2684354610,2684354586,2684354754,0,0,0,0,0,0,0,0,0,0,0,0,
1610612788,2684354611,2684354587,2684354754,0,0,0,0,0,0,0,0,0,0,0,0,
1610612789,2684354610,2684354586,2684354754,0,0,0,0,0,0,0,0,0,0,0,0,
1610612788,2684354611,2684354587,2684354754,0,0,0,0,0,0,0,0,0,0,0,0
</chunk>
   <chunk x="-1056" y="192" width="16" height="16">
0,0,0,0,1610612930,1610612762,1610612786,2684354613,2684354589,2684354755,0,0,0,0,0,0,
0,0,0,0,1610612931,1610612765,1610612789,2684354610,2684354586,2684354754,0,0,0,0,0,0,
0,0,0,0,1610612931,1610612765,1610612789,2684354610,2684354586,2684354754,0,0,0,0,0,0,
0,0,0,0,1610612931,1610612765,1610612789,2684354611,2684354587,2684354754,0,0,0,0,0,0,
0,0,0,0,1610612931,1610612765,1610612789,2684354612,2684354588,2684354754,0,0,0,0,0,0,
0,0,0,0,1610612931,1610612765,1610612789,2684354610,2684354586,2684354754,0,0,0,0,0,0,
0,0,0,0,1610612931,1610612764,1610612788,2684354611,2684354587,2684354754,0,0,0,0,0,0,
0,0,0,0,1610612931,1610612763,1610612787,2684354612,2684354588,2684354754,0,0,0,0,0,0,
0,0,0,0,1610612930,1610612762,1610612786,2684354613,2684354589,2684354755,0,0,0,0,0,0,
0,0,0,0,1610612931,1610612765,1610612789,2684354610,2684354586,2684354754,0,0,0,0,0,0,
0,0,0,0,1610612931,1610612765,1610612789,2684354611,2684354587,2684354754,0,0,0,0,0,0,
0,0,0,0,1610612931,1610612765,1610612789,2684354612,2684354588,2684354754,0,0,0,0,0,0,
0,0,0,0,1610612931,1610612765,1610612789,2684354610,2684354586,2684354754,0,0,0,0,0,0,
0,0,0,0,1610612931,1610612764,1610612788,2684354611,2684354587,2684354754,0,0,0,0,0,0,
0,0,0,0,1610612931,1610612763,1610612787,2684354612,2684354588,2684354754,0,0,0,0,0,0,
0,0,0,0,1610612930,1610612762,1610612786,2684354613,2684354589,2684354755,0,0,0,0,0,0
</chunk>
   <chunk x="-976" y="192" width="16" height="16">
0,0,0,0,0,0,0,0,1610612930,1610612762,1610612786,2684354613,2684354589,2684354755,0,0,
0,0,0,0,0,0,0,0,1610612931,1610612765,1610612789,2684354610,2684354586,2684354754,0,0,
0,0,0,0,0,0,0,0,1610612931,1610612765,1610612789,2684354610,2684354586,2684354754,0,0,
0,0,0,0,0,0,0,0,1610612931,1610612765,1610612789,2684354611,2684354587,2684354754,0,0,
0,0,0,0,0,0,0,0,1610612931,1610612765,1610612789,2684354612,2684354588,2684354754,0,0,
0,0,0,0,0,0,0,0,1610612931,1610612765,1610612789,2684354610,2684354586,2684354754,0,0,
0,0,0,0,0,0,0,0,1610612931,1610612764,1610612788,2684354611,2684354587,2684354754,0,0,
0,0,0,0,0,0,0,0,1610612931,1610612763,1610612787,2684354612,2684354588,2684354754,0,0,
0,0,0,0,0,0,0,0,1610612930,1610612762,1610612786,2684354613,2684354589,2684354755,0,0,
0,0,0,0,0,0,0,0,1610612931,1610612765,1610612789,2684354610,2684354586,2684354754,0,0,
0,0,0,0,0,0,0,0,1610612931,1610612765,1610612789,2684354611,2684354587,2684354754,0,0,
0,0,0,0,0,0,0,0,1610612931,1610612765,1610612789,2684354612,2684354588,2684354754,0,0,
0,0,0,0,0,0,0,0,1610612931,1610612765,1610612789,2684354610,2684354586,2684354754,0,0,
0,0,0,0,0,0,0,0,1610612931,1610612764,1610612788,2684354611,2684354587,2684354754,0,0,
0,0,0,0,0,0,0,0,1610612931,1610612763,1610612787,2684354612,2684354588,2684354754,0,0,
0,0,0,0,0,0,0,0,1610612930,1610612762,1610612786,2684354613,2684354589,2684354755,0,0
</chunk>
   <chunk x="-1344" y="208" width="16" height="16">
0,0,0,0,1610612930,1610612762,2684354589,2684354755,0,0,0,0,0,0,0,0,
0,0,0,0,1610612930,1610612762,2684354589,2684354755,0,0,0,0,0,0,0,0,
0,0,0,0,1610612931,1610612765,2684354589,2684354755,0,0,0,0,0,0,0,0,
0,0,0,0,1610612930,1610612764,2684354589,2684354755,0,0,0,0,0,0,0,0,
0,0,0,0,1610612930,1610612763,2684354589,2684354755,0,0,0,0,0,0,0,0,
0,0,0,0,1610612930,1610612762,2684354589,194,194,194,194,195,194,195,195,195,
0,0,0,0,1610612930,1610612762,26,26,26,26,26,29,26,27,28,29,
0,0,0,0,1610612930,1610612763,3221225501,3221225501,3221225501,3221225501,3221225501,3221225500,3221225501,3221225501,3221225501,3221225500,
0,0,0,0,1610612930,1610612762,2684354586,3221225667,3221225667,3221225667,3221225667,3221225666,3221225667,3221225667,3221225667,3221225666,
0,0,0,0,1610612930,1610612762,2684354587,2684354755,0,0,0,0,0,0,0,0,
0,0,0,0,1610612930,1610612762,2684354588,2684354755,0,0,0,0,0,0,0,0,
0,0,0,0,1610612930,1610612763,2684354589,2684354755,0,0,0,0,0,0,0,0,
0,0,0,0,1610612930,1610612762,2684354587,2684354755,0,0,0,0,0,0,0,0,
0,0,0,0,1610612930,1610612764,2684354588,2684354755,0,0,0,0,0,0,0,0,
0,0,0,0,1610612930,1610612763,2684354589,2684354755,0,0,0,0,0,0,0,0,
0,0,0,0,1610612931,1610612765,2684354586,2684354754,0,0,0,0,0,0,0,0
</chunk>
   <chunk x="-1328" y="208" width="16" height="16">
0,0,0,0,0,0,0,0,0,0,0,0,0,0,0,0,
0,0,0,0,0,0,0,0,0,0,0,0,0,0,0,0,
0,0,0,0,0,0,0,0,0,0,0,0,0,0,0,0,
0,0,0,0,0,0,0,0,0,0,0,0,0,0,0,0,
0,0,0,0,0,0,0,0,0,0,0,0,0,0,0,0,
195,195,195,195,194,195,195,195,195,195,195,195,195,194,195,195,
29,29,29,29,26,27,28,29,29,29,29,29,29,26,27,28,
3221225499,3221225498,3221225500,3221225499,3221225501,3221225501,3221225501,3221225500,3221225499,3221225498,3221225500,3221225499,3221225498,3221225501,3221225501,3221225501,
3221225666,3221225666,3221225666,3221225666,3221225667,3221225667,3221225667,3221225666,3221225666,3221225666,3221225666,3221225666,3221225666,3221225667,3221225667,3221225667,
0,0,0,0,0,0,0,0,0,0,0,0,0,0,0,0,
0,0,0,0,0,0,0,0,0,0,0,0,0,0,0,0,
0,0,0,0,0,0,0,0,0,0,0,0,0,0,0,0,
0,0,0,0,0,0,0,0,0,0,0,0,0,0,0,0,
0,0,0,0,0,0,0,0,0,0,0,0,0,0,0,0,
0,0,0,0,0,0,0,0,0,0,0,0,0,0,0,0,
0,0,0,0,0,0,0,0,0,0,0,0,0,0,0,0
</chunk>
   <chunk x="-1312" y="208" width="16" height="16">
0,0,0,0,0,0,0,0,0,0,0,0,0,0,0,0,
0,0,0,0,0,0,0,0,0,0,0,0,0,0,0,0,
0,0,0,0,0,0,0,0,0,0,0,0,0,0,0,0,
0,0,0,0,0,0,0,0,0,0,0,0,0,0,0,0,
0,0,0,0,0,0,0,0,0,0,0,0,0,0,0,0,
195,194,195,195,195,194,195,195,195,195,195,195,195,195,195,194,
29,26,27,28,29,26,27,28,29,29,29,29,29,28,29,26,
3221225500,3221225501,3221225501,3221225501,3221225500,3221225501,3221225501,3221225501,3221225500,3221225499,3221225498,3221225500,3221225499,3221225501,3221225500,3221225501,
3221225666,3221225667,3221225667,3221225667,3221225666,3221225667,3221225667,3221225667,3221225666,3221225666,3221225666,3221225666,3221225666,3221225667,3221225666,3221225667,
0,0,0,0,0,0,0,0,0,0,0,0,0,0,0,0,
0,0,0,0,0,0,0,0,0,0,0,0,0,0,0,0,
0,0,0,0,0,0,0,0,0,0,0,0,0,0,0,0,
0,0,0,0,0,0,0,0,0,0,0,0,0,0,0,0,
0,0,0,0,0,0,0,0,0,0,0,0,0,0,0,0,
0,0,0,0,0,0,0,0,0,0,0,0,0,0,0,0,
0,0,0,0,0,0,0,0,0,0,0,0,0,0,0,0
</chunk>
   <chunk x="-1296" y="208" width="16" height="16">
0,0,0,0,0,0,0,0,0,0,0,0,0,0,0,0,
0,0,0,0,0,0,0,0,0,0,0,0,0,0,0,0,
0,0,0,0,0,0,0,0,0,0,0,0,0,0,0,0,
0,0,0,0,0,0,0,0,0,0,0,0,0,0,0,0,
0,0,0,0,0,0,0,0,0,0,0,0,0,0,0,0,
195,195,195,194,195,195,195,195,195,195,195,195,194,195,195,195,
27,28,29,26,27,28,29,29,29,29,29,29,26,27,28,29,
3221225501,3221225501,3221225500,3221225501,3221225501,3221225501,3221225500,3221225499,3221225498,3221225500,3221225499,3221225498,3221225501,3221225501,3221225501,3221225500,
3221225667,3221225667,3221225666,3221225667,3221225667,3221225667,3221225666,3221225666,3221225666,3221225666,3221225666,3221225666,3221225667,3221225667,3221225667,3221225666,
0,0,0,0,0,0,0,0,0,0,0,0,0,0,0,0,
0,0,0,0,0,0,0,0,0,0,0,0,0,0,0,0,
0,0,0,0,0,0,0,0,0,0,0,0,0,0,0,0,
0,0,0,0,0,0,0,0,0,0,0,0,0,0,0,0,
0,0,0,0,0,0,0,0,0,0,0,0,0,0,0,0,
0,0,0,0,0,0,0,0,0,0,0,0,0,0,0,0,
0,0,0,0,0,0,0,0,0,0,0,0,0,0,0,0
</chunk>
   <chunk x="-1280" y="208" width="16" height="16">
0,0,0,0,0,0,0,0,0,0,0,0,0,0,0,0,
0,0,0,0,0,0,0,0,0,0,0,0,0,0,0,0,
0,0,0,0,0,0,0,0,0,0,0,0,0,0,0,0,
0,0,0,0,0,0,0,0,0,0,0,0,0,0,0,0,
0,0,0,0,0,0,0,0,0,0,0,0,0,0,0,0,
194,195,195,195,194,195,195,195,195,195,195,195,195,195,195,195,
26,27,28,29,26,27,28,29,29,29,29,29,29,29,29,29,
3221225501,3221225501,3221225501,3221225500,3221225501,3221225501,3221225501,3221225500,3221225499,3221225498,3221225500,3221225499,3221225500,3221225499,3221225498,3221225500,
3221225667,3221225667,3221225667,3221225666,3221225667,3221225667,3221225667,3221225666,3221225666,3221225666,3221225666,3221225666,3221225666,3221225666,3221225666,3221225666,
0,0,0,0,0,0,0,0,0,0,0,0,0,0,0,0,
0,0,0,0,0,0,0,0,0,0,0,0,0,0,0,0,
0,0,0,0,0,0,0,0,0,0,0,0,0,0,0,0,
0,0,0,0,0,0,0,0,0,0,0,0,0,0,0,0,
0,0,0,0,0,0,0,0,0,0,0,0,0,0,0,0,
0,0,0,0,0,0,0,0,0,0,0,0,0,0,0,0,
0,0,0,0,0,0,0,0,0,0,0,0,0,0,0,0
</chunk>
   <chunk x="-1264" y="208" width="16" height="16">
0,0,0,0,0,0,0,0,0,0,0,0,0,0,0,0,
0,0,0,0,0,0,0,0,0,0,0,0,0,0,0,0,
0,0,0,0,0,0,0,0,0,0,0,0,0,0,0,0,
0,0,0,0,0,0,0,0,0,0,0,0,0,0,0,0,
0,0,0,0,0,0,0,0,0,0,0,0,0,0,0,0,
195,195,194,195,195,195,194,195,195,195,194,195,195,195,195,195,
29,29,26,27,28,29,26,27,28,29,26,27,28,29,29,29,
3221225499,3221225498,3221225501,3221225501,3221225501,3221225500,3221225501,3221225501,3221225501,3221225500,3221225501,3221225501,3221225501,3221225500,3221225499,3221225498,
3221225666,3221225666,3221225667,3221225667,3221225667,3221225666,3221225667,3221225667,3221225667,3221225666,3221225667,3221225667,3221225667,3221225666,3221225666,3221225666,
0,0,0,0,0,0,0,0,0,0,0,0,0,0,0,0,
0,0,0,0,0,0,0,0,0,0,0,0,0,0,0,0,
0,0,0,0,0,0,0,0,0,0,0,0,0,0,0,0,
0,0,0,0,0,0,0,0,0,0,0,0,0,0,0,0,
0,0,0,0,0,0,0,0,0,0,0,0,0,0,0,0,
0,0,0,0,0,0,0,0,0,0,0,0,0,0,0,0,
0,0,0,0,0,0,0,0,0,0,0,0,0,0,0,0
</chunk>
   <chunk x="-1248" y="208" width="16" height="16">
0,0,0,0,0,0,0,0,0,0,0,0,0,0,0,0,
0,0,0,0,0,0,0,0,0,0,0,0,0,0,0,0,
0,0,0,0,0,0,0,0,0,0,0,0,0,0,0,0,
0,0,0,0,0,0,0,0,0,0,0,0,0,0,0,0,
0,0,0,0,0,0,0,0,0,0,0,0,0,0,0,0,
195,195,195,195,194,195,195,195,195,195,195,195,195,194,195,195,
29,29,29,29,26,27,28,29,29,29,29,29,29,26,27,28,
3221225500,3221225499,3221225500,3221225499,3221225501,3221225501,3221225501,3221225500,3221225499,3221225498,3221225500,3221225499,3221225498,3221225501,3221225501,3221225501,
3221225666,3221225666,3221225666,3221225666,3221225667,3221225667,3221225667,3221225666,3221225666,3221225666,3221225666,3221225666,3221225666,3221225667,3221225667,3221225667,
0,0,0,0,0,0,0,0,0,0,0,0,0,0,0,0,
0,0,0,0,0,0,0,0,0,0,0,0,0,0,0,0,
0,0,0,0,0,0,0,0,0,0,0,0,0,0,0,0,
0,0,0,0,0,0,0,0,0,0,0,0,0,0,0,0,
0,0,0,0,0,0,0,0,0,0,0,0,0,0,0,0,
0,0,0,0,0,0,0,0,0,0,0,0,0,0,0,0,
0,0,0,0,0,0,0,0,0,0,0,0,0,0,0,0
</chunk>
   <chunk x="-1232" y="208" width="16" height="16">
0,0,0,0,0,0,0,0,0,0,0,0,0,0,1610612931,1610612763,
0,0,0,0,0,0,0,0,0,0,0,0,0,0,1610612931,1610612765,
0,0,0,0,0,0,0,0,0,0,0,0,0,0,1610612931,1610612764,
0,0,0,0,0,0,0,0,0,0,0,0,0,0,1610612931,1610612764,
0,0,0,0,0,0,0,0,0,0,0,0,0,0,1610612931,1610612763,
195,194,195,195,195,194,195,195,195,195,195,195,195,195,195,1610612762,
29,26,27,28,29,26,27,28,29,29,29,29,29,29,29,29,
3221225500,3221225501,3221225501,3221225501,3221225500,3221225501,3221225501,3221225501,3221225500,3221225499,3221225498,3221225498,3221225498,3221225498,3221225498,3221225498,
3221225666,3221225667,3221225667,3221225667,3221225666,3221225667,3221225667,3221225667,3221225666,3221225666,3221225666,3221225666,3221225666,3221225666,3221225666,1610612765,
0,0,0,0,0,0,0,0,0,0,0,0,0,0,1610612931,1610612765,
0,0,0,0,0,0,0,0,0,0,0,0,0,0,1610612931,1610612765,
0,0,0,0,0,0,0,0,0,0,0,0,0,0,1610612931,1610612765,
0,0,0,0,0,0,0,0,0,0,0,0,0,0,1610612931,1610612765,
0,0,0,0,0,0,0,0,0,0,0,0,0,0,1610612931,1610612765,
0,0,0,0,0,0,0,0,0,0,0,0,0,0,1610612931,1610612765,
0,0,0,0,0,0,0,0,0,0,0,0,0,0,1610612931,1610612765
</chunk>
   <chunk x="-1216" y="208" width="16" height="16">
1610612787,2684354612,2684354588,2684354754,0,0,0,0,0,0,0,0,0,0,0,0,
1610612789,2684354610,2684354586,2684354754,0,0,0,0,0,0,0,0,0,0,0,0,
1610612788,2684354611,2684354587,2684354754,0,0,0,0,0,0,0,0,0,0,0,0,
1610612787,2684354610,2684354586,2684354754,0,0,0,0,0,0,0,0,0,0,0,0,
1610612789,2684354610,2684354586,2684354754,0,0,0,0,0,0,0,0,0,0,0,0,
1610612789,2684354610,2684354586,2684354754,0,0,0,0,0,0,0,0,0,0,0,0,
1610612789,2684354611,2684354587,2684354754,0,0,0,0,0,0,0,0,0,0,0,0,
1610612789,2684354610,2684354586,2684354754,0,0,0,0,0,0,0,0,0,0,0,0,
1610612788,2684354610,2684354586,2684354754,0,0,0,0,0,0,0,0,0,0,0,0,
1610612787,2684354611,2684354587,2684354754,0,0,0,0,0,0,0,0,0,0,0,0,
1610612786,2684354612,2684354588,2684354754,0,0,0,0,0,0,0,0,0,0,0,0,
1610612786,2684354613,2684354589,2684354755,0,0,0,0,0,0,0,0,0,0,0,0,
1610612789,2684354610,2684354586,2684354754,0,0,0,0,0,0,0,0,0,0,0,0,
1610612789,2684354610,2684354586,2684354754,0,0,0,0,0,0,0,0,0,0,0,0,
1610612789,2684354610,2684354586,2684354754,0,0,0,0,0,0,0,0,0,0,0,0,
1610612789,2684354610,2684354586,2684354754,0,0,0,0,0,0,0,0,0,0,0,0
</chunk>
   <chunk x="-1056" y="208" width="16" height="16">
0,0,0,0,1610612931,1610612765,1610612789,2684354610,2684354586,2684354754,0,0,0,0,0,0,
0,0,0,0,1610612931,1610612765,1610612789,2684354611,2684354587,2684354754,0,0,0,0,0,0,
0,0,0,0,1610612931,1610612765,1610612789,2684354612,2684354588,2684354754,0,0,0,0,0,0,
0,0,0,0,1610612931,1610612765,1610612789,2684354610,2684354586,2684354754,0,0,0,0,0,0,
0,0,0,0,1610612931,1610612764,1610612788,2684354611,2684354587,2684354754,0,0,0,0,0,0,
0,0,0,0,1610612931,1610612763,1610612787,2684354612,2684354588,2684354754,0,0,0,0,0,0,
0,0,0,0,1610612930,1610612762,1610612786,2684354613,2684354589,2684354755,0,0,0,0,0,0,
0,0,0,0,1610612931,1610612765,1610612789,2684354610,2684354586,2684354754,0,0,0,0,0,0,
0,0,0,0,1610612931,1610612765,1610612789,2684354610,2684354586,2684354754,0,0,0,0,0,0,
0,0,0,0,1610612931,1610612765,1610612789,2684354611,2684354587,2684354754,0,0,0,0,0,0,
0,0,0,0,1610612931,1610612765,1610612789,2684354612,2684354588,2684354754,0,0,0,0,0,0,
0,0,0,0,1610612931,1610612765,1610612789,2684354610,2684354586,2684354754,0,0,0,0,0,0,
0,0,0,0,1610612931,1610612764,1610612788,2684354611,2684354587,2684354754,0,0,0,0,0,0,
0,0,0,0,1610612931,1610612763,1610612787,2684354612,2684354588,2684354754,0,0,0,0,0,0,
0,0,0,0,1610612930,1610612762,1610612786,2684354613,2684354589,2684354755,0,0,0,0,0,0,
0,0,0,0,1610612931,1610612765,1610612789,2684354610,2684354586,2684354754,0,0,0,0,0,0
</chunk>
   <chunk x="-976" y="208" width="16" height="16">
0,0,0,0,0,0,0,0,1610612931,1610612765,1610612789,2684354610,2684354586,2684354754,0,0,
0,0,0,0,0,0,0,0,1610612931,1610612765,1610612789,2684354611,2684354587,2684354754,0,0,
0,0,0,0,0,0,0,0,1610612931,1610612765,1610612789,2684354612,2684354588,2684354754,0,0,
0,0,0,0,0,0,0,0,1610612931,1610612765,1610612789,2684354610,2684354586,2684354754,0,0,
0,0,0,0,0,0,0,0,1610612931,1610612764,1610612788,2684354611,2684354587,2684354754,0,0,
0,0,0,0,0,0,0,0,1610612931,1610612763,1610612787,2684354612,2684354588,2684354754,0,0,
0,0,0,0,0,0,0,0,1610612930,1610612762,1610612786,2684354613,2684354589,2684354755,0,0,
0,0,0,0,0,0,0,0,1610612931,1610612765,1610612789,2684354610,2684354586,2684354754,0,0,
0,0,0,0,0,0,0,0,1610612931,1610612765,1610612789,2684354610,2684354586,2684354754,0,0,
0,0,0,0,0,0,0,0,1610612931,1610612765,1610612789,2684354611,2684354587,2684354754,0,0,
0,0,0,0,0,0,0,0,1610612931,1610612765,1610612789,2684354612,2684354588,2684354754,0,0,
0,0,0,0,0,0,0,0,1610612931,1610612765,1610612789,2684354610,2684354586,2684354754,0,0,
0,0,0,0,0,0,0,0,1610612931,1610612764,1610612788,2684354611,2684354587,2684354754,0,0,
0,0,0,0,0,0,0,0,1610612931,1610612763,1610612787,2684354612,2684354588,2684354754,0,0,
0,0,0,0,0,0,0,0,1610612930,1610612762,1610612786,2684354613,2684354589,2684354755,0,0,
0,0,0,0,0,0,0,0,1610612931,1610612765,1610612789,2684354610,2684354586,2684354754,0,0
</chunk>
   <chunk x="-1344" y="224" width="16" height="16">
0,0,0,0,1610612931,1610612765,2684354587,2684354754,0,0,0,0,0,0,0,0,
0,0,0,0,1610612931,1610612765,2684354588,2684354754,0,0,0,0,0,0,0,0,
0,0,0,0,1610612931,1610612765,2684354586,2684354754,0,0,0,0,0,0,0,0,
0,0,0,0,1610612931,1610612765,2684354587,2684354754,0,0,0,0,0,0,0,0,
0,0,0,0,1610612931,1610612765,2684354588,2684354754,0,0,0,0,0,0,0,0,
0,0,0,0,1610612931,1610612764,2684354589,2684354755,0,0,0,0,0,0,0,0,
0,0,0,0,1610612931,1610612763,2684354589,2684354755,0,0,0,0,0,0,0,0,
0,0,0,0,1610612930,1610612762,2684354589,2684354755,0,0,0,0,0,0,0,0,
0,0,0,0,1610612931,1610612765,2684354586,2684354754,0,0,0,0,0,0,0,0,
0,0,0,0,1610612931,1610612765,2684354586,2684354754,0,0,0,0,0,0,0,0,
0,0,0,0,1610612931,1610612765,2684354587,2684354754,0,0,0,0,0,0,0,0,
0,0,0,0,1610612931,1610612765,2684354588,2684354754,0,0,0,0,0,0,0,0,
0,0,0,0,1610612931,1610612765,2684354586,2684354754,0,0,0,0,0,0,0,0,
0,0,0,0,1610612931,1610612765,2684354587,2684354754,0,0,0,0,0,0,0,0,
0,0,0,0,1610612931,1610612765,2684354588,2684354754,0,0,0,0,0,0,0,0,
0,0,0,0,1610612931,1610612764,2684354589,2684354755,0,0,0,0,0,0,0,0
</chunk>
   <chunk x="-1232" y="224" width="16" height="16">
0,0,0,0,0,0,0,0,0,0,0,0,0,0,1610612931,1610612765,
0,0,0,0,0,0,0,0,0,0,0,0,0,0,1610612931,1610612765,
0,0,0,0,0,0,0,0,0,0,0,0,0,0,1610612931,1610612765,
0,0,0,0,0,0,0,0,0,0,0,0,0,0,1610612931,1610612764,
0,0,0,0,0,0,0,0,0,0,0,0,0,0,1610612931,1610612763,
0,0,0,0,0,0,0,0,0,0,0,0,0,0,1610612930,1610612762,
0,0,0,0,0,0,0,0,0,0,0,0,0,0,1610612931,1610612765,
0,0,0,0,0,0,0,0,0,0,0,0,0,0,1610612931,1610612765,
0,0,0,0,0,0,0,0,0,0,0,0,0,0,1610612931,1610612765,
0,0,0,0,0,0,0,0,0,0,0,0,0,0,1610612931,1610612765,
0,0,0,0,0,0,0,0,0,0,0,0,0,0,1610612931,1610612764,
0,0,0,0,0,0,0,0,0,0,0,0,0,0,1610612931,1610612763,
0,0,0,0,0,0,0,0,0,0,0,0,0,0,1610612930,1610612762,
0,0,0,0,0,0,0,0,0,0,0,0,0,0,1610612931,1610612765,
0,0,0,0,0,0,0,0,0,0,0,0,0,0,1610612931,1610612765,
0,0,0,0,0,0,0,0,0,0,0,0,0,0,1610612931,1610612765
</chunk>
   <chunk x="-1216" y="224" width="16" height="16">
1610612789,2684354611,2684354587,2684354754,0,0,0,0,0,0,0,0,0,0,0,0,
1610612789,2684354612,2684354588,2684354754,0,0,0,0,0,0,0,0,0,0,0,0,
1610612789,2684354610,2684354586,2684354754,0,0,0,0,0,0,0,0,0,0,0,0,
1610612788,2684354611,2684354587,2684354754,0,0,0,0,0,0,0,0,0,0,0,0,
1610612787,2684354612,2684354588,2684354754,0,0,0,0,0,0,0,0,0,0,0,0,
1610612786,2684354613,2684354589,2684354755,0,0,0,0,0,0,0,0,0,0,0,0,
1610612789,2684354610,2684354586,2684354754,0,0,0,0,0,0,0,0,0,0,0,0,
1610612789,2684354611,2684354587,2684354754,0,0,0,0,0,0,0,0,0,0,0,0,
1610612789,2684354612,2684354588,2684354754,0,0,0,0,0,0,0,0,0,0,0,0,
1610612789,2684354610,2684354586,2684354754,0,0,0,0,0,0,0,0,0,0,0,0,
1610612788,2684354611,2684354587,2684354754,0,0,0,0,0,0,0,0,0,0,0,0,
1610612787,2684354612,2684354588,2684354754,0,0,0,0,0,0,0,0,0,0,0,0,
1610612786,2684354613,2684354589,2684354755,0,0,0,0,0,0,0,0,0,0,0,0,
1610612789,2684354610,2684354586,2684354754,0,0,0,0,0,0,0,0,0,0,0,0,
1610612789,2684354610,2684354586,2684354754,0,0,0,0,0,0,0,0,0,0,0,0,
1610612789,2684354611,2684354587,2684354754,0,0,0,0,0,0,0,0,0,0,0,0
</chunk>
   <chunk x="-1056" y="224" width="16" height="16">
0,0,0,0,1610612931,1610612765,1610612789,2684354611,2684354587,2684354754,0,0,0,0,0,0,
0,0,0,0,1610612931,1610612765,1610612789,2684354612,2684354588,2684354754,0,0,0,0,0,0,
0,0,0,0,1610612931,1610612765,1610612789,2684354610,2684354586,2684354754,0,0,0,0,0,0,
0,0,0,0,1610612931,1610612764,1610612788,2684354611,2684354587,2684354754,0,0,0,0,0,0,
0,0,0,0,1610612931,1610612763,1610612787,2684354612,2684354588,2684354754,0,0,0,0,0,0,
0,0,0,0,1610612930,1610612762,1610612786,2684354613,2684354589,2684354755,0,0,0,0,0,0,
0,0,0,0,1610612931,1610612765,1610612789,2684354610,2684354586,2684354754,0,0,0,0,0,0,
0,0,0,0,1610612931,1610612765,1610612789,2684354611,2684354587,2684354754,0,0,0,0,0,0,
0,0,0,0,1610612931,1610612765,1610612789,2684354612,2684354588,2684354754,0,0,0,0,0,0,
0,0,0,0,1610612931,1610612765,1610612789,2684354610,2684354586,2684354754,0,0,0,0,0,0,
0,0,0,0,1610612931,1610612764,1610612788,2684354611,2684354587,2684354754,0,0,0,0,0,0,
0,0,0,0,1610612931,1610612763,1610612787,2684354612,2684354588,2684354754,0,0,0,0,0,0,
0,0,0,0,1610612930,1610612762,1610612786,2684354613,2684354589,2684354755,0,0,0,0,0,0,
0,0,0,0,1610612931,1610612765,1610612789,2684354610,2684354586,2684354754,0,0,0,0,0,0,
0,0,0,0,1610612931,1610612765,1610612789,2684354610,2684354586,2684354754,0,0,0,0,0,0,
0,0,0,0,1610612931,1610612765,1610612789,2684354611,2684354587,2684354754,0,0,0,0,0,0
</chunk>
   <chunk x="-976" y="224" width="16" height="16">
0,0,0,0,0,0,0,0,1610612931,1610612765,1610612789,2684354611,2684354587,2684354754,0,0,
0,0,0,0,0,0,0,0,1610612931,1610612765,1610612789,2684354612,2684354588,2684354754,0,0,
0,0,0,0,0,0,0,0,1610612931,1610612765,1610612789,2684354610,2684354586,2684354754,0,0,
0,0,0,0,0,0,0,0,1610612931,1610612764,1610612788,2684354611,2684354587,2684354754,0,0,
0,0,0,0,0,0,0,0,1610612931,1610612763,1610612787,2684354612,2684354588,2684354754,0,0,
0,0,0,0,0,0,0,0,1610612930,1610612762,1610612786,2684354613,2684354589,2684354755,0,0,
0,0,0,0,0,0,0,0,1610612931,1610612765,1610612789,2684354610,2684354586,2684354754,0,0,
0,0,0,0,0,0,0,0,1610612931,1610612765,1610612789,2684354611,2684354587,2684354754,0,0,
0,0,0,0,0,0,0,0,1610612931,1610612765,1610612789,2684354612,2684354588,2684354754,0,0,
0,0,0,0,0,0,0,0,1610612931,1610612765,1610612789,2684354610,2684354586,2684354754,0,0,
0,0,0,0,0,0,0,0,1610612931,1610612764,1610612788,2684354611,2684354587,2684354754,0,0,
0,0,0,0,0,0,0,0,1610612931,1610612763,1610612787,2684354612,2684354588,2684354754,0,0,
0,0,0,0,0,0,0,0,1610612930,1610612762,1610612786,2684354613,2684354589,2684354755,0,0,
0,0,0,0,0,0,0,0,1610612931,1610612765,1610612789,2684354610,2684354586,2684354754,0,0,
0,0,0,0,0,0,0,0,1610612931,1610612765,1610612789,2684354610,2684354586,2684354754,0,0,
0,0,0,0,0,0,0,0,1610612931,1610612765,1610612789,2684354611,2684354587,2684354754,0,0
</chunk>
   <chunk x="-816" y="224" width="16" height="16">
0,0,0,0,0,0,0,0,0,0,0,0,0,0,0,0,
0,0,0,0,0,0,0,0,0,0,0,0,0,0,0,0,
0,0,0,0,0,0,0,0,0,0,0,0,0,0,0,0,
0,0,0,0,0,0,0,0,0,0,0,0,0,0,0,0,
0,0,0,0,0,0,0,0,0,0,0,0,0,0,0,0,
0,0,0,0,0,0,0,0,0,0,0,0,0,0,0,0,
0,0,0,0,0,0,0,0,0,0,0,0,0,0,0,0,
0,0,0,0,0,0,0,0,0,0,0,0,0,0,0,0,
0,0,0,0,0,0,0,0,0,0,0,0,0,0,0,0,
0,0,0,0,0,0,0,0,0,0,0,0,0,0,0,0,
0,123,0,0,0,0,0,0,0,0,0,0,0,0,0,0,
0,0,0,0,0,0,0,0,0,0,0,0,0,0,0,0,
0,0,0,0,0,0,0,0,0,0,0,0,0,0,0,0,
0,0,0,0,0,0,0,0,0,0,0,0,0,0,0,0,
0,0,0,0,0,0,0,0,0,0,0,0,0,0,0,0,
0,0,0,0,0,0,0,0,0,0,0,0,0,0,0,0
</chunk>
   <chunk x="-800" y="224" width="16" height="16">
0,0,0,0,0,0,0,0,0,0,0,0,0,0,0,0,
0,0,0,0,0,0,0,0,0,0,0,0,0,0,0,0,
0,0,0,0,0,0,0,0,0,0,0,0,0,0,0,0,
0,0,0,0,0,0,0,0,0,0,0,0,0,0,0,0,
0,0,0,0,0,0,0,0,0,0,0,0,0,0,0,0,
0,0,0,0,0,0,0,0,0,0,0,0,0,0,0,0,
0,0,0,0,0,0,0,0,0,0,0,0,0,0,0,0,
0,0,0,0,0,0,0,0,0,0,0,0,0,0,0,0,
0,0,0,0,0,0,0,0,0,0,0,0,0,0,0,0,
0,0,0,0,0,0,0,0,0,0,0,0,0,0,0,0,
0,0,0,0,0,0,0,0,0,0,0,0,0,0,0,0,
0,0,0,0,0,0,0,0,0,0,0,123,0,0,0,0,
0,0,0,0,0,0,0,0,0,0,0,0,0,0,0,0,
0,0,0,0,0,0,0,0,0,0,0,0,0,0,0,0,
0,0,0,0,0,0,0,0,0,0,0,0,0,0,0,0,
0,0,0,0,0,0,0,0,0,0,0,0,0,0,0,0
</chunk>
   <chunk x="-1344" y="240" width="16" height="16">
0,0,0,0,1610612931,1610612763,2684354589,2684354755,0,0,0,0,0,0,0,0,
0,0,0,0,1610612930,1610612762,2684354589,2684354755,0,0,0,0,0,0,0,0,
0,0,0,0,1610612931,1610612765,2684354586,2684354754,0,0,0,0,0,0,0,0,
0,0,0,0,1610612931,1610612765,2684354586,2684354754,0,0,0,0,0,0,0,0,
0,0,0,0,1610612931,1610612765,2684354587,2684354754,0,0,0,0,0,0,0,0,
0,0,0,0,1610612931,1610612765,2684354588,2684354754,0,0,0,0,0,0,0,0,
0,0,0,0,1610612931,1610612765,2684354586,2684354754,0,0,0,0,0,0,0,0,
0,0,0,0,1610612931,1610612765,2684354587,2684354754,0,0,0,0,0,0,0,0,
0,0,0,0,1610612931,1610612765,2684354588,2684354754,0,0,0,0,0,0,0,0,
0,0,0,0,1610612931,1610612764,2684354589,2684354755,0,0,0,0,0,0,0,0,
0,0,0,0,1610612931,1610612763,2684354589,2684354755,0,0,0,0,0,0,0,0,
0,0,0,0,1610612930,1610612762,2684354589,2684354755,0,0,0,0,0,0,0,0,
0,0,0,0,1610612931,1610612765,2684354586,2684354754,0,0,0,0,0,0,0,0,
0,0,0,0,1610612931,1610612765,2684354586,2684354754,0,0,0,0,0,0,0,0,
0,0,0,0,1610612931,1610612765,2684354587,2684354754,0,0,0,0,0,0,0,0,
0,0,0,0,1610612931,1610612765,2684354588,2684354754,0,0,0,0,0,0,0,0
</chunk>
   <chunk x="-1232" y="240" width="16" height="16">
0,0,0,0,0,0,0,0,0,0,0,0,0,0,1610612931,1610612765,
0,0,0,0,0,0,0,0,0,0,0,0,0,0,1610612931,1610612765,
0,0,0,0,0,0,0,0,0,0,0,0,0,0,1610612931,1610612764,
0,0,0,0,0,0,0,0,0,0,0,0,0,0,1610612931,1610612763,
0,0,0,0,0,0,0,0,0,0,0,0,0,0,1610612930,1610612762,
0,0,0,0,0,0,0,0,0,0,0,0,0,0,1610612931,1610612765,
0,0,0,0,0,0,0,0,0,0,0,0,0,0,1610612931,1610612765,
0,0,0,0,0,0,0,0,0,0,0,0,0,0,1610612931,1610612765,
0,0,0,0,0,0,0,0,0,0,0,0,0,0,1610612931,1610612765,
0,0,0,0,0,0,0,0,0,0,0,0,0,0,1610612931,1610612764,
0,0,0,0,0,0,0,0,0,0,0,0,0,0,1610612931,1610612763,
0,0,0,0,0,0,0,0,0,0,0,0,0,0,1610612930,1610612762,
0,0,0,0,0,0,0,0,0,0,0,0,0,0,1610612931,1610612765,
0,0,0,0,0,0,0,0,0,0,0,0,0,0,1610612931,1610612765,
0,0,0,0,0,0,0,0,0,0,0,0,0,0,1610612931,1610612765,
0,0,0,0,0,0,0,0,0,0,0,0,0,0,1610612931,1610612765
</chunk>
   <chunk x="-1216" y="240" width="16" height="16">
1610612789,2684354612,2684354588,2684354754,0,0,0,0,0,0,0,0,0,0,0,0,
1610612789,2684354610,2684354586,2684354754,0,0,0,0,0,0,0,0,0,0,0,0,
1610612788,2684354611,2684354587,2684354754,0,0,0,0,0,0,0,0,0,0,0,0,
1610612787,2684354612,2684354588,2684354754,0,0,0,0,0,0,0,0,0,0,0,0,
1610612786,2684354613,2684354589,2684354755,0,0,0,0,0,0,0,0,0,0,0,0,
1610612789,2684354610,2684354586,2684354754,0,0,0,0,0,0,0,0,0,0,0,0,
1610612789,2684354611,2684354587,2684354754,0,0,0,0,0,0,0,0,0,0,0,0,
1610612789,2684354612,2684354588,2684354754,0,0,0,0,0,0,0,0,0,0,0,0,
1610612789,2684354610,2684354586,2684354754,0,0,0,0,0,0,0,0,0,0,0,0,
1610612788,2684354611,2684354587,2684354754,0,0,0,0,0,0,0,0,0,0,0,0,
1610612787,2684354612,2684354588,2684354754,0,0,0,0,0,0,0,0,0,0,0,0,
1610612786,2684354613,2684354589,2684354755,0,0,0,0,0,0,0,0,0,0,0,0,
1610612789,2684354610,2684354586,2684354754,0,0,0,0,0,0,0,0,0,0,0,0,
1610612789,2684354610,2684354586,2684354754,0,0,0,0,0,0,0,0,0,0,0,0,
1610612789,2684354611,2684354587,2684354754,0,0,0,0,0,0,0,0,0,0,0,0,
1610612789,2684354612,2684354588,2684354754,0,0,0,0,0,0,0,0,0,0,0,0
</chunk>
   <chunk x="-1056" y="240" width="16" height="16">
0,0,0,0,1610612931,1610612765,1610612789,2684354612,2684354588,2684354754,0,0,0,0,0,0,
0,0,0,0,1610612931,1610612765,1610612789,2684354610,2684354586,2684354754,0,0,0,0,0,0,
0,0,0,0,1610612931,1610612764,1610612788,2684354611,2684354587,2684354754,0,0,0,0,0,0,
0,0,0,0,1610612931,1610612763,1610612787,2684354612,2684354588,2684354754,0,0,0,0,0,0,
0,0,0,0,1610612930,1610612762,1610612786,2684354613,2684354589,2684354755,0,0,0,0,0,0,
0,0,0,0,1610612931,1610612765,1610612789,2684354610,2684354586,2684354754,0,0,0,0,0,0,
0,0,0,0,1610612931,1610612765,1610612789,2684354611,2684354587,2684354754,0,0,0,0,0,0,
0,0,0,0,1610612931,1610612765,1610612789,2684354612,2684354588,2684354754,0,0,0,0,0,0,
0,0,0,0,1610612931,1610612765,1610612789,2684354610,2684354586,2684354754,0,0,0,0,0,0,
0,0,0,0,1610612931,1610612764,1610612788,2684354611,2684354587,2684354754,0,0,0,0,0,0,
0,0,0,0,1610612931,1610612763,1610612787,2684354612,2684354588,2684354754,0,0,0,0,0,0,
0,0,0,0,1610612930,1610612762,1610612786,2684354613,2684354589,2684354755,0,0,0,0,0,0,
0,0,0,0,1610612931,1610612765,1610612789,2684354610,2684354586,2684354754,0,0,0,0,0,0,
0,0,0,0,1610612931,1610612765,1610612789,2684354610,2684354586,2684354754,0,0,0,0,0,0,
0,0,0,0,1610612931,1610612765,1610612789,2684354611,2684354587,2684354754,0,0,0,0,0,0,
0,0,0,0,1610612931,1610612765,1610612789,2684354612,2684354588,2684354754,0,0,0,0,0,0
</chunk>
   <chunk x="-976" y="240" width="16" height="16">
0,0,0,0,0,0,0,0,1610612931,1610612765,1610612789,2684354612,2684354588,2684354754,0,0,
0,0,0,0,0,0,0,0,1610612931,1610612765,1610612789,2684354610,2684354586,2684354754,0,0,
0,0,0,0,0,0,0,0,1610612931,1610612764,1610612788,2684354611,2684354587,2684354754,0,0,
0,0,0,0,0,0,0,0,1610612931,1610612763,1610612787,2684354612,2684354588,2684354754,0,0,
0,0,0,0,0,0,0,0,1610612930,1610612762,1610612786,2684354613,2684354589,2684354755,0,0,
0,0,0,0,0,0,0,0,1610612931,1610612765,1610612789,2684354610,2684354586,2684354754,0,0,
0,0,0,0,0,0,0,0,1610612931,1610612765,1610612789,2684354611,2684354587,2684354754,0,0,
0,0,0,0,0,0,0,0,1610612931,1610612765,1610612789,2684354612,2684354588,2684354754,0,0,
0,0,0,0,0,0,0,0,1610612931,1610612765,1610612789,2684354610,2684354586,2684354754,0,0,
0,0,0,0,0,0,0,0,1610612931,1610612764,1610612788,2684354611,2684354587,2684354754,0,0,
0,0,0,0,0,0,0,0,1610612931,1610612763,1610612787,2684354612,2684354588,2684354754,0,0,
0,0,0,0,0,0,0,0,1610612930,1610612762,1610612786,2684354613,2684354589,2684354755,0,0,
0,0,0,0,0,0,0,0,1610612931,1610612765,1610612789,2684354610,2684354586,2684354754,0,0,
0,0,0,0,0,0,0,0,1610612931,1610612765,1610612789,2684354610,2684354586,2684354754,0,0,
0,0,0,0,0,0,0,0,1610612931,1610612765,1610612789,2684354611,2684354587,2684354754,0,0,
0,0,0,0,0,0,0,0,1610612931,1610612765,1610612789,2684354612,2684354588,2684354754,0,0
</chunk>
   <chunk x="-752" y="240" width="16" height="16">
0,0,0,0,0,0,0,0,0,0,0,0,0,0,0,0,
0,0,0,0,0,123,0,0,0,0,0,0,0,0,0,0,
0,0,0,0,0,0,0,0,0,0,0,0,0,0,0,0,
0,0,0,0,0,0,0,0,0,0,0,0,0,0,0,0,
0,0,0,0,0,0,0,0,0,0,0,0,0,0,0,0,
0,0,0,0,0,0,0,0,0,0,0,0,0,0,0,0,
0,0,0,0,0,0,0,0,0,0,0,0,0,0,0,0,
0,0,0,0,0,0,0,0,0,0,0,0,0,0,0,0,
0,0,0,0,0,0,0,0,0,0,0,0,0,0,0,0,
0,0,0,0,0,0,0,0,0,0,0,0,0,0,0,0,
0,0,0,0,0,0,0,0,0,0,0,0,0,0,0,0,
0,0,0,0,0,0,0,0,0,0,0,0,0,0,0,0,
0,0,0,0,0,0,0,0,0,0,0,0,0,0,0,0,
0,0,0,0,0,0,0,0,0,0,0,0,0,0,0,0,
0,0,0,0,0,0,0,0,0,0,0,0,0,0,0,0,
0,0,0,0,0,0,0,0,0,0,0,0,0,0,0,0
</chunk>
   <chunk x="96" y="240" width="16" height="16">
0,0,0,0,0,0,0,0,0,0,0,0,0,0,0,0,
0,0,0,0,0,0,0,0,0,0,0,0,0,0,0,0,
0,0,0,0,0,0,0,0,0,0,0,0,0,0,0,0,
0,0,0,0,0,0,0,0,0,0,0,0,0,0,0,0,
0,0,0,0,0,0,0,0,0,0,0,0,0,0,0,0,
0,0,0,0,0,0,0,0,0,0,0,0,0,0,0,0,
0,0,0,0,0,0,0,0,0,0,0,0,0,0,0,0,
0,0,0,0,0,0,0,0,0,0,0,0,0,0,0,0,
0,0,0,0,0,0,0,0,0,0,0,0,0,0,0,0,
0,0,0,0,0,0,0,0,0,0,0,0,0,0,0,0,
0,0,0,0,0,0,0,0,0,0,0,0,0,0,0,0,
0,0,0,0,0,0,0,0,0,0,0,0,0,0,0,0,
0,0,0,0,0,0,0,0,0,0,0,0,0,0,0,0,
0,0,0,0,0,0,0,0,0,0,0,0,0,0,123,0,
0,0,0,0,0,0,0,0,0,0,0,0,0,0,0,0,
0,0,0,0,0,0,0,0,0,0,0,0,0,0,0,0
</chunk>
   <chunk x="128" y="240" width="16" height="16">
0,0,0,0,0,0,0,0,0,0,0,0,0,0,0,0,
0,0,0,0,0,0,0,0,0,0,0,0,0,0,0,0,
0,0,0,0,0,0,0,0,0,0,0,0,0,0,0,0,
0,0,0,0,0,0,0,0,0,0,0,0,0,0,0,0,
0,0,0,0,0,0,0,0,0,0,0,0,0,0,0,0,
0,0,0,0,0,0,0,0,0,0,0,0,0,0,0,0,
0,0,0,0,0,0,0,0,0,0,0,0,0,0,0,0,
0,0,0,0,0,0,0,0,0,0,0,0,0,0,0,0,
0,0,0,0,0,0,0,0,0,0,0,0,0,0,0,0,
0,0,0,0,0,0,0,0,0,0,0,0,0,0,0,0,
0,0,0,0,0,0,0,0,0,0,0,0,0,0,0,0,
0,0,0,0,0,0,0,0,0,0,0,0,0,0,0,0,
0,0,0,0,0,0,0,123,0,0,0,0,0,0,0,0,
0,0,0,0,0,0,0,0,0,0,0,0,0,0,0,0,
0,0,0,0,0,0,0,0,0,0,0,0,0,0,0,0,
0,0,0,0,0,0,0,0,0,0,0,0,0,0,0,0
</chunk>
   <chunk x="-1360" y="256" width="16" height="16">
0,0,0,0,0,0,0,0,0,0,0,0,0,0,0,0,
0,0,0,0,0,0,0,0,0,0,0,0,0,0,0,0,
0,0,0,0,0,0,0,0,0,0,0,0,0,0,0,0,
0,0,0,0,0,0,0,0,0,0,0,0,0,0,0,0,
0,0,0,0,0,0,0,0,0,0,0,0,0,0,0,0,
0,0,0,0,0,0,0,0,0,0,0,0,0,0,0,0,
194,194,194,194,194,194,194,194,195,194,194,194,195,194,195,194,
26,27,28,26,26,26,26,26,26,26,26,26,26,26,26,26,
50,51,52,50,50,50,50,50,50,50,50,50,50,50,50,50,
50,50,50,50,50,50,50,50,50,50,50,50,50,50,50,51,
3221225501,3221225500,3221225499,3221225501,3221225501,3221225501,3221225501,3221225501,3221225501,3221225501,3221225501,3221225501,3221225501,3221225501,3221225501,3221225501,
3221225667,3221225666,3221225667,3221225666,3221225666,3221225667,3221225666,3221225666,3221225667,3221225666,3221225666,3221225667,3221225666,3221225666,3221225666,3221225667,
0,0,0,0,0,0,0,0,0,0,0,0,0,0,0,0,
0,0,0,0,0,0,0,0,0,0,0,0,0,0,0,0,
0,0,0,0,0,0,0,0,0,0,0,0,0,0,0,0,
0,0,0,0,0,0,0,0,0,0,0,0,0,0,0,0
</chunk>
   <chunk x="-1344" y="256" width="16" height="16">
0,0,0,0,1610612931,1610612765,2684354586,2684354754,0,0,0,0,0,0,0,0,
0,0,0,0,1610612931,1610612765,2684354587,2684354754,0,0,0,0,0,0,0,0,
0,0,0,0,1610612931,1610612765,2684354588,2684354754,0,0,0,0,0,0,0,0,
0,0,0,0,1610612931,1610612764,2684354589,2684354755,0,0,0,0,0,0,0,0,
0,0,0,1610612930,1610612762,1610612786,2684354613,2684354589,2684354755,0,0,0,0,0,0,0,
0,0,0,1610612930,1610612762,1610612786,2684354613,2684354589,2684354755,0,0,0,0,0,0,0,
195,195,195,1610612762,1610612789,1610612786,2684354613,2684354612,2684354589,194,194,194,194,195,194,195,
26,29,29,29,1610612789,53,52,2684354613,26,26,26,26,29,26,27,28,
50,53,53,53,1610612788,50,50,2684354613,50,50,50,50,53,50,51,52,
52,3221225522,3221225522,3221225522,1610612789,53,50,2684354612,3221225525,3221225525,3221225525,3221225525,52,53,50,51,
3221225500,3221225498,3221225498,3221225498,1610612789,3221225524,3221225525,2684354613,3221225501,3221225501,3221225501,3221225501,3221225501,3221225501,3221225501,3221225501,
3221225666,3221225666,3221225666,1610612765,1610612788,1610612789,2684354610,2684354613,2684354586,3221225667,3221225667,3221225667,3221225666,3221225666,3221225666,3221225666,
0,0,0,1610612931,1610612765,1610612789,2684354610,2684354586,2684354754,0,0,0,0,0,0,0,
0,0,0,1610612931,1610612765,1610612789,2684354610,2684354586,2684354754,0,0,0,0,0,0,0,
0,0,0,0,1610612930,1610612764,2684354589,2684354755,0,0,0,0,0,0,0,0,
0,0,0,0,1610612931,1610612765,2684354586,2684354754,0,3221225571,3221225570,0,0,0,0,0
</chunk>
   <chunk x="-1328" y="256" width="16" height="16">
0,0,0,0,0,0,0,0,0,0,0,0,0,0,0,0,
0,0,0,0,0,0,0,0,0,0,0,0,0,0,0,0,
0,0,0,0,0,0,0,0,0,0,0,0,0,0,0,0,
0,0,0,0,0,0,0,0,0,0,0,0,0,0,0,0,
0,0,0,0,0,0,0,0,0,0,0,0,0,0,0,0,
0,0,0,0,0,0,0,0,0,0,0,0,0,0,0,0,
194,195,194,194,195,194,194,195,194,194,195,194,195,194,195,194,
29,26,26,26,26,26,26,26,26,26,26,26,26,26,26,26,
53,50,50,50,50,50,50,50,50,50,50,50,50,50,50,50,
52,50,51,52,53,50,51,52,53,53,50,51,52,53,53,53,
3221225500,3221225499,3221225498,3221225501,3221225500,3221225499,3221225501,3221225500,3221225501,3221225500,3221225499,3221225501,3221225500,3221225501,3221225500,3221225499,
3221225666,3221225666,3221225667,3221225666,3221225666,3221225666,3221225666,3221225666,3221225666,3221225666,3221225666,3221225666,3221225666,3221225666,3221225666,3221225666,
0,0,0,0,0,0,0,0,0,0,0,0,0,0,0,0,
0,0,0,0,0,0,0,0,0,0,0,0,0,0,0,0,
0,0,0,0,0,0,0,0,0,0,0,0,0,0,0,0,
0,3221225571,3221225571,3221225571,3221225570,0,0,0,0,0,0,0,0,0,0,0
</chunk>
   <chunk x="-1312" y="256" width="16" height="16">
0,0,0,0,0,0,0,0,0,0,0,0,0,0,0,0,
0,0,0,0,0,0,0,0,0,0,0,0,0,0,0,0,
0,0,0,0,0,0,0,0,0,0,0,0,0,0,0,0,
0,0,0,0,0,0,0,0,0,0,0,0,0,0,0,0,
0,0,0,0,0,0,0,0,0,0,0,0,0,0,0,0,
0,0,0,0,0,0,0,0,0,0,0,0,0,0,0,0,
195,194,195,194,194,195,194,194,194,194,194,195,194,194,195,194,
26,26,27,28,29,26,26,26,26,26,26,27,28,29,26,26,
50,50,51,52,53,50,50,50,50,50,50,51,52,53,50,50,
53,53,53,53,53,53,53,50,51,52,53,53,53,53,53,53,
3221225498,3221225501,3221225500,3221225499,3221225498,3221225501,3221225500,3221225499,3221225498,3221225501,3221225500,3221225499,3221225501,3221225500,3221225499,3221225501,
3221225666,3221225666,3221225666,3221225667,3221225666,3221225666,3221225666,3221225666,3221225666,3221225666,3221225666,3221225666,3221225666,3221225666,3221225666,3221225666,
0,0,0,0,0,0,0,0,0,0,0,0,0,0,0,0,
0,0,0,0,0,0,0,0,0,0,0,0,0,0,0,0,
0,0,0,0,0,0,0,0,0,0,0,0,0,0,0,0,
0,0,0,3221225571,3221225571,3221225571,3221225570,0,0,0,0,0,0,3221225571,3221225570,0
</chunk>
   <chunk x="-1296" y="256" width="16" height="16">
0,0,0,0,0,0,0,0,0,0,0,0,0,0,0,0,
0,0,0,0,0,0,0,0,0,0,0,0,0,0,0,0,
0,0,0,0,0,0,0,0,0,0,0,0,0,0,0,0,
0,0,0,0,0,0,0,0,0,0,0,0,0,0,0,0,
0,0,0,0,0,0,0,0,0,0,0,0,0,0,0,0,
0,0,0,0,0,0,0,0,0,0,0,0,0,0,0,0,
194,194,195,194,194,194,194,194,194,194,194,195,194,194,194,194,
26,26,26,26,26,26,26,26,26,26,26,26,26,26,26,26,
50,50,50,50,50,50,50,50,50,50,50,50,50,50,50,50,
53,53,53,53,53,53,53,53,53,50,50,51,52,53,50,51,
3221225500,3221225499,3221225498,3221225501,3221225500,3221225501,3221225500,3221225499,3221225501,3221225500,3221225499,3221225501,3221225500,3221225499,3221225498,3221225501,
3221225666,3221225666,3221225667,3221225666,3221225666,3221225666,3221225666,3221225666,3221225666,3221225666,3221225666,3221225666,3221225666,3221225666,3221225666,3221225666,
0,0,0,0,0,0,0,0,0,0,0,0,0,0,0,0,
0,0,0,0,0,0,0,0,0,0,0,0,0,0,0,0,
0,0,0,0,0,0,0,0,0,0,0,0,0,0,0,0,
0,0,0,0,0,0,0,0,0,0,0,0,0,0,0,0
</chunk>
   <chunk x="-1280" y="256" width="16" height="16">
0,0,0,0,0,0,0,0,0,0,0,0,0,0,0,0,
0,0,0,0,0,0,0,0,0,0,0,0,0,0,0,0,
0,0,0,0,0,0,0,0,0,0,0,0,0,0,0,0,
0,0,0,0,0,0,0,0,0,0,0,0,0,0,0,0,
0,0,0,0,0,0,0,0,0,0,0,0,0,0,0,0,
0,0,0,0,0,0,0,0,0,0,0,0,0,0,0,0,
194,194,194,194,194,194,195,194,194,194,194,194,194,194,195,194,
26,26,26,26,26,26,26,27,28,26,27,28,26,27,28,26,
50,50,50,50,50,50,50,51,52,50,50,51,52,53,53,50,
52,53,50,51,52,53,52,53,51,52,53,53,53,53,53,53,
3221225500,3221225499,3221225501,3221225500,3221225499,3221225498,3221225501,3221225500,3221225499,3221225501,3221225500,3221225501,3221225500,3221225499,3221225498,3221225501,
3221225666,3221225666,3221225667,3221225666,3221225666,3221225666,3221225666,3221225666,3221225666,3221225666,3221225666,3221225666,3221225666,3221225667,3221225666,3221225666,
0,0,0,0,0,0,0,0,0,0,0,0,0,0,0,0,
0,0,0,0,0,0,0,0,0,0,0,0,0,0,0,0,
0,0,0,0,0,0,0,0,0,0,0,0,0,0,0,0,
0,0,0,0,0,0,0,0,0,0,0,0,0,3221225571,3221225570,0
</chunk>
   <chunk x="-1264" y="256" width="16" height="16">
0,0,0,0,0,0,0,0,0,0,0,0,0,0,0,0,
0,0,0,0,0,0,0,0,0,0,0,0,0,0,0,0,
0,0,0,0,0,0,0,0,0,0,0,0,0,0,0,0,
0,0,0,0,0,0,0,0,0,0,0,0,0,0,0,0,
0,0,0,0,0,0,0,0,0,0,0,0,0,0,0,0,
0,0,0,0,0,0,0,0,0,0,0,0,0,0,0,0,
194,195,194,195,195,194,195,194,195,195,195,195,194,195,194,195,
27,26,27,28,26,27,28,29,26,27,28,29,26,26,27,28,
51,50,51,52,53,53,53,53,50,51,52,53,50,50,51,52,
53,53,53,53,53,50,51,52,53,53,53,53,53,53,53,53,
3221225500,3221225499,3221225501,3221225501,3221225501,3221225501,3221225501,3221225501,3221225501,3221225501,3221225500,3221225499,3221225498,3221225501,3221225500,3221225499,
3221225666,3221225667,3221225666,3221225667,3221225666,3221225667,3221225667,3221225666,3221225667,3221225666,3221225666,3221225666,3221225667,3221225666,3221225666,3221225667,
0,0,0,0,0,0,0,0,0,0,0,0,0,0,0,0,
0,0,0,0,0,0,0,0,0,0,0,0,0,0,0,0,
0,0,0,0,0,0,0,0,0,0,0,0,0,0,0,0,
0,0,0,0,0,0,0,0,0,0,0,0,0,0,0,0
</chunk>
   <chunk x="-1248" y="256" width="16" height="16">
0,0,0,0,0,0,0,0,0,0,0,0,0,0,0,0,
0,0,0,0,0,0,0,0,0,0,0,0,0,0,0,0,
0,0,0,0,0,0,0,0,0,0,0,0,0,0,0,0,
0,0,0,0,0,0,0,0,0,0,0,0,0,0,0,0,
0,0,0,0,0,0,0,0,0,0,0,0,0,0,0,0,
0,0,0,0,0,0,0,0,0,0,0,0,0,0,0,0,
195,194,194,194,194,194,194,194,194,194,194,194,194,194,194,194,
29,26,26,26,26,26,26,26,26,26,26,26,26,26,27,28,
53,50,50,50,50,50,50,50,50,50,50,50,50,50,51,52,
53,3221225525,3221225525,3221225525,3221225525,3221225525,3221225525,3221225525,3221225525,3221225525,3221225525,3221225525,3221225525,3221225525,3221225525,3221225525,
3221225498,3221225501,3221225501,3221225501,3221225501,3221225501,3221225501,3221225501,3221225501,3221225501,3221225501,3221225501,3221225501,3221225501,3221225501,3221225501,
3221225666,3221225667,3221225667,3221225667,3221225667,3221225667,3221225667,3221225667,3221225667,3221225667,3221225667,3221225667,3221225667,3221225667,3221225667,3221225667,
0,0,0,0,0,0,0,0,0,0,0,0,0,0,0,0,
0,0,0,0,0,0,0,0,0,0,0,0,0,0,0,0,
0,0,0,0,0,0,0,0,0,0,0,0,0,0,0,0,
0,0,0,0,0,0,0,0,0,0,0,0,0,0,0,0
</chunk>
   <chunk x="-1232" y="256" width="16" height="16">
0,0,0,0,0,0,0,0,0,0,0,0,0,0,1610612931,1610612765,
0,0,0,0,0,0,0,0,0,0,0,0,0,0,1610612931,1610612764,
0,0,0,0,0,0,0,0,0,0,0,0,0,0,1610612931,1610612763,
0,0,0,0,0,0,0,0,0,0,0,0,0,0,1610612930,1610612762,
0,0,0,0,0,0,0,0,0,0,0,0,0,0,1610612930,1610612762,
0,0,0,0,0,0,0,0,0,0,0,0,0,0,1610612930,1610612762,
194,194,194,194,194,194,194,194,194,194,194,195,195,195,1610612762,1610612789,
29,26,26,26,26,26,27,28,26,27,28,29,29,29,29,1610612789,
53,50,50,50,50,50,51,52,50,51,52,53,53,53,53,1610612788,
3221225525,3221225525,3221225525,3221225525,3221225525,3221225525,3221225525,3221225525,3221225525,3221225524,3221225523,3221225522,3221225522,3221225522,3221225522,1610612789,
3221225501,3221225501,3221225501,3221225501,3221225501,3221225501,3221225501,3221225501,3221225501,3221225500,3221225499,3221225498,3221225498,3221225498,3221225498,1610612789,
3221225667,3221225667,3221225667,3221225667,3221225667,3221225667,3221225667,3221225667,3221225667,3221225667,3221225667,3221225666,3221225666,3221225666,1610612765,1610612788,
0,0,0,0,0,0,0,0,0,0,0,0,0,0,1610612931,1610612765,
0,0,0,0,0,0,0,0,0,0,0,0,0,0,1610612931,1610612765,
0,0,0,0,0,0,0,0,0,0,0,0,0,0,0,1610612931,
0,0,0,0,0,0,0,0,0,0,0,0,0,0,0,1610612931
</chunk>
   <chunk x="-1216" y="256" width="16" height="16">
1610612789,2684354610,2684354586,2684354754,0,0,0,0,0,0,0,0,0,0,0,0,
1610612788,2684354611,2684354587,2684354754,0,0,0,0,0,0,0,0,0,0,0,0,
1610612787,2684354612,2684354588,2684354754,0,0,0,0,0,0,0,0,0,0,0,0,
1610612786,2684354613,2684354589,2684354755,0,0,0,0,0,0,0,0,0,0,0,0,
1610612786,2684354613,2684354589,2684354755,0,0,0,0,0,0,0,0,0,0,0,0,
1610612786,2684354613,2684354589,2684354755,0,0,0,0,0,0,0,0,0,0,0,0,
1610612786,2684354613,2684354612,2684354589,194,194,194,194,194,194,194,194,194,194,194,195,
53,52,2684354613,26,26,26,26,26,26,26,27,28,26,27,28,29,
53,52,2684354613,50,50,50,50,50,50,50,51,52,50,51,52,53,
3221225524,3221225525,2684354612,3221225525,3221225525,3221225525,3221225525,3221225525,3221225525,3221225525,3221225525,3221225525,3221225525,3221225524,3221225523,3221225522,
3221225524,3221225525,2684354613,3221225501,3221225501,3221225501,3221225501,3221225501,3221225501,3221225501,3221225501,3221225501,3221225501,3221225500,3221225499,3221225498,
1610612789,2684354610,2684354613,2684354586,3221225667,3221225667,3221225667,3221225667,3221225667,3221225667,3221225667,3221225667,3221225667,3221225667,3221225667,3221225666,
1610612789,2684354610,2684354586,2684354754,0,0,0,0,0,0,0,0,0,0,0,0,
1610612789,2684354610,2684354586,2684354754,0,0,0,0,0,0,0,0,0,0,0,0,
1610612765,2684354587,2684354754,0,0,0,0,0,0,0,0,0,0,0,0,0,
1610612765,2684354588,2684354754,0,0,0,0,0,0,0,0,0,0,0,0,0
</chunk>
   <chunk x="-1200" y="256" width="16" height="16">
0,0,0,0,0,0,0,0,0,0,0,0,0,0,0,0,
0,0,0,0,0,0,0,0,0,0,0,0,0,0,0,0,
0,0,0,0,0,0,0,0,0,0,0,0,0,0,0,0,
0,0,0,0,0,0,0,0,0,0,0,0,0,0,0,0,
0,0,0,0,0,0,0,0,0,0,0,0,0,0,0,0,
0,0,0,0,0,0,0,0,0,0,0,0,0,0,0,0,
194,194,194,194,194,194,194,194,194,195,194,194,194,194,194,194,
26,26,26,26,27,28,26,27,28,29,26,26,26,26,27,28,
50,50,50,50,51,52,50,51,52,53,50,50,50,50,51,52,
3221225525,3221225525,3221225525,3221225525,3221225525,3221225525,3221225525,3221225524,3221225523,3221225522,3221225525,3221225525,3221225525,3221225525,3221225525,3221225525,
3221225501,3221225501,3221225501,3221225501,3221225501,3221225501,3221225501,3221225500,3221225499,3221225498,3221225501,3221225501,3221225501,3221225501,3221225501,3221225501,
3221225667,3221225667,3221225667,3221225667,3221225667,3221225667,3221225667,3221225667,3221225667,3221225666,3221225667,3221225667,3221225667,3221225667,3221225667,3221225667,
0,0,0,0,0,0,0,0,0,0,0,0,0,0,0,0,
0,0,0,0,0,0,0,0,0,0,0,0,0,0,0,0,
0,0,0,0,0,0,0,0,0,0,0,0,0,0,0,0,
0,0,0,0,0,0,0,0,0,0,0,0,0,0,0,0
</chunk>
   <chunk x="-1184" y="256" width="16" height="16">
0,0,0,0,0,0,0,0,0,0,0,0,0,0,0,0,
0,0,0,0,0,0,0,0,0,0,0,0,0,0,0,0,
0,0,0,0,0,0,0,0,0,0,0,0,0,0,0,0,
0,0,0,0,0,0,0,0,0,0,0,0,0,0,0,0,
0,0,0,0,0,0,0,0,0,0,0,0,0,0,0,0,
0,0,0,0,0,0,0,0,0,0,0,0,0,0,0,0,
194,194,194,195,194,194,194,194,194,194,194,194,194,195,194,194,
26,27,28,29,26,26,26,26,27,28,26,27,28,29,26,26,
50,51,52,53,50,50,50,50,51,52,50,51,52,53,50,50,
3221225525,3221225524,3221225523,3221225522,3221225525,3221225525,3221225525,3221225525,3221225525,3221225525,3221225525,3221225524,3221225523,3221225522,3221225525,3221225525,
3221225501,3221225500,3221225499,3221225498,3221225501,3221225501,3221225501,3221225501,3221225501,3221225501,3221225501,3221225500,3221225499,3221225498,3221225501,3221225501,
3221225667,3221225667,3221225667,3221225666,3221225667,3221225667,3221225667,3221225667,3221225667,3221225667,3221225667,3221225667,3221225667,3221225666,3221225667,3221225667,
0,0,0,0,0,0,0,0,0,0,0,0,0,0,0,0,
0,0,0,0,0,0,0,0,0,0,0,0,0,0,0,0,
0,0,0,0,0,0,0,0,0,0,0,0,0,0,0,0,
0,0,0,0,0,0,0,0,0,0,0,0,0,0,0,0
</chunk>
   <chunk x="-1168" y="256" width="16" height="16">
0,0,0,0,0,0,0,0,0,0,0,0,0,0,0,0,
0,0,0,0,0,0,0,0,0,0,0,0,0,0,0,0,
0,0,0,0,0,0,0,0,0,0,0,0,0,0,0,0,
0,0,0,0,0,0,0,0,0,0,0,0,0,0,0,0,
0,0,0,0,0,0,0,0,0,0,0,0,0,0,0,0,
0,0,0,0,0,0,0,0,0,0,0,0,0,0,0,0,
194,194,194,194,194,194,194,194,194,194,194,194,194,194,194,194,
26,26,27,28,26,26,27,28,26,27,26,26,26,27,26,26,
50,50,51,52,50,50,51,52,50,51,50,50,50,51,50,50,
3221225525,3221225525,3221225525,3221225525,3221225525,3221225525,3221225524,3221225523,3221225525,3221225524,3221225523,3221225525,3221225525,3221225525,3221225525,3221225524,
3221225501,3221225501,3221225501,3221225501,3221225501,3221225501,3221225500,3221225499,3221225501,3221225500,3221225499,3221225498,1610612765,2684354610,2684354586,3221225501,
3221225667,3221225667,3221225667,3221225667,3221225667,3221225667,3221225667,3221225667,3221225667,3221225667,3221225667,1610612931,1610612765,2684354610,2684354586,2684354754,
0,0,0,0,0,0,0,0,0,0,0,1610612931,1610612765,2684354610,2684354586,2684354754,
0,0,0,0,0,0,0,0,0,0,0,1610612931,1610612765,2684354610,2684354586,2684354754,
0,0,0,0,0,0,0,0,0,0,0,1610612931,1610612765,2684354611,2684354586,2684354754,
0,0,0,0,0,0,0,0,0,0,0,1610612931,1610612765,2684354612,2684354586,2684354754
</chunk>
   <chunk x="-1152" y="256" width="16" height="16">
0,0,0,0,0,0,0,0,0,0,0,0,0,0,0,0,
0,0,0,0,0,0,0,0,0,0,0,0,0,0,0,0,
0,0,0,0,0,0,0,0,0,0,0,0,0,0,0,0,
0,0,0,0,0,0,0,0,0,0,0,0,0,0,0,0,
0,0,0,0,0,0,0,0,0,0,0,0,0,0,0,0,
0,0,0,0,0,0,0,0,0,0,0,0,0,0,0,0,
194,194,195,194,194,194,194,194,194,194,194,195,194,194,194,194,
27,28,29,26,26,26,27,28,26,27,28,29,26,26,26,26,
51,52,53,50,50,50,51,52,50,51,52,53,50,50,50,50,
3221225523,3221225522,3221225522,3221225525,3221225525,3221225525,3221225525,3221225525,3221225525,3221225524,3221225523,3221225522,3221225525,3221225525,3221225525,3221225525,
3221225501,3221225501,3221225501,3221225501,3221225501,3221225501,3221225501,3221225501,3221225501,3221225500,3221225499,3221225498,3221225501,3221225501,3221225501,3221225501,
3221225667,3221225667,3221225667,3221225667,3221225667,3221225667,3221225667,3221225667,3221225667,3221225667,3221225667,3221225666,3221225667,3221225667,3221225667,3221225667,
0,0,0,0,0,0,0,0,0,0,0,0,0,0,0,0,
0,0,0,0,0,0,0,0,0,0,0,0,0,0,0,0,
0,0,0,0,0,0,0,0,0,0,0,0,0,0,0,0,
0,0,0,0,0,0,0,0,0,0,0,0,0,0,0,0
</chunk>
   <chunk x="-1136" y="256" width="16" height="16">
0,0,0,0,0,0,0,0,0,0,0,0,0,0,0,0,
0,0,0,0,0,0,0,0,0,0,0,0,0,0,0,0,
0,0,0,0,0,0,0,0,0,0,0,0,0,0,0,0,
0,0,0,0,0,0,0,0,0,0,0,0,0,0,0,0,
0,0,0,0,0,0,0,0,0,0,0,0,0,0,0,0,
0,0,0,0,0,0,0,0,0,0,0,0,0,0,0,0,
194,194,194,194,194,195,194,194,194,194,194,194,194,194,194,195,
27,28,26,27,28,29,26,26,26,26,27,28,26,27,28,29,
51,52,50,51,52,53,50,50,50,50,51,52,50,51,52,53,
3221225525,3221225525,3221225525,3221225524,3221225523,3221225522,3221225525,3221225525,3221225525,3221225525,3221225525,3221225525,3221225525,3221225524,3221225523,3221225522,
3221225501,3221225501,3221225501,3221225500,3221225499,3221225498,3221225501,3221225501,3221225501,3221225501,3221225501,3221225501,3221225501,3221225500,3221225499,3221225498,
3221225667,3221225667,3221225667,3221225667,3221225667,3221225666,3221225667,3221225667,3221225667,3221225667,3221225667,3221225667,3221225667,3221225667,3221225667,3221225666,
0,0,0,0,0,0,0,0,0,0,0,0,0,0,0,0,
0,0,0,0,0,0,0,0,0,0,0,0,0,0,0,0,
0,0,0,0,0,0,0,0,0,0,0,0,0,0,0,0,
0,0,0,0,0,0,0,0,0,0,0,0,0,0,0,0
</chunk>
   <chunk x="-1120" y="256" width="16" height="16">
0,0,0,0,0,0,0,0,0,0,0,0,0,0,0,0,
0,0,0,0,0,0,0,0,0,0,0,0,0,0,0,0,
0,0,0,0,0,0,0,0,0,0,0,0,0,0,0,0,
0,0,0,0,0,0,0,0,0,0,0,0,0,0,0,0,
0,0,0,0,0,0,0,0,0,0,0,0,0,0,0,0,
0,0,0,0,0,0,0,0,0,0,0,0,0,0,0,0,
194,194,194,194,194,194,194,194,194,195,194,194,194,194,194,194,
26,26,26,26,27,28,26,27,28,29,26,26,26,26,27,28,
50,50,50,50,51,52,50,51,52,53,50,50,50,50,51,52,
3221225525,3221225525,3221225525,3221225525,3221225525,3221225525,3221225525,3221225524,3221225523,3221225522,3221225525,3221225525,3221225525,3221225525,3221225525,3221225525,
3221225501,3221225501,3221225501,3221225501,3221225501,3221225501,3221225501,3221225500,3221225499,3221225498,3221225501,3221225501,3221225501,3221225501,3221225501,3221225501,
3221225667,3221225667,3221225667,3221225667,3221225667,3221225667,3221225667,3221225667,3221225667,3221225666,3221225667,3221225667,3221225667,3221225667,3221225667,3221225667,
0,0,0,0,0,0,0,0,0,0,0,0,0,0,0,0,
0,0,0,0,0,0,0,0,0,0,0,0,0,0,0,0,
0,0,0,0,0,0,0,0,0,0,0,0,0,0,0,0,
0,0,0,0,0,0,0,0,0,0,0,0,0,0,0,0
</chunk>
   <chunk x="-1104" y="256" width="16" height="16">
0,0,0,0,0,0,0,0,0,0,0,0,0,0,0,0,
0,0,0,0,0,0,0,0,0,0,0,0,0,0,0,0,
0,0,0,0,0,0,0,0,0,0,0,0,0,0,0,0,
0,0,0,0,0,0,0,0,0,0,0,0,0,0,0,0,
0,0,0,0,0,0,0,0,0,0,0,0,0,0,0,0,
0,0,0,0,0,0,0,0,0,0,0,0,0,0,0,0,
194,194,194,195,194,194,194,194,194,194,194,194,194,195,194,194,
26,27,28,29,26,26,26,26,27,28,26,27,28,29,26,26,
50,51,52,53,50,50,50,50,51,52,50,51,52,53,50,50,
3221225525,3221225524,3221225523,3221225522,3221225525,3221225525,3221225525,3221225525,3221225525,3221225525,3221225525,3221225524,3221225523,3221225522,3221225525,3221225525,
3221225501,3221225500,3221225499,3221225498,3221225501,3221225501,3221225501,3221225501,3221225501,3221225501,3221225501,3221225500,3221225499,3221225498,3221225501,3221225501,
3221225667,3221225667,3221225667,3221225666,3221225667,3221225667,3221225667,3221225667,3221225667,3221225667,3221225667,3221225667,3221225667,3221225666,3221225667,3221225667,
0,0,0,0,0,0,0,0,0,0,0,0,0,0,0,0,
0,0,0,0,0,0,0,0,0,0,0,0,0,0,0,0,
0,0,0,0,0,0,0,0,0,0,0,0,0,0,0,0,
0,0,0,0,0,0,0,0,0,0,0,0,0,0,0,0
</chunk>
   <chunk x="-1088" y="256" width="16" height="16">
0,0,0,0,0,0,0,0,0,0,0,0,0,0,0,0,
0,0,0,0,0,0,0,0,0,0,0,0,0,0,0,0,
0,0,0,0,0,0,0,0,0,0,0,0,0,0,0,0,
0,0,0,0,0,0,0,0,0,0,0,0,0,0,0,0,
0,0,0,0,0,0,0,0,0,0,0,0,0,0,0,0,
0,0,0,0,0,0,0,0,0,0,0,0,0,0,0,0,
194,194,194,194,194,194,194,194,194,194,194,194,194,194,194,194,
26,26,27,28,26,27,28,26,27,26,26,26,27,26,26,27,
50,50,51,52,50,51,52,50,51,50,50,50,51,50,50,51,
3221225525,3221225525,3221225525,3221225525,3221225525,3221225524,3221225523,3221225525,3221225524,3221225523,3221225525,3221225525,3221225524,3221225525,3221225525,3221225524,
3221225501,3221225501,3221225501,3221225501,3221225501,3221225500,3221225499,3221225501,3221225500,3221225499,3221225498,1610612765,1610612789,2684354610,2684354586,3221225501,
3221225667,3221225667,3221225667,3221225667,3221225667,3221225667,3221225667,3221225667,3221225667,3221225667,1610612931,1610612765,1610612789,2684354610,2684354586,2684354754,
0,0,0,0,0,0,0,0,0,0,1610612931,1610612765,1610612789,2684354610,2684354586,2684354754,
0,0,0,0,0,0,0,0,0,0,1610612931,1610612765,1610612789,2684354610,2684354586,2684354754,
0,0,0,0,0,0,0,0,0,0,1610612931,1610612765,1610612789,2684354611,2684354586,2684354754,
0,0,0,0,0,0,0,0,0,0,1610612931,1610612765,1610612789,2684354612,2684354586,2684354754
</chunk>
   <chunk x="-1072" y="256" width="16" height="16">
0,0,0,0,0,0,0,0,0,0,0,0,0,0,0,0,
0,0,0,0,0,0,0,0,0,0,0,0,0,0,0,0,
0,0,0,0,0,0,0,0,0,0,0,0,0,0,0,0,
0,0,0,0,0,0,0,0,0,0,0,0,0,0,0,0,
0,0,0,0,0,0,0,0,0,0,0,0,0,0,0,0,
0,0,0,0,0,0,0,0,0,0,0,0,0,0,0,0,
194,195,194,194,194,195,195,195,195,195,195,195,194,195,195,195,
28,29,26,26,26,29,29,29,29,29,29,29,26,27,28,29,
52,53,50,50,50,53,53,53,53,53,53,53,50,51,52,53,
3221225523,3221225522,3221225525,3221225525,3221225525,3221225522,3221225524,3221225523,3221225522,3221225522,3221225522,3221225522,3221225525,3221225524,3221225523,3221225522,
3221225501,3221225501,3221225501,3221225501,3221225501,3221225498,3221225500,3221225499,3221225498,3221225498,3221225498,3221225498,3221225501,3221225500,3221225499,3221225498,
3221225667,3221225667,3221225667,3221225667,3221225667,3221225666,3221225666,3221225666,3221225666,3221225666,3221225666,3221225666,3221225667,3221225666,3221225666,3221225666,
0,0,0,0,0,0,0,0,0,0,0,0,0,0,0,0,
0,0,0,0,0,0,0,0,0,0,0,0,0,0,0,0,
0,0,0,0,0,0,0,0,0,0,0,0,0,0,0,0,
0,0,0,0,0,0,0,0,0,0,0,0,0,0,0,0
</chunk>
   <chunk x="-1056" y="256" width="16" height="16">
0,0,0,0,1610612931,1610612765,1610612789,2684354610,2684354586,2684354754,0,0,0,0,0,0,
0,0,0,0,1610612931,1610612764,1610612788,2684354611,2684354587,2684354754,0,0,0,0,0,0,
0,0,0,0,1610612931,1610612763,1610612787,2684354612,2684354588,2684354754,0,0,0,0,0,0,
0,0,0,0,1610612930,1610612762,1610612786,2684354613,2684354589,2684354755,0,0,0,0,0,0,
0,0,0,0,1610612930,1610612762,1610612786,2684354613,2684354589,2684354755,0,0,0,0,0,0,
0,0,0,0,1610612930,1610612762,1610612786,2684354613,2684354589,2684354755,0,0,0,0,0,0,
195,195,195,195,1610612930,1610612762,1610612786,2684354613,2684354589,2684354755,195,195,195,195,195,195,
29,29,29,29,29,1610612762,1610612786,2684354613,2684354589,26,29,29,29,29,29,29,
53,53,53,53,52,53,53,52,53,53,53,53,53,53,53,53,
3221225524,3221225523,3221225522,3221225522,3221225523,3221225522,3221225522,3221225523,3221225522,3221225522,3221225524,3221225523,3221225522,3221225522,3221225522,3221225522,
3221225500,3221225499,3221225498,3221225498,3221225499,3221225498,3221225498,3221225499,3221225498,3221225498,3221225500,3221225499,3221225498,3221225498,3221225498,3221225498,
3221225666,3221225666,3221225666,3221225666,3221225666,3221225666,3221225666,3221225666,3221225666,3221225666,3221225666,3221225666,3221225666,3221225666,3221225666,3221225666,
0,0,0,0,0,0,0,0,0,0,0,0,0,0,0,0,
0,0,0,0,0,0,0,0,0,0,0,0,0,0,0,0,
0,0,0,0,0,0,0,0,0,0,0,0,0,0,0,0,
0,0,0,0,0,0,0,0,0,0,0,0,0,0,0,0
</chunk>
   <chunk x="-1040" y="256" width="16" height="16">
0,0,0,0,0,0,0,0,0,0,0,0,0,0,0,0,
0,0,0,0,0,0,0,0,0,0,0,0,0,0,0,0,
0,0,0,0,0,0,0,0,0,0,0,0,0,0,0,0,
0,0,0,0,0,0,0,0,0,0,0,0,0,0,0,0,
0,0,0,0,0,0,0,0,0,0,0,0,0,0,0,0,
0,0,0,0,0,0,0,0,0,0,0,0,0,0,0,0,
194,195,195,195,195,195,195,195,195,195,194,195,195,195,195,195,
26,27,28,29,29,29,29,29,29,29,26,27,28,29,29,29,
50,51,52,53,53,53,53,53,53,53,50,51,52,53,53,53,
3221225525,3221225524,3221225523,3221225522,3221225524,3221225523,3221225522,3221225522,3221225522,3221225522,3221225525,3221225524,3221225523,3221225522,3221225524,3221225523,
3221225501,3221225500,3221225499,3221225498,3221225500,3221225499,3221225498,3221225498,3221225498,3221225498,3221225501,3221225500,3221225499,3221225498,3221225500,3221225499,
3221225667,3221225666,3221225666,3221225666,3221225666,3221225666,3221225666,3221225666,3221225666,3221225666,3221225667,3221225666,3221225666,3221225666,3221225666,3221225666,
0,0,0,0,0,0,0,0,0,0,0,0,0,0,0,0,
0,0,0,0,0,0,0,0,0,0,0,0,0,0,0,0,
0,0,0,0,0,0,0,0,0,0,0,0,0,0,0,0,
0,0,0,0,0,0,0,0,0,0,0,0,0,0,0,0
</chunk>
   <chunk x="-1024" y="256" width="16" height="16">
0,0,0,0,0,0,0,0,0,0,0,0,0,0,0,0,
0,0,0,0,0,0,0,0,0,0,0,0,0,0,0,0,
0,0,0,0,0,0,0,0,0,0,0,0,0,0,0,0,
0,0,0,0,0,0,0,0,0,0,0,0,0,0,0,0,
0,0,0,0,0,0,0,0,0,0,0,0,0,0,0,0,
0,0,0,0,0,0,0,0,0,0,0,0,0,0,0,0,
195,195,195,195,194,195,195,195,195,195,195,195,195,195,194,195,
29,29,29,29,26,27,28,29,29,29,29,29,29,29,26,27,
53,53,53,53,50,51,52,53,53,53,53,53,53,53,50,51,
3221225522,3221225522,3221225522,3221225522,3221225525,3221225524,3221225523,3221225522,3221225524,3221225523,3221225522,3221225522,3221225522,3221225522,3221225525,3221225524,
3221225498,3221225498,3221225498,3221225498,3221225501,3221225500,3221225499,3221225498,3221225500,3221225499,3221225498,3221225498,3221225498,3221225498,3221225501,3221225500,
3221225666,3221225666,3221225666,3221225666,3221225667,3221225666,3221225666,3221225666,3221225666,3221225666,3221225666,3221225666,3221225666,3221225666,3221225667,3221225666,
0,0,0,0,0,0,0,0,0,0,0,0,0,0,0,0,
0,0,0,0,0,0,0,0,0,0,0,0,0,0,0,0,
0,0,0,0,0,0,0,0,0,0,0,0,0,0,0,0,
0,0,0,0,0,0,0,0,0,0,0,0,0,0,0,0
</chunk>
   <chunk x="-1008" y="256" width="16" height="16">
0,0,0,0,0,0,0,0,0,0,0,0,0,0,0,0,
0,0,0,0,0,0,0,0,0,0,0,0,0,0,0,0,
0,0,0,0,0,0,0,0,0,0,0,0,0,0,0,0,
0,0,0,0,0,0,0,0,0,0,0,0,0,0,0,0,
0,0,0,0,0,0,0,0,0,0,0,0,0,0,0,0,
0,0,0,0,0,0,0,0,0,0,0,0,0,0,0,0,
195,195,195,195,195,195,195,195,194,195,195,195,195,195,195,195,
28,29,29,29,29,29,29,29,26,27,28,29,29,29,29,29,
52,53,53,53,53,53,53,53,50,51,52,53,53,53,53,53,
3221225523,3221225522,3221225524,3221225523,3221225522,3221225522,3221225522,3221225522,3221225525,3221225524,3221225523,3221225522,3221225524,3221225523,3221225522,3221225522,
3221225499,3221225498,3221225500,3221225499,3221225498,3221225498,3221225498,3221225498,3221225501,3221225500,3221225499,3221225498,3221225500,3221225499,3221225498,3221225498,
3221225666,3221225666,3221225666,3221225666,3221225666,3221225666,3221225666,3221225666,3221225667,3221225666,3221225666,3221225666,3221225666,3221225666,3221225666,3221225666,
0,0,0,0,0,0,0,0,0,0,0,0,0,0,0,0,
0,0,0,0,0,0,0,0,0,0,0,0,0,0,0,0,
0,0,0,0,0,0,0,0,0,0,0,0,0,0,0,0,
0,0,0,0,0,0,0,0,0,0,0,0,0,0,0,0
</chunk>
   <chunk x="-992" y="256" width="16" height="16">
0,0,0,0,0,0,0,0,0,0,0,0,0,0,0,0,
0,0,0,0,0,0,0,0,0,0,0,0,0,0,0,0,
0,0,0,0,0,0,0,0,0,0,0,0,0,0,0,0,
0,0,0,0,0,0,0,0,0,0,0,0,0,0,0,0,
0,0,0,0,0,0,0,0,0,0,0,0,0,0,0,0,
0,0,0,0,0,0,0,0,0,0,0,0,0,0,0,0,
195,195,194,195,195,195,195,195,195,195,195,195,194,195,195,195,
29,29,26,27,28,29,29,29,29,29,29,29,26,27,28,29,
53,53,50,51,52,53,53,53,53,53,53,53,50,51,52,53,
3221225522,3221225522,3221225525,3221225524,3221225523,3221225522,3221225524,3221225523,3221225522,3221225522,3221225522,3221225522,3221225525,3221225524,3221225523,3221225522,
3221225498,3221225498,3221225501,3221225500,3221225499,3221225498,3221225500,3221225499,3221225498,3221225498,3221225498,3221225498,3221225501,3221225500,3221225499,3221225498,
3221225666,3221225666,3221225667,3221225666,3221225666,3221225666,3221225666,3221225666,3221225666,3221225666,3221225666,3221225666,3221225667,3221225666,3221225666,3221225666,
0,0,0,0,0,0,0,0,0,0,0,0,0,0,0,0,
0,0,0,0,0,0,0,0,0,0,0,0,0,0,0,0,
0,0,0,0,0,0,0,0,0,0,0,0,0,0,0,0,
0,0,0,0,0,0,0,0,0,0,0,0,0,0,0,0
</chunk>
   <chunk x="-976" y="256" width="16" height="16">
0,0,0,0,0,0,0,0,1610612931,1610612765,1610612789,2684354610,2684354586,2684354754,0,0,
0,0,0,0,0,0,0,0,1610612931,1610612764,1610612788,2684354611,2684354587,2684354754,0,0,
0,0,0,0,0,0,0,0,1610612931,1610612763,1610612787,2684354612,2684354588,2684354754,0,0,
0,0,0,0,0,0,0,0,1610612931,1610612765,1610612789,2684354610,2684354586,2684354754,0,0,
0,0,0,0,0,0,0,0,1610612931,1610612764,1610612788,2684354611,2684354587,2684354754,0,0,
0,0,0,0,0,0,0,0,1610612931,1610612763,1610612787,2684354610,2684354586,2684354754,0,0,
195,195,195,195,195,195,195,195,195,1610612762,1610612789,2684354610,2684354586,2684354754,0,0,
29,29,29,29,29,29,29,29,29,29,1610612789,2684354610,2684354586,2684354754,0,0,
53,53,52,53,53,53,53,53,53,53,1610612788,2684354611,2684354587,2684354754,0,0,
3221225524,3221225523,3221225523,3221225522,3221225524,3221225523,3221225522,3221225522,3221225522,3221225522,1610612789,2684354610,2684354586,2684354754,0,0,
3221225500,3221225499,3221225498,3221225498,3221225498,3221225498,3221225498,3221225498,3221225498,3221225498,1610612789,2684354610,2684354586,2684354754,0,0,
3221225666,3221225666,3221225666,3221225666,3221225666,3221225666,3221225666,3221225666,3221225666,1610612765,1610612788,2684354611,2684354587,2684354754,0,0,
0,0,0,0,0,0,0,0,1610612931,1610612765,1610612787,2684354612,2684354588,2684354754,0,0,
0,0,0,0,0,0,0,0,1610612931,1610612765,1610612786,2684354613,2684354589,2684354755,0,0,
0,0,0,0,0,0,0,0,1610612931,1610612765,1610612789,2684354610,2684354586,2684354754,0,0,
0,0,0,0,0,0,0,0,1610612931,1610612765,1610612789,2684354610,2684354586,2684354754,0,0
</chunk>
   <chunk x="-1344" y="272" width="16" height="16">
0,0,0,0,1610612931,1610612765,2684354587,2684354755,0,3221225571,3221225571,3221225571,3221225570,3221225570,0,0,
0,0,0,0,1610612931,1610612765,2684354588,2684354755,0,3221225571,3221225571,3221225571,3221225570,3221225570,0,0,
0,0,0,0,1610612930,1610612763,2684354589,2684354755,0,3221225570,3221225571,3221225571,3221225570,3221225570,0,0,
0,0,0,0,1610612930,1610612762,2684354589,2684354755,0,3221225571,3221225571,3221225570,3221225570,0,0,0,
0,0,0,0,1610612930,1610612764,2684354589,2684354755,0,0,0,0,0,0,0,0,
0,0,0,0,1610612931,1610612765,2684354586,2684354754,0,0,0,0,0,0,0,0,
0,0,0,0,1610612931,1610612765,2684354587,2684354755,0,0,0,0,0,0,0,0,
0,0,0,0,1610612931,1610612765,2684354588,2684354755,0,0,0,0,0,0,0,0,
0,0,0,0,1610612930,1610612764,2684354589,2684354755,0,0,0,0,0,0,0,0,
0,0,0,0,1610612930,1610612763,2684354589,2684354755,0,0,0,0,0,0,0,0,
0,0,0,0,1610612930,1610612762,2684354589,2684354755,0,0,0,0,0,0,0,0,
0,0,0,0,1610612930,1610612764,2684354589,2684354755,0,0,0,0,0,0,0,0,
0,0,0,0,1610612930,1610612763,2684354589,2684354755,0,0,0,0,0,0,0,0,
0,0,0,0,1610612931,1610612765,2684354586,2684354754,0,0,0,0,0,0,0,0,
0,0,0,0,1610612931,1610612765,2684354587,2684354755,0,0,0,0,0,0,0,0,
0,0,0,0,1610612931,1610612765,2684354588,2684354755,0,0,0,0,0,0,0,0
</chunk>
   <chunk x="-1328" y="272" width="16" height="16">
0,3221225571,3221225570,3221225570,3221225570,0,0,0,0,0,0,0,0,0,0,0,
0,3221225571,3221225570,3221225570,3221225570,0,0,0,0,0,0,3221225571,3221225571,3221225571,3221225571,3221225570,
0,3221225571,3221225570,3221225570,3221225570,0,0,0,0,0,0,0,0,0,3221225571,3221225570,
0,3221225571,3221225570,3221225570,3221225570,0,0,0,0,0,0,0,0,0,3221225571,3221225570,
0,3221225571,3221225570,0,0,0,0,0,0,0,0,0,0,3221225571,3221225570,3221225570,
0,3221225571,3221225570,0,0,0,0,0,0,0,0,3221225571,3221225571,3221225571,3221225571,3221225570,
0,3221225571,3221225570,0,0,0,0,0,0,0,0,0,0,0,3221225571,3221225570,
0,0,0,0,0,0,0,0,0,0,0,0,0,0,0,0,
0,0,0,0,0,0,0,0,0,0,0,0,0,0,0,0,
0,0,0,0,0,0,0,0,0,0,0,0,0,0,0,0,
0,0,0,0,0,0,0,0,0,0,0,0,0,0,0,0,
0,0,0,0,0,0,0,0,0,0,0,0,0,0,0,0,
0,0,0,0,0,0,0,0,0,0,0,0,0,0,0,0,
0,0,0,0,0,0,0,0,0,0,0,0,0,0,0,0,
0,0,0,0,0,0,0,0,0,0,0,0,0,0,0,0,
0,0,0,0,0,0,0,0,0,0,0,0,0,0,0,0
</chunk>
   <chunk x="-1312" y="272" width="16" height="16">
0,0,0,3221225571,3221225570,3221225571,3221225570,0,0,0,0,0,0,3221225571,3221225570,3221225571,
0,0,0,0,3221225571,3221225571,3221225571,3221225571,3221225571,3221225570,0,0,0,3221225571,3221225570,3221225571,
0,0,0,0,0,0,0,0,3221225571,3221225570,0,0,0,3221225571,3221225571,3221225571,
0,0,0,0,0,0,0,0,3221225571,3221225570,0,0,0,0,0,0,
0,0,0,0,0,3221225571,3221225570,3221225571,3221225570,3221225570,0,0,0,0,0,0,
0,0,0,0,0,3221225571,3221225570,3221225570,3221225570,0,0,0,0,0,0,0,
0,0,0,0,0,0,0,0,0,0,0,0,0,0,0,0,
0,0,0,0,0,0,0,0,0,0,0,0,0,0,0,0,
0,0,0,0,0,0,0,0,0,0,0,0,0,0,0,0,
0,0,0,0,0,0,0,0,0,0,0,0,0,0,0,0,
0,0,0,0,0,0,0,0,0,0,0,0,0,0,0,0,
0,0,0,0,0,0,0,0,0,0,0,0,0,0,0,0,
0,0,0,0,0,0,0,0,0,0,0,0,0,0,0,0,
0,0,0,0,0,0,0,0,0,0,0,0,0,0,0,0,
0,0,0,0,0,0,0,0,0,0,0,0,0,0,0,0,
0,0,0,0,0,0,0,0,0,0,0,0,0,0,0,0
</chunk>
   <chunk x="-1296" y="272" width="16" height="16">
3221225571,3221225570,0,0,0,0,0,3221225571,3221225570,3221225570,3221225570,3221225570,3221225570,3221225570,0,0,
3221225571,3221225570,0,0,0,0,0,3221225571,3221225570,0,0,0,0,0,0,0,
3221225571,3221225570,0,0,0,0,0,3221225571,3221225571,3221225571,3221225571,3221225570,0,0,0,0,
3221225571,3221225570,0,0,0,0,0,3221225571,3221225571,3221225570,3221225571,3221225570,0,0,0,0,
3221225571,3221225570,0,0,0,0,0,0,0,0,3221225571,3221225570,0,0,0,0,
3221225571,3221225570,0,0,0,0,0,0,0,0,3221225571,3221225570,0,0,0,0,
3221225571,3221225570,0,0,0,0,0,0,3221225571,3221225570,3221225570,3221225570,0,0,0,0,
0,0,0,0,0,0,0,0,0,0,0,0,0,0,0,0,
0,0,0,0,0,0,0,0,0,0,0,0,0,0,0,0,
0,0,0,0,0,0,0,0,0,0,0,0,0,0,0,0,
0,0,0,0,0,0,0,0,0,0,0,0,0,0,0,0,
0,0,0,0,0,0,0,0,0,0,0,0,0,0,0,0,
0,0,0,0,0,0,0,0,0,0,0,0,0,0,0,0,
0,0,0,0,0,0,0,0,0,0,0,0,0,0,0,0,
0,0,0,0,0,0,0,0,0,0,0,0,0,0,0,0,
0,0,0,0,0,0,0,0,0,0,0,0,0,0,0,0
</chunk>
   <chunk x="-1280" y="272" width="16" height="16">
0,0,0,3221225571,3221225571,3221225571,3221225570,0,0,0,0,0,0,3221225571,3221225570,0,
0,0,3221225571,3221225571,3221225571,3221225571,3221225570,0,0,0,0,0,0,3221225571,3221225570,0,
0,0,3221225571,3221225570,3221225571,3221225570,3221225570,0,0,0,0,0,0,3221225571,3221225570,0,
0,0,3221225571,3221225570,3221225570,3221225570,3221225570,0,0,0,0,0,0,3221225571,3221225570,0,
0,0,3221225571,3221225570,3221225570,3221225570,3221225570,0,0,0,0,0,0,3221225571,3221225570,0,
0,0,0,3221225571,3221225570,3221225570,3221225570,0,0,0,0,0,0,0,0,0,
0,0,0,0,0,0,0,0,0,0,0,0,0,0,0,0,
0,0,0,0,0,0,0,0,0,0,0,0,0,0,0,0,
0,0,0,0,0,0,0,0,0,0,0,0,0,0,0,0,
0,0,0,0,0,0,0,0,0,0,0,0,0,0,0,0,
0,0,0,0,0,0,0,0,0,0,0,0,0,0,0,0,
0,0,0,0,0,0,0,0,0,0,0,0,0,0,0,0,
0,0,0,0,0,0,0,0,0,0,0,0,0,0,0,0,
0,0,0,0,0,0,0,0,0,0,0,0,0,0,0,0,
0,0,0,0,0,0,0,0,0,0,0,0,0,0,0,0,
0,0,0,0,0,0,0,0,0,0,0,0,0,0,0,0
</chunk>
   <chunk x="-1264" y="272" width="16" height="16">
0,0,0,0,0,0,0,0,0,0,0,0,0,0,0,0,
0,0,0,0,0,3221225571,3221225571,3221225571,3221225570,0,0,0,0,0,0,3221225571,
0,0,0,0,0,0,0,3221225571,3221225570,0,0,0,0,0,3221225571,3221225571,
0,0,0,0,0,0,0,3221225571,3221225570,0,0,0,0,0,0,0,
0,0,0,0,0,0,0,3221225571,3221225570,0,0,0,0,0,0,0,
0,0,0,0,0,0,3221225571,3221225571,3221225571,3221225571,3221225571,3221225570,0,0,0,0,
0,0,0,0,0,0,3221225571,3221225571,3221225570,0,3221225571,3221225570,0,0,0,0,
0,0,0,0,0,0,0,0,0,0,0,0,0,0,0,0,
0,0,0,0,0,0,0,0,0,0,0,0,0,0,0,0,
0,0,0,0,0,0,0,0,0,0,0,0,0,0,0,0,
0,0,0,0,0,0,0,0,0,0,0,0,0,0,0,0,
0,0,0,0,0,0,0,0,0,0,0,0,0,0,0,0,
0,0,0,0,0,0,0,0,0,0,0,0,0,0,0,0,
0,0,0,0,0,0,0,0,0,0,0,0,0,0,0,0,
0,0,0,0,0,0,0,0,0,0,0,0,0,0,0,0,
0,0,0,0,0,0,0,0,0,0,0,0,0,0,0,0
</chunk>
   <chunk x="-1248" y="272" width="16" height="16">
3221225571,3221225571,3221225570,0,0,0,0,0,0,0,0,0,0,0,0,0,
3221225570,3221225571,3221225570,0,0,0,0,0,0,0,3221225571,3221225570,0,3221225571,3221225570,0,
3221225570,3221225571,3221225571,3221225571,3221225571,3221225570,0,0,0,0,3221225571,3221225570,0,3221225571,3221225570,0,
0,0,0,0,3221225571,3221225570,0,0,0,0,3221225571,3221225570,0,3221225571,3221225570,0,
0,0,0,0,3221225571,3221225570,0,0,0,0,3221225571,3221225571,3221225571,3221225571,3221225570,0,
0,0,0,0,3221225571,3221225570,0,0,0,0,0,0,0,3221225571,3221225570,0,
0,3221225571,3221225570,3221225571,3221225570,3221225570,0,0,0,0,0,0,0,3221225571,3221225570,0,
0,3221225571,3221225570,3221225570,3221225570,0,0,0,0,0,0,0,0,3221225571,3221225570,0,
0,0,0,0,0,0,0,0,0,0,0,0,0,3221225571,3221225570,0,
0,0,0,0,0,0,0,0,0,0,0,0,0,0,0,0,
0,0,0,0,0,0,0,0,0,0,0,0,0,0,0,0,
0,0,0,0,0,0,0,0,0,0,0,0,0,0,0,0,
0,0,0,0,0,0,0,0,0,0,0,0,0,0,0,0,
0,0,0,0,0,0,0,0,0,0,0,0,0,0,0,0,
0,0,0,0,0,0,0,0,0,0,0,0,0,0,0,0,
0,0,0,0,0,0,0,0,0,0,0,0,0,0,0,0
</chunk>
   <chunk x="-1232" y="272" width="16" height="16">
0,0,0,0,3221225571,3221225570,3221225570,3221225570,3221225570,0,0,0,0,0,0,1610612931,
0,0,0,0,3221225571,3221225570,0,0,0,0,0,0,0,0,0,1610612931,
0,0,0,0,3221225571,3221225571,3221225571,3221225571,3221225571,3221225570,0,0,0,0,0,1610612931,
0,0,0,0,0,0,0,0,3221225571,3221225570,0,0,0,0,0,1610612931,
0,0,0,0,0,0,0,0,3221225571,3221225570,0,0,0,0,0,1610612931,
0,0,0,0,3221225571,3221225570,0,3221225571,3221225570,3221225570,0,0,0,0,0,1610612930,
0,0,0,0,3221225571,3221225570,3221225570,3221225570,3221225570,0,0,0,0,0,0,0,
0,0,0,0,0,0,0,0,0,0,0,0,0,0,0,0,
0,0,0,0,0,0,0,0,0,0,0,0,0,0,0,0,
0,0,0,0,0,0,0,0,0,0,0,0,0,0,0,0,
0,0,0,0,0,0,0,0,0,0,0,0,0,0,0,0,
0,0,0,0,0,0,0,0,0,0,0,0,0,0,0,0,
0,0,0,0,0,0,0,0,0,0,0,0,0,0,0,0,
0,0,0,0,0,0,0,0,0,0,0,0,0,0,0,0,
0,0,0,0,0,0,0,0,0,0,0,0,0,0,0,0,
0,0,0,0,0,0,0,0,0,0,0,0,0,0,0,0
</chunk>
   <chunk x="-1216" y="272" width="16" height="16">
1610612765,2684354586,2684354754,0,0,0,0,0,0,0,0,0,0,0,0,0,
1610612765,2684354587,2684354754,0,0,0,0,0,0,0,0,0,0,0,0,0,
1610612765,2684354588,2684354754,0,0,0,0,0,0,0,0,0,0,0,0,0,
1610612764,2684354589,2684354755,0,0,0,0,0,0,0,0,0,0,0,0,0,
1610612763,2684354589,2684354755,0,0,0,0,0,0,0,0,0,0,0,0,0,
1610612762,2684354589,2684354755,0,0,0,0,0,0,0,0,0,0,0,0,0,
0,0,0,0,0,0,0,0,0,0,0,0,0,0,0,0,
0,0,0,0,0,0,0,0,0,0,0,0,0,0,0,0,
0,0,0,0,0,0,0,0,0,0,0,0,0,0,0,0,
0,0,0,0,0,0,0,0,0,0,0,0,0,0,0,0,
0,0,0,0,0,0,0,0,0,0,0,0,0,0,0,0,
0,0,0,0,0,0,0,0,0,0,0,0,0,0,0,0,
0,0,0,0,0,0,0,0,0,0,0,0,0,0,0,0,
0,0,0,0,0,0,0,0,0,0,0,0,0,0,0,0,
0,0,0,0,0,0,0,0,0,0,0,0,0,0,0,0,
0,0,0,0,0,0,0,0,0,0,0,0,0,0,0,0
</chunk>
   <chunk x="-1168" y="272" width="16" height="16">
0,0,0,0,0,0,0,0,0,0,0,1610612931,1610612765,2684354610,2684354586,2684354754,
0,0,0,0,0,0,0,0,0,0,0,1610612931,1610612765,2684354612,2684354588,2684354754,
0,0,0,0,0,0,0,0,0,0,0,1610612931,1610612765,2684354610,2684354586,2684354754,
0,0,0,0,0,0,0,0,0,0,0,1610612931,1610612765,2684354611,2684354587,2684354754,
0,0,0,0,0,0,0,0,0,0,0,1610612931,1610612765,2684354612,2684354588,2684354754,
0,0,0,0,0,0,0,0,0,0,0,1610612931,1610612764,2684354613,2684354589,2684354755,
0,0,0,0,0,0,0,0,0,0,0,1610612931,1610612763,2684354613,2684354589,2684354755,
0,0,0,0,0,0,0,0,0,0,0,1610612930,1610612762,2684354613,2684354589,2684354755,
0,0,0,0,0,0,0,0,0,0,0,1610612931,1610612765,2684354610,2684354586,2684354754,
0,0,0,0,0,0,0,0,0,0,0,1610612931,1610612765,2684354610,2684354586,2684354754,
0,0,0,0,0,0,0,0,0,0,0,1610612931,1610612765,2684354611,2684354587,2684354754,
0,0,0,0,0,0,0,0,0,0,0,1610612931,1610612765,2684354612,2684354588,2684354754,
0,0,0,0,0,0,0,0,0,0,0,1610612931,1610612765,2684354610,2684354586,2684354754,
0,0,0,0,0,0,0,0,0,0,0,1610612931,1610612765,2684354611,2684354587,2684354754,
0,0,0,0,0,0,0,0,0,0,0,1610612931,1610612765,2684354612,2684354588,2684354754,
0,0,0,0,0,0,0,0,0,0,0,1610612931,1610612764,2684354613,2684354589,2684354755
</chunk>
   <chunk x="-1088" y="272" width="16" height="16">
0,0,0,0,0,0,0,0,0,0,1610612931,1610612765,1610612789,2684354610,2684354586,2684354754,
0,0,0,0,0,0,0,0,0,0,1610612931,1610612765,1610612789,2684354610,2684354586,2684354754,
0,0,0,0,0,0,0,0,0,0,1610612931,1610612765,1610612789,2684354611,2684354587,2684354754,
0,0,0,0,0,0,0,0,0,0,1610612931,1610612765,1610612789,2684354612,2684354588,2684354754,
0,0,0,0,0,0,0,0,0,0,1610612931,1610612765,1610612789,2684354610,2684354586,2684354754,
0,0,0,0,0,0,0,0,0,0,1610612931,1610612764,1610612788,2684354611,2684354587,2684354754,
0,0,0,0,0,0,0,0,0,0,1610612931,1610612763,1610612787,2684354612,2684354588,2684354754,
0,0,0,0,0,0,0,0,0,0,1610612930,1610612762,1610612786,2684354613,2684354589,2684354755,
0,0,0,0,0,0,0,0,0,0,1610612931,1610612765,1610612789,2684354610,2684354586,2684354754,
0,0,0,0,0,0,0,0,0,0,1610612931,1610612765,1610612789,2684354610,2684354586,2684354754,
0,0,0,0,0,0,0,0,0,0,1610612931,1610612765,1610612789,2684354610,2684354586,2684354754,
0,0,0,0,0,0,0,0,0,0,1610612931,1610612765,1610612789,2684354610,2684354586,2684354754,
0,0,0,0,0,0,0,0,0,0,1610612931,1610612765,1610612789,2684354611,2684354587,2684354754,
0,0,0,0,0,0,0,0,0,0,1610612931,1610612765,1610612789,2684354612,2684354588,2684354754,
0,0,0,0,0,0,0,0,0,0,1610612931,1610612765,1610612789,2684354610,2684354586,2684354754,
0,0,0,0,0,0,0,0,0,0,1610612931,1610612764,1610612788,2684354611,2684354587,2684354754
</chunk>
   <chunk x="-976" y="272" width="16" height="16">
0,0,0,0,0,0,0,0,1610612931,1610612765,1610612789,2684354610,2684354586,2684354754,0,0,
0,0,0,0,0,0,0,0,1610612931,1610612765,1610612789,2684354610,2684354586,2684354754,0,0,
0,0,0,0,0,0,0,0,1610612931,1610612765,1610612789,2684354611,2684354587,2684354754,0,0,
0,0,0,0,0,0,0,0,1610612931,1610612765,1610612789,2684354612,2684354588,2684354754,0,0,
0,0,0,0,0,0,0,0,1610612931,1610612765,1610612789,2684354610,2684354586,2684354754,0,0,
0,0,0,0,0,0,0,0,1610612931,1610612764,1610612788,2684354611,2684354587,2684354754,0,0,
0,0,0,0,0,0,0,0,1610612931,1610612763,1610612787,2684354612,2684354588,2684354754,0,0,
0,0,0,0,0,0,0,0,1610612930,1610612762,1610612786,2684354613,2684354589,2684354755,0,0,
0,0,0,0,0,0,0,0,1610612931,1610612765,1610612789,2684354610,2684354586,2684354754,0,0,
0,0,0,0,0,0,0,0,1610612931,1610612765,1610612789,2684354610,2684354586,2684354754,0,0,
0,0,0,0,0,0,0,0,1610612931,1610612765,1610612789,2684354610,2684354586,2684354754,0,0,
0,0,0,0,0,0,0,0,1610612931,1610612765,1610612789,2684354610,2684354586,2684354754,0,0,
0,0,0,0,0,0,0,0,1610612931,1610612765,1610612789,2684354611,2684354587,2684354754,0,0,
0,0,0,0,0,0,0,0,1610612931,1610612765,1610612789,2684354612,2684354588,2684354754,0,0,
0,0,0,0,0,0,0,0,1610612931,1610612765,1610612789,2684354610,2684354586,2684354754,0,0,
0,0,0,0,0,0,0,0,1610612931,1610612764,1610612788,2684354611,2684354587,2684354754,0,0
</chunk>
   <chunk x="-1344" y="288" width="16" height="16">
0,0,0,0,1610612930,1610612764,2684354589,2684354755,0,0,0,0,0,0,0,0,
0,0,0,0,1610612930,1610612763,2684354589,2684354755,0,0,0,0,0,0,0,0,
0,0,0,0,1610612930,1610612762,2684354589,2684354755,0,0,0,0,0,0,0,0,
0,0,0,0,1610612930,1610612764,2684354589,2684354755,0,0,0,0,0,0,0,0,
0,0,0,0,1610612930,1610612763,2684354589,2684354755,0,0,0,0,0,0,0,0,
0,0,0,0,1610612930,1610612762,2684354589,2684354755,0,0,0,0,0,0,0,0,
0,0,0,0,1610612931,1610612765,2684354586,2684354754,0,0,0,0,0,0,0,0,
0,0,0,0,1610612931,1610612765,2684354587,2684354755,0,0,0,0,0,0,0,0,
0,0,0,0,1610612931,1610612765,2684354588,2684354755,0,0,0,0,0,0,0,0,
0,0,0,0,1610612930,1610612764,2684354589,2684354755,0,0,0,0,0,0,0,0,
0,0,0,0,1610612931,1610612765,2684354586,2684354754,0,0,0,0,0,0,0,0,
0,0,0,0,1610612931,1610612765,2684354587,2684354755,0,0,0,0,0,0,0,0,
0,0,0,0,1610612931,1610612765,2684354588,2684354755,0,0,0,0,0,0,0,0,
0,0,0,0,1610612930,1610612764,2684354589,2684354755,0,0,0,0,0,0,0,0,
0,0,0,0,1610612931,1610612765,2684354586,2684354754,0,0,0,0,0,0,0,0,
0,0,0,0,1610612931,1610612765,2684354587,2684354755,0,0,0,0,0,0,0,0
</chunk>
   <chunk x="-1168" y="288" width="16" height="16">
0,0,0,0,0,0,0,0,0,0,0,1610612931,1610612763,2684354613,2684354589,2684354755,
0,0,0,0,0,0,0,0,0,0,0,1610612930,1610612762,2684354613,2684354589,2684354755,
0,0,0,0,0,0,0,0,0,0,0,1610612931,1610612765,2684354610,2684354586,2684354754,
0,0,0,0,0,0,0,0,0,0,0,1610612931,1610612765,2684354610,2684354586,2684354754,
0,0,0,0,0,0,0,0,0,0,0,1610612931,1610612765,2684354611,2684354587,2684354754,
0,0,0,0,0,0,0,0,0,0,0,1610612931,1610612765,2684354612,2684354588,2684354754,
0,0,0,0,0,0,0,0,0,0,0,1610612931,1610612765,2684354610,2684354586,2684354754,
0,0,0,0,0,0,0,0,0,0,0,1610612931,1610612765,2684354611,2684354587,2684354754,
0,0,0,0,0,0,0,0,0,0,0,1610612931,1610612765,2684354612,2684354588,2684354754,
0,0,0,0,0,0,0,0,0,0,0,1610612931,1610612764,2684354613,2684354589,2684354755,
0,0,0,0,0,0,0,0,0,0,0,1610612931,1610612763,2684354613,2684354589,2684354755,
0,0,0,0,0,0,0,0,0,0,0,1610612930,1610612762,2684354613,2684354589,2684354755,
0,0,0,0,0,0,0,0,0,0,0,1610612931,1610612765,2684354610,2684354586,2684354754,
0,0,0,0,0,0,0,0,0,0,0,1610612931,1610612765,2684354610,2684354586,2684354754,
0,0,0,0,0,0,0,0,0,0,0,1610612931,1610612765,2684354611,2684354587,2684354754,
0,0,0,0,0,0,0,0,0,0,0,1610612931,1610612765,2684354612,2684354588,2684354754
</chunk>
   <chunk x="-1088" y="288" width="16" height="16">
0,0,0,0,0,0,0,0,0,0,1610612931,1610612763,1610612787,2684354612,2684354588,2684354754,
0,0,0,0,0,0,0,0,0,0,1610612930,1610612762,1610612786,2684354613,2684354589,2684354755,
0,0,0,0,0,0,0,0,0,0,1610612931,1610612765,1610612789,2684354610,2684354586,2684354754,
0,0,0,0,0,0,0,0,0,0,1610612931,1610612765,1610612789,2684354610,2684354586,2684354754,
0,0,0,0,0,0,0,0,0,0,1610612931,1610612765,1610612789,2684354610,2684354586,2684354754,
0,0,0,0,0,0,0,0,0,0,1610612931,1610612765,1610612789,2684354610,2684354586,2684354754,
0,0,0,0,0,0,0,0,0,0,1610612931,1610612765,1610612789,2684354611,2684354587,2684354754,
0,0,0,0,0,0,0,0,0,0,1610612931,1610612765,1610612789,2684354612,2684354588,2684354754,
0,0,0,0,0,0,0,0,0,0,1610612931,1610612765,1610612789,2684354610,2684354586,2684354754,
0,0,0,0,0,0,0,0,0,0,1610612931,1610612764,1610612788,2684354611,2684354587,2684354754,
0,0,0,0,0,0,0,0,0,0,1610612931,1610612763,1610612787,2684354612,2684354588,2684354754,
0,0,0,0,0,0,0,0,0,0,1610612930,1610612762,1610612786,2684354613,2684354589,2684354755,
0,0,0,0,0,0,0,0,0,0,1610612931,1610612765,1610612789,2684354610,2684354586,2684354754,
0,0,0,0,0,0,0,0,0,0,1610612931,1610612765,1610612789,2684354610,2684354586,2684354754,
0,0,0,0,0,0,0,0,0,0,1610612930,1610612763,1610612787,2684354612,2684354589,194,
0,0,0,0,0,0,0,0,0,0,1610612930,1610612762,1610612786,2684354613,26,26
</chunk>
   <chunk x="-1072" y="288" width="16" height="16">
0,0,0,0,0,0,0,0,0,0,0,0,0,0,0,0,
0,0,0,0,0,0,0,0,0,0,0,0,0,0,0,0,
0,0,0,0,0,0,0,0,0,0,0,0,0,0,0,0,
0,0,0,0,0,0,0,0,0,0,0,0,0,0,0,0,
0,0,0,0,0,0,0,0,0,0,0,0,0,0,0,0,
0,0,0,0,0,0,0,0,0,0,0,0,0,0,0,0,
0,0,0,0,0,0,0,0,0,0,0,0,0,0,0,0,
0,0,0,0,0,0,0,0,0,0,0,0,0,0,0,0,
0,0,0,0,0,0,0,0,0,0,0,0,0,0,0,0,
0,0,0,0,0,0,0,0,0,0,0,0,0,0,0,0,
0,0,0,0,0,0,0,0,0,0,0,0,0,0,0,0,
0,0,0,0,0,0,0,0,0,0,0,0,0,0,0,0,
0,0,0,0,0,0,0,0,0,0,0,0,0,0,0,0,
0,0,0,0,0,0,0,0,0,0,0,0,0,0,0,0,
194,194,194,195,195,195,195,195,195,195,195,195,194,195,195,195,
26,26,26,27,28,29,29,29,29,29,29,29,26,27,28,29
</chunk>
   <chunk x="-1056" y="288" width="16" height="16">
0,0,0,0,0,0,0,0,0,0,0,0,0,0,0,0,
0,0,0,0,0,0,0,0,0,0,0,0,0,0,0,0,
0,0,0,0,0,0,0,0,0,0,0,0,0,0,0,0,
0,0,0,0,0,0,0,0,0,0,0,0,0,0,0,0,
0,0,0,0,0,0,0,0,0,0,0,0,0,0,0,0,
0,0,0,0,0,0,0,0,0,0,0,0,0,0,0,0,
0,0,0,0,0,0,0,0,0,0,0,0,0,0,0,0,
0,0,0,0,0,0,0,0,0,0,0,0,0,0,0,0,
0,0,0,0,0,0,0,0,0,0,0,0,0,0,0,0,
0,0,0,0,0,0,0,0,0,0,0,0,0,0,0,0,
0,0,0,0,0,0,0,0,0,0,0,0,0,0,0,0,
0,0,0,0,0,0,0,0,0,0,0,0,0,0,0,0,
0,0,0,0,0,0,0,0,0,0,0,0,0,0,0,0,
0,0,0,0,0,0,0,0,0,0,0,0,0,0,0,0,
195,195,195,195,195,195,194,195,195,195,195,195,195,195,195,195,
29,29,29,29,29,29,26,27,28,29,29,29,29,29,29,29
</chunk>
   <chunk x="-1040" y="288" width="16" height="16">
0,0,0,0,0,0,0,0,0,0,0,0,0,0,0,0,
0,0,0,0,0,0,0,0,0,0,0,0,0,0,0,0,
0,0,0,0,0,0,0,0,0,0,0,0,0,0,0,0,
0,0,0,0,0,0,0,0,0,0,0,0,0,0,0,0,
0,0,0,0,0,0,0,0,0,0,0,0,0,0,0,0,
0,0,0,0,0,0,0,0,0,0,0,0,0,0,0,0,
0,0,0,0,0,0,0,0,0,0,0,0,0,0,0,0,
0,0,0,0,0,0,0,0,0,0,0,0,0,0,0,0,
0,0,0,0,0,0,0,0,0,0,0,0,0,0,0,0,
0,0,0,0,0,0,0,0,0,0,0,0,0,0,0,0,
0,0,0,0,0,0,0,0,0,0,0,0,0,0,0,0,
0,0,0,0,0,0,0,0,0,0,0,0,0,0,0,0,
0,0,0,0,0,0,0,0,0,0,0,0,0,0,0,0,
0,0,0,0,0,0,0,0,0,0,0,0,0,0,0,0,
194,195,195,195,195,195,195,195,195,195,194,195,195,195,195,195,
26,27,28,29,29,29,29,29,29,29,26,27,28,29,29,29
</chunk>
   <chunk x="-1024" y="288" width="16" height="16">
0,0,0,0,0,0,0,0,0,0,0,0,0,0,0,0,
0,0,0,0,0,0,0,0,0,0,0,0,0,0,0,0,
0,0,0,0,0,0,0,0,0,0,0,0,0,0,0,0,
0,0,0,0,0,0,0,0,0,0,0,0,0,0,0,0,
0,0,0,0,0,0,0,0,0,0,0,0,0,0,0,0,
0,0,0,0,0,0,0,0,0,0,0,0,0,0,0,0,
0,0,0,0,0,0,0,0,0,0,0,0,0,0,0,0,
0,0,0,0,0,0,0,0,0,0,0,0,0,0,0,0,
0,0,0,0,0,0,0,0,0,0,0,0,0,0,0,0,
0,0,0,0,0,0,0,0,0,0,0,0,0,0,0,0,
0,0,0,0,0,0,0,0,0,0,0,0,0,0,0,0,
0,0,0,0,0,0,0,0,0,0,0,0,0,0,0,0,
0,0,0,0,0,0,0,0,0,0,0,0,0,0,0,0,
0,0,0,0,0,0,0,0,0,0,0,0,0,0,0,0,
195,195,195,195,194,195,195,195,195,195,195,195,195,195,194,195,
29,29,29,29,26,27,28,29,29,29,29,29,29,29,26,27
</chunk>
   <chunk x="-1008" y="288" width="16" height="16">
0,0,0,0,0,0,0,0,0,0,0,0,0,0,0,0,
0,0,0,0,0,0,0,0,0,0,0,0,0,0,0,0,
0,0,0,0,0,0,0,0,0,0,0,0,0,0,0,0,
0,0,0,0,0,0,0,0,0,0,0,0,0,0,0,0,
0,0,0,0,0,0,0,0,0,0,0,0,0,0,0,0,
0,0,0,0,0,0,0,0,0,0,0,0,0,0,0,0,
0,0,0,0,0,0,0,0,0,0,0,0,0,0,0,0,
0,0,0,0,0,0,0,0,0,0,0,0,0,0,0,0,
0,0,0,0,0,0,0,0,0,0,0,0,0,0,0,0,
0,0,0,0,0,0,0,0,0,0,0,0,0,0,0,0,
0,0,0,0,0,0,0,0,0,0,0,0,0,0,0,0,
0,0,0,0,0,0,0,0,0,0,0,0,0,0,0,0,
0,0,0,0,0,0,0,0,0,0,0,0,0,0,0,0,
0,0,0,0,0,0,0,0,0,0,0,0,0,0,0,0,
195,195,195,195,195,195,195,195,194,195,195,195,195,195,195,195,
28,29,29,29,29,29,29,29,26,27,28,29,29,29,29,29
</chunk>
   <chunk x="-992" y="288" width="16" height="16">
0,0,0,0,0,0,0,0,0,0,0,0,0,0,0,0,
0,0,0,0,0,0,0,0,0,0,0,0,0,0,0,0,
0,0,0,0,0,0,0,0,0,0,0,0,0,0,0,0,
0,0,0,0,0,0,0,0,0,0,0,0,0,0,0,0,
0,0,0,0,0,0,0,0,0,0,0,0,0,0,0,0,
0,0,0,0,0,0,0,0,0,0,0,0,0,0,0,0,
0,0,0,0,0,0,0,0,0,0,0,0,0,0,0,0,
0,0,0,0,0,0,0,0,0,0,0,0,0,0,0,0,
0,0,0,0,0,0,0,0,0,0,0,0,0,0,0,0,
0,0,0,0,0,0,0,0,0,0,0,0,0,0,0,0,
0,0,0,0,0,0,0,0,0,0,0,0,0,0,0,0,
0,0,0,0,0,0,0,0,0,0,0,0,0,0,0,0,
0,0,0,0,0,0,0,0,0,0,0,0,0,0,0,0,
0,0,0,0,0,0,0,0,0,0,0,0,0,0,0,0,
195,195,194,195,195,195,195,195,195,195,195,195,194,195,195,195,
29,29,26,27,28,29,29,29,29,29,29,29,26,27,28,29
</chunk>
   <chunk x="-976" y="288" width="16" height="16">
0,0,0,0,0,0,0,0,1610612931,1610612763,1610612787,2684354612,2684354588,2684354754,0,0,
0,0,0,0,0,0,0,0,1610612930,1610612762,1610612786,2684354613,2684354589,2684354755,0,0,
0,0,0,0,0,0,0,0,1610612931,1610612765,1610612789,2684354610,2684354586,2684354754,0,0,
0,0,0,0,0,0,0,0,1610612931,1610612765,1610612789,2684354610,2684354586,2684354754,0,0,
0,0,0,0,0,0,0,0,1610612931,1610612765,1610612789,2684354610,2684354586,2684354754,0,0,
0,0,0,0,0,0,0,0,1610612931,1610612765,1610612789,2684354610,2684354586,2684354754,0,0,
0,0,0,0,0,0,0,0,1610612931,1610612765,1610612789,2684354611,2684354587,2684354754,0,0,
0,0,0,0,0,0,0,0,1610612931,1610612765,1610612789,2684354612,2684354588,2684354754,0,0,
0,0,0,0,0,0,0,0,1610612931,1610612765,1610612789,2684354610,2684354586,2684354754,0,0,
0,0,0,0,0,0,0,0,1610612931,1610612764,1610612788,2684354611,2684354587,2684354754,0,0,
0,0,0,0,0,0,0,0,1610612931,1610612763,1610612787,2684354612,2684354588,2684354754,0,0,
0,0,0,0,0,0,0,0,1610612930,1610612762,1610612786,2684354613,2684354589,2684354755,0,0,
0,0,0,0,0,0,0,0,1610612931,1610612765,1610612789,2684354610,2684354586,2684354754,0,0,
0,0,0,0,0,0,0,0,1610612931,1610612765,1610612789,2684354610,2684354586,2684354754,0,0,
195,195,195,195,195,195,195,195,195,1610612762,1610612789,2684354610,2684354586,2684354754,0,0,
29,29,29,29,29,29,29,29,29,29,1610612789,2684354610,2684354586,2684354754,0,0
</chunk>
   <chunk x="-1344" y="304" width="16" height="16">
0,0,0,0,1610612931,1610612765,2684354588,2684354755,0,0,0,0,0,0,0,0,
0,0,0,0,1610612930,1610612764,2684354589,2684354755,0,0,0,0,0,0,0,0,
0,0,0,0,1610612930,1610612763,2684354589,2684354755,0,0,0,0,0,0,0,0,
0,0,0,0,1610612930,1610612762,2684354589,2684354755,0,0,0,0,0,0,0,0,
0,0,0,0,1610612930,1610612764,2684354589,2684354755,0,0,0,0,0,0,0,0,
0,0,0,0,1610612930,1610612763,2684354589,2684354755,0,0,0,0,0,0,0,0,
0,0,0,0,1610612931,1610612765,2684354588,2684354755,0,0,0,0,0,0,0,0,
0,0,0,0,1610612930,1610612764,2684354589,2684354755,0,0,0,0,0,0,0,0,
0,0,0,0,1610612931,1610612765,2684354586,2684354754,0,0,0,0,0,0,0,0,
0,0,0,0,1610612931,1610612765,2684354587,2684354755,0,0,0,0,0,0,0,0,
0,0,0,0,1610612931,1610612765,2684354588,2684354755,0,0,0,0,0,0,0,0,
0,0,0,0,1610612930,1610612764,2684354589,2684354755,0,0,0,0,0,0,0,0,
0,0,0,0,1610612931,1610612765,2684354586,2684354754,0,0,0,0,0,0,0,0,
0,0,0,0,1610612931,1610612765,2684354587,2684354755,0,0,0,0,0,0,0,0,
0,0,0,0,1610612931,1610612765,2684354588,2684354755,0,0,0,0,0,0,0,0,
0,0,0,0,1610612930,1610612764,2684354589,2684354755,0,0,0,0,0,0,0,0
</chunk>
   <chunk x="-1168" y="304" width="16" height="16">
0,0,0,0,0,0,0,0,0,0,0,1610612931,1610612765,2684354610,2684354586,2684354754,
0,0,0,0,0,0,0,0,0,0,0,1610612931,1610612765,2684354611,2684354587,2684354754,
0,0,0,0,0,0,0,0,0,0,0,1610612931,1610612765,2684354612,2684354588,2684354754,
0,0,0,0,0,0,0,0,0,0,0,1610612931,1610612764,2684354613,2684354589,2684354755,
0,0,0,0,0,0,0,0,0,0,0,1610612931,1610612763,2684354613,2684354589,2684354755,
0,0,0,0,0,0,0,0,0,0,0,1610612930,1610612762,2684354613,2684354589,2684354755,
0,0,0,0,0,0,0,0,0,0,0,1610612931,1610612765,2684354610,2684354586,2684354754,
0,0,0,0,0,0,0,0,0,0,0,1610612931,1610612765,2684354610,2684354586,2684354754,
0,0,0,0,0,0,0,0,0,0,0,1610612931,1610612765,2684354611,2684354587,2684354754,
0,0,0,0,0,0,0,0,0,0,0,1610612931,1610612765,2684354612,2684354588,2684354754,
0,0,0,0,0,0,0,0,0,0,0,1610612931,1610612765,2684354610,2684354586,2684354754,
0,0,0,0,0,0,0,0,0,0,0,1610612931,1610612765,2684354611,2684354587,2684354754,
0,0,0,0,0,0,0,0,0,0,0,1610612931,1610612765,2684354612,2684354588,2684354754,
0,0,0,0,0,0,0,0,0,0,0,1610612931,1610612764,2684354613,2684354589,2684354755,
0,0,0,0,0,0,0,0,0,0,0,1610612931,1610612763,2684354613,2684354589,2684354755,
0,0,0,0,0,0,0,0,0,0,0,1610612930,1610612762,2684354613,2684354589,2684354755
</chunk>
   <chunk x="-1088" y="304" width="16" height="16">
0,0,0,0,0,0,0,0,0,0,1610612930,1610612762,1610612786,2684354613,50,50,
0,0,0,0,0,0,0,0,0,0,1610612930,1610612763,1610612787,2684354612,3221225525,3221225525,
0,0,0,0,0,0,0,0,0,0,1610612930,1610612762,1610612786,2684354613,3221225501,3221225501,
0,0,0,0,0,0,0,0,0,0,1610612930,1610612762,1610612786,2684354613,2684354586,2684354754,
0,0,0,0,0,0,0,0,0,0,1610612931,1610612763,1610612787,2684354612,2684354588,2684354754,
0,0,0,0,0,0,0,0,0,0,1610612930,1610612762,1610612786,2684354613,2684354589,2684354755,
0,0,0,0,0,0,0,0,0,0,1610612931,1610612765,1610612789,2684354610,2684354586,2684354754,
0,0,0,0,0,0,0,0,0,0,1610612931,1610612765,1610612789,2684354610,2684354586,2684354754,
0,0,0,0,0,0,0,0,0,0,1610612931,1610612765,1610612789,2684354610,2684354586,2684354754,
0,0,0,0,0,0,0,0,0,0,1610612931,1610612765,1610612789,2684354610,2684354586,2684354754,
0,0,0,0,0,0,0,0,0,0,1610612931,1610612765,1610612789,2684354611,2684354587,2684354754,
0,0,0,0,0,0,0,0,0,0,1610612931,1610612765,1610612789,2684354612,2684354588,2684354754,
0,0,0,0,0,0,0,0,0,0,1610612931,1610612765,1610612789,2684354610,2684354586,2684354754,
0,0,0,0,0,0,0,0,0,0,1610612931,1610612764,1610612788,2684354611,2684354587,2684354754,
0,0,0,0,0,0,0,0,0,0,1610612931,1610612763,1610612787,2684354612,2684354588,2684354754,
0,0,0,0,0,0,0,0,0,0,1610612930,1610612762,1610612786,2684354613,2684354589,2684354755
</chunk>
   <chunk x="-1072" y="304" width="16" height="16">
50,50,50,51,52,53,53,53,53,53,53,53,50,51,52,53,
3221225525,3221225525,3221225525,3221225524,3221225523,3221225522,3221225524,3221225523,3221225522,3221225522,3221225522,3221225522,3221225525,3221225524,3221225523,3221225522,
3221225501,3221225501,3221225501,3221225500,3221225499,3221225498,3221225500,3221225499,3221225498,3221225498,3221225498,3221225498,3221225501,3221225500,3221225499,3221225498,
3221225667,3221225667,3221225667,3221225666,3221225666,3221225666,3221225666,3221225666,3221225666,3221225666,3221225666,3221225666,3221225667,3221225666,3221225666,3221225666,
0,0,0,0,0,0,0,0,0,0,0,0,0,0,0,0,
0,0,0,0,0,0,0,0,0,0,0,0,0,0,0,0,
0,0,0,0,0,0,0,0,0,0,0,0,0,0,0,0,
0,0,0,0,0,0,0,0,0,0,0,0,0,0,0,0,
0,0,0,0,0,0,0,0,0,0,0,0,0,0,0,0,
0,0,0,0,0,0,0,0,0,0,0,0,0,0,0,0,
0,0,0,0,0,0,0,0,0,0,0,0,0,0,0,0,
0,0,0,0,0,0,0,0,0,0,0,0,0,0,0,0,
0,0,0,0,0,0,0,0,0,0,0,0,0,0,0,0,
0,0,0,0,0,0,0,0,0,0,0,0,0,0,0,0,
0,0,0,0,0,0,0,0,0,0,0,0,0,0,0,0,
0,0,0,0,0,0,0,0,0,0,0,0,0,0,0,0
</chunk>
   <chunk x="-1056" y="304" width="16" height="16">
53,53,53,53,53,53,50,51,52,53,53,53,53,53,53,53,
3221225524,3221225523,3221225522,3221225522,3221225522,3221225522,3221225525,3221225524,3221225523,3221225522,3221225524,3221225523,3221225522,3221225522,3221225522,3221225522,
3221225500,3221225499,3221225498,3221225498,3221225498,3221225498,3221225501,3221225500,3221225499,3221225498,3221225500,3221225499,3221225498,3221225498,3221225498,3221225498,
3221225666,3221225666,3221225666,3221225666,3221225666,3221225666,3221225667,3221225666,3221225666,3221225666,3221225666,3221225666,3221225666,3221225666,3221225666,3221225666,
0,0,0,0,0,0,0,0,0,0,0,0,0,0,0,0,
0,0,0,0,0,0,0,0,0,0,0,0,0,0,0,0,
0,0,0,0,0,0,0,0,0,0,0,0,0,0,0,0,
0,0,0,0,0,0,0,0,0,0,0,0,0,0,0,0,
0,0,0,0,0,0,0,0,0,0,0,0,0,0,0,0,
0,0,0,0,0,0,0,0,0,0,0,0,0,0,0,0,
0,0,0,0,0,0,0,0,0,0,0,0,0,0,0,0,
0,0,0,0,0,0,0,0,0,0,0,0,0,0,0,0,
0,0,0,0,0,0,0,0,0,0,0,0,0,0,0,0,
0,0,0,0,0,0,0,0,0,0,0,0,0,0,0,0,
0,0,0,0,0,0,0,0,0,0,0,0,0,0,0,0,
0,0,0,0,0,0,0,0,0,0,0,0,0,0,0,0
</chunk>
   <chunk x="-1040" y="304" width="16" height="16">
50,51,52,53,53,53,53,53,53,53,50,51,52,53,53,53,
3221225525,3221225524,3221225523,3221225522,3221225524,3221225523,3221225522,3221225522,3221225522,3221225522,3221225525,3221225524,3221225523,3221225522,3221225524,3221225523,
3221225501,3221225500,3221225499,3221225498,3221225500,3221225499,3221225498,3221225498,3221225498,3221225498,3221225501,3221225500,3221225499,3221225498,3221225500,3221225499,
3221225667,3221225666,3221225666,3221225666,3221225666,3221225666,3221225666,3221225666,3221225666,3221225666,3221225667,3221225666,3221225666,3221225666,3221225666,3221225666,
0,0,0,0,0,0,0,0,0,0,0,0,0,0,0,0,
0,0,0,0,0,0,0,0,0,0,0,0,0,0,0,0,
0,0,0,0,0,0,0,0,0,0,0,0,0,0,0,0,
0,0,0,0,0,0,0,0,0,0,0,0,0,0,0,0,
0,0,0,0,0,0,0,0,0,0,0,0,0,0,0,0,
0,0,0,0,0,0,0,0,0,0,0,0,0,0,0,0,
0,0,0,0,0,0,0,0,0,0,0,0,0,0,0,0,
0,0,0,0,0,0,0,0,0,0,0,0,0,0,0,0,
0,0,0,0,0,0,0,0,0,0,0,0,0,0,0,0,
0,0,0,0,0,0,0,0,0,0,0,0,0,0,0,0,
0,0,0,0,0,0,0,0,0,0,0,0,0,0,0,0,
0,0,0,0,0,0,0,0,0,0,0,0,0,0,0,0
</chunk>
   <chunk x="-1024" y="304" width="16" height="16">
53,53,53,53,50,51,52,53,53,53,53,53,53,53,50,51,
3221225522,3221225522,3221225522,3221225522,3221225525,3221225524,3221225523,3221225522,3221225524,3221225523,3221225522,3221225522,3221225522,3221225522,3221225525,3221225524,
3221225498,3221225498,3221225498,3221225498,3221225501,3221225500,3221225499,3221225498,3221225500,3221225499,3221225498,3221225498,3221225498,3221225498,3221225501,3221225500,
3221225666,3221225666,3221225666,3221225666,3221225667,3221225666,3221225666,3221225666,3221225666,3221225666,3221225666,3221225666,3221225666,3221225666,3221225667,3221225666,
0,0,0,0,0,0,0,0,0,0,0,0,0,0,0,0,
0,0,0,0,0,0,0,0,0,0,0,0,0,0,0,0,
0,0,0,0,0,0,0,0,0,0,0,0,0,0,0,0,
0,0,0,0,0,0,0,0,0,0,0,0,0,0,0,0,
0,0,0,0,0,0,0,0,0,0,0,0,0,0,0,0,
0,0,0,0,0,0,0,0,0,0,0,0,0,0,0,0,
0,0,0,0,0,0,0,0,0,0,0,0,0,0,0,0,
0,0,0,0,0,0,0,0,0,0,0,0,0,0,0,0,
0,0,0,0,0,0,0,0,0,0,0,0,0,0,0,0,
0,0,0,0,0,0,0,0,0,0,0,0,0,0,0,0,
0,0,0,0,0,0,0,0,0,0,0,0,0,0,0,0,
0,0,0,0,0,0,0,0,0,0,0,0,0,0,0,0
</chunk>
   <chunk x="-1008" y="304" width="16" height="16">
52,53,53,53,53,53,53,53,50,51,52,53,53,53,53,53,
3221225523,3221225522,3221225524,3221225523,3221225522,3221225522,3221225522,3221225522,3221225525,3221225524,3221225523,3221225522,3221225524,3221225523,3221225522,3221225522,
3221225499,3221225498,3221225500,3221225499,3221225498,3221225498,3221225498,3221225498,3221225501,3221225500,3221225499,3221225498,3221225500,3221225499,3221225498,3221225498,
3221225666,3221225666,3221225666,3221225666,3221225666,3221225666,3221225666,3221225666,3221225667,3221225666,3221225666,3221225666,3221225666,3221225666,3221225666,3221225666,
0,0,0,0,0,0,0,0,0,0,0,0,0,0,0,0,
0,0,0,0,0,0,0,0,0,0,0,0,0,0,0,0,
0,0,0,0,0,0,0,0,0,0,0,0,0,0,0,0,
0,0,0,0,0,0,0,0,0,0,0,0,0,0,0,0,
0,0,0,0,0,0,0,0,0,0,0,0,0,0,0,0,
0,0,0,0,0,0,0,0,0,0,0,0,0,0,0,0,
0,0,0,0,0,0,0,0,0,0,0,0,0,0,0,0,
0,0,0,0,0,0,0,0,0,0,0,0,0,0,0,0,
0,0,0,0,0,0,0,0,0,0,0,0,0,0,0,0,
0,0,0,0,0,0,0,0,0,0,0,0,0,0,0,0,
0,0,0,0,0,0,0,0,0,0,0,0,0,0,0,0,
0,0,0,0,0,0,0,0,0,0,0,0,0,0,0,0
</chunk>
   <chunk x="-992" y="304" width="16" height="16">
53,53,50,51,52,53,53,53,53,53,53,53,50,51,52,53,
3221225522,3221225522,3221225525,3221225524,3221225523,3221225522,3221225524,3221225523,3221225522,3221225522,3221225522,3221225522,3221225525,3221225524,3221225523,3221225522,
3221225498,3221225498,3221225501,3221225500,3221225499,3221225498,3221225500,3221225499,3221225498,3221225498,3221225498,3221225498,3221225501,3221225500,3221225499,3221225498,
3221225666,3221225666,3221225667,3221225666,3221225666,3221225666,3221225666,3221225666,3221225666,3221225666,3221225666,3221225666,3221225667,3221225666,3221225666,3221225666,
0,0,0,0,0,0,0,0,0,0,0,0,0,0,0,0,
0,0,0,0,0,0,0,0,0,0,0,0,0,0,0,0,
0,0,0,0,0,0,0,0,0,0,0,0,0,0,0,0,
0,0,0,0,0,0,0,0,0,0,0,0,0,0,0,0,
0,0,0,0,0,0,0,0,0,0,0,0,0,0,0,0,
0,0,0,0,0,0,0,0,0,0,0,0,0,0,0,0,
0,0,0,0,0,0,0,0,0,0,0,0,0,0,0,0,
0,0,0,0,0,0,0,0,0,0,0,0,0,0,0,0,
0,0,0,0,0,0,0,0,0,0,0,0,0,0,0,0,
0,0,0,0,0,0,0,0,0,0,0,0,0,0,0,0,
0,0,0,0,0,0,0,0,0,0,0,0,0,0,0,0,
0,0,0,0,0,0,0,0,0,0,0,0,0,0,0,0
</chunk>
   <chunk x="-976" y="304" width="16" height="16">
53,53,53,53,53,53,53,53,53,53,1610612788,2684354611,2684354587,2684354754,0,0,
3221225524,3221225523,3221225522,3221225522,3221225522,3221225522,3221225522,3221225522,3221225522,3221225522,1610612789,2684354610,2684354586,2684354754,0,0,
3221225500,3221225499,3221225498,3221225498,3221225498,3221225498,3221225498,3221225498,3221225498,3221225498,1610612789,2684354610,2684354586,2684354754,0,0,
3221225666,3221225666,3221225666,3221225666,3221225666,3221225666,3221225666,3221225666,3221225666,1610612765,1610612788,2684354611,2684354587,2684354754,0,0,
0,0,0,0,0,0,0,0,1610612931,1610612763,1610612787,2684354612,2684354588,2684354754,0,0,
0,0,0,0,0,0,0,0,1610612930,1610612762,1610612786,2684354613,2684354589,2684354755,0,0,
0,0,0,0,0,0,0,0,1610612931,1610612765,1610612789,2684354610,2684354586,2684354754,0,0,
0,0,0,0,0,0,0,0,1610612931,1610612765,1610612789,2684354610,2684354586,2684354754,0,0,
0,0,0,0,0,0,0,0,1610612931,1610612765,1610612789,2684354610,2684354586,2684354754,0,0,
0,0,0,0,0,0,0,0,1610612931,1610612765,1610612789,2684354610,2684354586,2684354754,0,0,
0,0,0,0,0,0,0,0,1610612931,1610612765,1610612789,2684354611,2684354587,2684354754,0,0,
0,0,0,0,0,0,0,0,1610612931,1610612765,1610612789,2684354612,2684354588,2684354754,0,0,
0,0,0,0,0,0,0,0,1610612931,1610612765,1610612789,2684354610,2684354586,2684354754,0,0,
0,0,0,0,0,0,0,0,1610612931,1610612764,1610612788,2684354611,2684354587,2684354754,0,0,
0,0,0,0,0,0,0,0,1610612931,1610612763,1610612787,2684354612,2684354588,2684354754,0,0,
0,0,0,0,0,0,0,0,1610612930,1610612762,1610612786,2684354613,2684354589,2684354755,0,0
</chunk>
   <chunk x="-1344" y="320" width="16" height="16">
0,0,0,0,1610612930,1610612763,2684354589,2684354755,0,0,0,0,0,0,0,0,
0,0,0,0,1610612930,1610612762,2684354589,2684354755,0,0,0,0,0,0,0,0,
0,0,0,0,1610612930,1610612764,2684354589,2684354755,0,0,0,0,0,0,0,0,
0,0,0,0,1610612930,1610612763,2684354589,2684354755,0,0,0,0,0,0,0,0,
0,0,0,0,1610612930,1610612762,2684354589,2684354755,0,0,0,0,0,0,0,0,
0,0,0,0,1610612931,1610612765,2684354586,2684354754,0,0,0,0,0,0,0,0,
0,0,0,0,1610612931,1610612765,2684354587,2684354755,0,0,0,0,0,0,0,0,
0,0,0,0,1610612931,1610612765,2684354588,2684354755,0,0,0,0,0,0,0,0,
0,0,0,0,1610612930,1610612764,2684354589,2684354755,0,0,0,0,0,0,0,0,
0,0,0,0,1610612931,1610612765,2684354586,2684354754,0,0,0,0,0,0,0,0,
0,0,0,0,1610612931,1610612765,2684354587,2684354755,0,0,0,0,0,0,0,0,
0,0,0,0,1610612931,1610612765,2684354588,2684354755,0,0,0,0,0,0,0,0,
0,0,0,0,1610612930,1610612764,2684354589,2684354755,0,0,0,0,0,0,0,0,
0,0,0,0,1610612931,1610612765,2684354586,2684354754,0,0,0,0,0,0,0,0,
0,0,0,0,1610612931,1610612765,2684354587,2684354755,0,0,0,0,0,0,0,0,
0,0,0,0,1610612931,1610612765,2684354588,2684354755,0,0,0,0,0,0,0,0
</chunk>
   <chunk x="-1168" y="320" width="16" height="16">
0,0,0,0,0,0,0,0,0,0,0,1610612931,1610612765,2684354610,2684354586,2684354754,
0,0,0,0,0,0,0,0,0,0,0,1610612931,1610612765,2684354610,2684354586,2684354754,
0,0,0,0,0,0,0,0,0,0,0,1610612931,1610612765,2684354611,2684354587,2684354754,
0,0,0,0,0,0,0,0,0,0,0,1610612931,1610612765,2684354612,2684354588,2684354754,
0,0,0,0,0,0,0,0,0,0,0,1610612931,1610612765,2684354610,2684354586,2684354754,
0,0,0,0,0,0,0,0,0,0,0,1610612931,1610612765,2684354611,2684354587,2684354754,
0,0,0,0,0,0,0,0,0,0,0,1610612931,1610612765,2684354612,2684354588,2684354754,
0,0,0,0,0,0,0,0,0,0,0,1610612931,1610612764,2684354613,2684354589,2684354755,
0,0,0,0,0,0,0,0,0,0,0,1610612931,1610612763,2684354613,2684354589,2684354755,
0,0,0,0,0,0,0,0,0,0,0,1610612930,1610612762,2684354613,2684354589,2684354755,
0,0,0,0,0,0,0,0,0,0,0,1610612931,1610612765,2684354610,2684354586,2684354754,
0,0,0,0,0,0,0,0,0,0,0,1610612931,1610612765,2684354610,2684354586,2684354754,
0,0,0,0,0,0,0,0,0,0,0,1610612931,1610612765,2684354611,2684354587,2684354754,
0,0,0,0,0,0,0,0,0,0,0,1610612931,1610612765,2684354612,2684354588,2684354754,
0,0,0,0,0,0,0,0,0,0,0,1610612931,1610612765,2684354610,2684354586,2684354754,
0,0,0,0,0,0,0,0,0,0,0,1610612931,1610612765,2684354611,2684354587,2684354754
</chunk>
   <chunk x="-1088" y="320" width="16" height="16">
0,0,0,0,0,0,0,0,0,0,1610612931,1610612765,1610612789,2684354610,2684354586,2684354754,
0,0,0,0,0,0,0,0,0,0,1610612931,1610612765,1610612789,2684354610,2684354586,2684354754,
0,0,0,0,0,0,0,0,0,0,1610612931,1610612765,1610612789,2684354610,2684354586,2684354754,
0,0,0,0,0,0,0,0,0,0,1610612931,1610612765,1610612789,2684354610,2684354586,2684354754,
0,0,0,0,0,0,0,0,0,0,1610612931,1610612765,1610612789,2684354611,2684354587,2684354754,
0,0,0,0,0,0,0,0,0,0,1610612931,1610612765,1610612789,2684354612,2684354588,2684354754,
0,0,0,0,0,0,0,0,0,0,1610612931,1610612765,1610612789,2684354610,2684354586,2684354754,
0,0,0,0,0,0,0,0,0,0,1610612931,1610612764,1610612788,2684354611,2684354587,2684354754,
0,0,0,0,0,0,0,0,0,0,1610612931,1610612763,1610612787,2684354612,2684354588,2684354754,
0,0,0,0,0,0,0,0,0,0,1610612930,1610612762,1610612786,2684354613,2684354589,2684354755,
0,0,0,0,0,0,0,0,0,0,1610612931,1610612765,1610612789,2684354610,2684354586,2684354754,
0,0,0,0,0,0,0,0,0,0,1610612930,1610612764,1610612788,2684354611,2684354587,2684354755,
0,0,0,0,0,0,0,0,0,0,1610612930,1610612763,1610612787,2684354612,2684354588,2684354755,
0,0,0,0,0,0,0,0,0,0,1610612930,1610612762,1610612786,2684354613,2684354589,2684354755,
0,0,0,0,0,0,0,0,0,0,1610612930,1610612764,1610612788,2684354613,2684354589,2684354755,
0,0,0,0,0,0,0,0,0,0,1610612930,1610612763,1610612787,2684354613,2684354589,2684354755
</chunk>
   <chunk x="-976" y="320" width="16" height="16">
0,0,0,0,0,0,0,0,1610612931,1610612765,1610612789,2684354610,2684354586,2684354754,0,0,
0,0,0,0,0,0,0,0,1610612931,1610612765,1610612789,2684354610,2684354586,2684354754,0,0,
0,0,0,0,0,0,0,0,1610612931,1610612765,1610612789,2684354610,2684354586,2684354754,0,0,
0,0,0,0,0,0,0,0,1610612931,1610612765,1610612789,2684354610,2684354586,2684354754,0,0,
0,0,0,0,0,0,0,0,1610612931,1610612765,1610612789,2684354611,2684354587,2684354754,0,0,
0,0,0,0,0,0,0,0,1610612931,1610612765,1610612789,2684354612,2684354588,2684354754,0,0,
0,0,0,0,0,0,0,0,1610612931,1610612765,1610612789,2684354610,2684354586,2684354754,0,0,
0,0,0,0,0,0,0,0,1610612931,1610612764,1610612788,2684354611,2684354587,2684354754,0,0,
0,0,0,0,0,0,0,0,1610612931,1610612763,1610612787,2684354612,2684354588,2684354754,0,0,
0,0,0,0,0,0,0,0,1610612930,1610612762,1610612786,2684354613,2684354589,2684354755,0,0,
0,0,0,0,0,0,0,0,1610612931,1610612765,1610612789,2684354610,2684354586,2684354754,0,0,
0,0,0,0,0,0,0,0,1610612930,1610612764,1610612788,2684354611,2684354587,2684354755,0,0,
0,0,0,0,0,0,0,0,1610612930,1610612763,1610612787,2684354612,2684354588,2684354755,0,0,
0,0,0,0,0,0,0,0,1610612930,1610612762,1610612786,2684354613,2684354589,2684354755,0,0,
0,0,0,0,0,0,0,0,1610612930,1610612764,1610612788,2684354613,2684354589,2684354755,0,0,
0,0,0,0,0,0,0,0,1610612930,1610612763,1610612787,2684354613,2684354589,2684354755,0,0
</chunk>
   <chunk x="-1344" y="336" width="16" height="16">
0,0,0,0,1610612930,1610612764,2684354589,2684354755,0,0,0,0,0,0,0,0,
0,0,0,0,1610612930,1610612763,2684354589,2684354755,0,0,0,0,0,0,0,0,
0,0,0,0,1610612930,1610612762,2684354589,2684354755,0,0,0,0,0,0,0,0,
0,0,0,0,1610612930,1610612764,2684354589,2684354755,0,0,0,0,0,0,0,0,
0,0,0,0,1610612930,1610612763,2684354589,2684354755,0,0,0,0,0,0,0,0,
0,0,0,0,1610612930,1610612764,2684354589,2684354755,0,0,0,0,0,0,0,0,
0,0,0,0,1610612930,1610612763,2684354589,2684354755,0,0,0,0,0,0,0,0,
0,0,0,0,1610612930,1610612762,2684354589,2684354755,0,0,0,0,0,0,0,0,
0,0,0,0,1610612930,1610612764,2684354589,2684354755,0,0,0,0,0,0,0,0,
0,0,0,0,1610612930,1610612763,2684354589,2684354755,0,0,0,0,0,0,0,0,
0,0,0,0,1610612930,1610612762,2684354589,2684354755,0,0,0,0,0,0,0,0,
0,0,0,0,1610612931,1610612765,2684354586,2684354754,0,0,0,0,0,0,0,0,
0,0,0,0,1610612931,1610612765,2684354587,2684354755,0,0,0,0,0,0,0,0,
0,0,0,0,1610612931,1610612765,2684354588,2684354755,0,0,0,0,0,0,0,0,
0,0,0,0,1610612930,1610612764,2684354589,2684354755,0,0,0,0,0,0,0,0,
0,0,0,0,1610612931,1610612765,2684354586,2684354754,0,0,0,0,0,0,0,0
</chunk>
   <chunk x="-1312" y="336" width="16" height="16">
0,0,0,0,0,0,0,0,0,0,0,0,0,0,0,0,
0,0,0,0,0,0,0,0,0,0,0,0,0,0,0,0,
0,0,0,0,0,0,0,0,0,0,0,0,0,0,0,0,
0,0,0,0,0,0,0,0,0,0,0,0,0,0,0,0,
0,0,0,0,0,0,0,0,0,0,0,0,0,0,0,0,
0,0,0,0,0,0,0,0,0,0,0,0,0,0,0,0,
0,0,194,195,194,195,194,194,195,194,194,195,194,194,195,194,
0,0,27,28,29,26,26,26,26,26,26,26,26,26,26,26,
0,0,51,52,53,50,50,50,50,50,50,50,50,50,50,50,
0,0,50,51,52,50,51,52,53,50,51,52,53,53,50,51,
0,0,3221225501,3221225501,3221225500,3221225499,3221225498,3221225501,3221225500,3221225499,3221225501,3221225500,3221225501,3221225500,3221225499,3221225501,
0,0,3221225666,3221225666,3221225666,3221225666,3221225667,3221225666,3221225666,3221225666,3221225666,3221225666,3221225666,3221225666,3221225666,3221225666,
0,0,0,0,0,0,0,0,0,0,0,0,0,0,0,0,
0,0,0,0,0,0,0,0,0,0,0,0,0,0,0,0,
0,0,0,0,0,0,0,0,0,0,0,0,0,0,0,0,
0,0,0,0,0,0,0,0,0,0,0,0,0,0,0,0
</chunk>
   <chunk x="-1296" y="336" width="16" height="16">
0,0,0,0,0,0,0,0,0,0,0,0,0,0,0,0,
0,0,0,0,0,0,0,0,0,0,0,0,0,0,0,0,
0,0,0,0,0,0,0,0,0,0,0,0,0,0,0,0,
0,0,0,0,0,0,0,0,0,0,0,0,0,0,0,0,
0,0,0,0,0,0,0,0,0,0,0,0,0,0,0,0,
0,0,0,0,0,0,0,0,0,0,0,0,0,0,0,0,
195,194,195,194,195,194,195,194,194,195,194,194,194,194,194,195,
26,26,26,26,26,26,27,28,29,26,26,26,26,26,26,27,
50,50,50,50,50,50,51,52,53,50,50,50,50,50,50,51,
52,53,53,53,53,53,53,53,53,53,53,50,51,52,53,53,
3221225500,3221225501,3221225500,3221225499,3221225498,3221225501,3221225500,3221225499,3221225498,3221225501,3221225500,3221225499,3221225498,3221225501,3221225500,3221225499,
3221225666,3221225666,3221225666,3221225666,3221225666,3221225666,3221225666,3221225667,3221225666,3221225666,3221225666,3221225666,3221225666,3221225666,3221225666,3221225666,
0,0,0,0,0,0,0,0,0,0,0,0,0,0,0,0,
0,0,0,0,0,0,0,0,0,0,0,0,0,0,0,0,
0,0,0,0,0,0,0,0,0,0,0,0,0,0,0,0,
0,0,0,0,0,0,0,0,0,0,0,0,0,0,0,0
</chunk>
   <chunk x="-1280" y="336" width="16" height="16">
0,0,0,0,0,0,0,0,0,0,0,0,0,0,0,0,
0,0,0,0,0,0,0,0,0,0,0,0,0,0,0,0,
0,0,0,0,0,0,0,0,0,0,0,0,0,0,0,0,
0,0,0,0,0,0,0,0,0,0,0,0,0,0,0,0,
0,0,0,0,0,0,0,0,0,0,0,0,0,0,0,0,
0,0,0,0,0,0,0,0,0,0,0,0,0,0,0,0,
194,194,195,194,194,194,195,194,194,194,194,194,194,194,194,195,
28,29,26,26,26,26,26,26,26,26,26,26,26,26,26,26,
52,53,50,50,50,50,50,50,50,50,50,50,50,50,50,50,
53,53,53,53,53,53,53,53,53,53,53,53,53,50,50,51,
3221225501,3221225500,3221225499,3221225501,3221225500,3221225499,3221225498,3221225501,3221225500,3221225501,3221225500,3221225499,3221225501,3221225500,3221225499,3221225501,
3221225666,3221225666,3221225666,3221225666,3221225666,3221225666,3221225667,3221225666,3221225666,3221225666,3221225666,3221225666,3221225666,3221225666,3221225666,3221225666,
0,0,0,0,0,0,0,0,0,0,0,0,0,0,0,0,
0,0,0,0,0,0,0,0,0,0,0,0,0,0,0,0,
0,0,0,0,0,0,0,0,0,0,0,0,0,0,0,0,
0,0,0,0,0,0,0,0,0,0,0,0,0,0,0,0
</chunk>
   <chunk x="-1264" y="336" width="16" height="16">
0,0,0,0,0,0,0,0,0,0,0,0,0,0,0,0,
0,0,0,0,0,0,0,0,0,0,0,0,0,0,0,0,
0,0,0,0,0,0,0,0,0,0,0,0,0,0,0,0,
0,0,0,0,0,0,0,0,0,0,0,0,0,0,0,0,
0,0,0,0,0,0,0,0,0,0,0,0,0,0,0,0,
0,0,0,0,0,0,0,0,0,0,0,0,0,0,0,0,
194,194,194,194,194,194,194,194,194,194,195,194,194,194,194,194,
26,26,26,26,26,26,26,26,26,26,26,27,28,26,27,28,
50,50,50,50,50,50,50,50,50,50,50,51,52,50,50,51,
52,53,50,51,52,53,50,51,52,53,52,53,51,52,53,53,
3221225500,3221225499,3221225498,3221225501,3221225500,3221225499,3221225501,3221225500,3221225499,3221225498,3221225501,3221225500,3221225499,3221225501,3221225500,3221225501,
3221225666,3221225666,3221225666,3221225666,3221225666,3221225666,3221225667,3221225666,3221225666,3221225666,3221225666,3221225666,3221225666,3221225666,3221225666,3221225666,
0,0,0,0,0,0,0,0,0,0,0,0,0,0,0,0,
0,0,0,0,0,0,0,0,0,0,0,0,0,0,0,0,
0,0,0,0,0,0,0,0,0,0,0,0,0,0,0,0,
0,0,0,0,0,0,0,0,0,0,0,0,0,0,0,0
</chunk>
   <chunk x="-1248" y="336" width="16" height="16">
0,0,0,0,0,0,0,0,0,0,0,0,0,0,0,0,
0,0,0,0,0,0,0,0,0,0,0,0,0,0,0,0,
0,0,0,0,0,0,0,0,0,0,0,0,0,0,0,0,
0,0,0,0,0,0,0,0,0,0,0,0,0,0,0,0,
0,0,0,0,0,0,0,0,0,0,0,0,0,0,0,0,
0,0,0,0,0,0,0,0,0,0,0,0,0,0,0,0,
194,194,195,194,194,195,194,195,195,194,195,194,195,195,195,195,
26,27,28,26,27,26,27,28,26,27,28,29,26,27,28,29,
52,53,53,50,51,50,51,52,53,53,53,53,50,51,52,53,
53,53,53,53,53,53,53,53,53,50,51,52,53,53,53,53,
3221225500,3221225499,3221225498,3221225501,3221225500,3221225499,3221225501,3221225501,3221225501,3221225501,3221225501,3221225501,3221225501,3221225501,3221225500,3221225499,
3221225666,3221225667,3221225666,3221225666,3221225666,3221225667,3221225666,3221225667,3221225666,3221225667,3221225667,3221225666,3221225667,3221225666,3221225666,3221225666,
0,0,0,0,0,0,0,0,0,0,0,0,0,0,0,0,
0,0,0,0,0,0,0,0,0,0,0,0,0,0,0,0,
0,0,0,0,0,0,0,0,0,0,0,0,0,0,0,0,
0,0,0,0,0,0,0,0,0,0,0,0,0,0,0,0
</chunk>
   <chunk x="-1232" y="336" width="16" height="16">
0,0,0,0,0,0,0,0,0,0,0,0,0,0,0,0,
0,0,0,0,0,0,0,0,0,0,0,0,0,0,0,0,
0,0,0,0,0,0,0,0,0,0,0,0,0,0,0,0,
0,0,0,0,0,0,0,0,0,0,0,0,0,0,0,0,
0,0,0,0,0,0,0,0,0,0,0,0,0,0,0,0,
0,0,0,0,0,0,0,0,0,0,0,0,0,0,0,0,
194,195,194,195,195,194,194,194,194,194,194,194,194,194,194,194,
26,26,27,28,29,26,26,26,26,26,26,26,26,26,26,26,
50,50,51,52,53,50,50,50,50,50,50,50,50,50,50,50,
53,53,53,53,53,3221225525,3221225525,3221225525,3221225525,3221225525,3221225525,3221225525,3221225525,3221225525,3221225525,3221225525,
3221225498,3221225501,3221225500,3221225499,3221225498,3221225501,3221225501,3221225501,3221225501,3221225501,3221225501,3221225501,3221225501,3221225501,3221225501,3221225501,
3221225667,3221225666,3221225666,3221225667,3221225666,3221225667,3221225667,3221225667,3221225667,3221225667,3221225667,3221225667,3221225667,3221225667,3221225667,3221225667,
0,0,0,0,0,0,0,0,0,0,0,0,0,0,0,0,
0,0,0,0,0,0,0,0,0,0,0,0,0,0,0,0,
0,0,0,0,0,0,0,0,0,0,0,0,0,0,0,0,
0,0,0,0,0,0,0,0,0,0,0,0,0,0,0,0
</chunk>
   <chunk x="-1216" y="336" width="16" height="16">
0,0,0,0,0,0,0,0,0,0,0,0,0,0,0,0,
0,0,0,0,0,0,0,0,0,0,0,0,0,0,0,0,
0,0,0,0,0,0,0,0,0,0,0,0,0,0,0,0,
0,0,0,0,0,0,0,0,0,0,0,0,0,0,0,0,
0,0,0,0,0,0,0,0,0,0,0,0,0,0,0,0,
0,0,0,0,0,0,0,0,0,0,0,0,0,0,0,0,
194,194,194,194,194,194,194,194,194,194,194,194,195,194,194,194,
26,26,27,28,29,26,26,26,26,26,26,26,26,27,28,26,
50,50,51,52,53,50,50,50,50,50,50,50,50,51,52,50,
3221225525,3221225525,3221225525,3221225525,3221225525,3221225525,52,53,50,51,52,53,52,53,51,52,
3221225501,3221225501,3221225501,3221225501,3221225501,3221225501,3221225500,3221225499,3221225501,3221225500,3221225499,3221225498,3221225501,3221225500,3221225499,3221225501,
3221225667,3221225667,3221225667,3221225667,3221225667,3221225667,3221225666,3221225666,3221225667,3221225666,3221225666,3221225666,3221225666,3221225666,3221225666,3221225666,
0,0,0,0,0,0,0,0,0,0,0,0,0,0,0,0,
0,0,0,0,0,0,0,0,0,0,0,0,0,0,0,0,
0,0,0,0,0,0,0,0,0,0,0,0,0,0,0,0,
0,0,0,0,0,0,0,0,0,0,0,0,0,0,0,0
</chunk>
   <chunk x="-1200" y="336" width="16" height="16">
0,0,0,0,0,0,0,0,0,0,0,0,0,0,0,0,
0,0,0,0,0,0,0,0,0,0,0,0,0,0,0,0,
0,0,0,0,0,0,0,0,0,0,0,0,0,0,0,0,
0,0,0,0,0,0,0,0,0,0,0,0,0,0,0,0,
0,0,0,0,0,0,0,0,0,0,0,0,0,0,0,0,
0,0,0,0,0,0,0,0,0,0,0,0,0,0,0,0,
194,194,194,194,195,194,194,195,194,195,195,194,195,194,195,195,
27,28,26,27,28,26,27,26,27,28,26,27,28,29,26,27,
50,51,52,53,53,50,51,50,51,52,53,53,53,53,50,51,
53,53,53,53,53,53,53,53,53,53,53,50,51,52,53,53,
3221225500,3221225501,3221225500,3221225499,3221225498,3221225501,3221225500,3221225499,3221225501,3221225501,3221225501,3221225501,3221225501,3221225501,3221225501,3221225501,
3221225666,3221225666,3221225666,3221225667,3221225666,3221225666,3221225666,3221225667,3221225666,3221225667,3221225666,3221225667,3221225667,3221225666,3221225667,3221225666,
0,0,0,0,0,0,0,0,0,0,0,0,0,0,0,0,
0,0,0,0,0,0,0,0,0,0,0,0,0,0,0,0,
0,0,0,0,0,0,0,0,0,0,0,0,0,0,0,0,
0,0,0,0,0,0,0,0,0,0,0,0,0,0,0,0
</chunk>
   <chunk x="-1184" y="336" width="16" height="16">
0,0,0,0,0,0,0,0,0,0,0,0,0,0,0,0,
0,0,0,0,0,0,0,0,0,0,0,0,0,0,0,0,
0,0,0,0,0,0,0,0,0,0,0,0,0,0,0,0,
0,0,0,0,0,0,0,0,0,0,0,0,0,0,0,0,
0,0,0,0,0,0,0,0,0,0,0,0,0,0,0,0,
0,0,0,0,0,0,0,0,0,0,0,0,0,0,0,0,
195,195,194,195,194,195,195,194,194,194,194,194,194,194,194,194,
28,29,26,26,27,28,29,26,26,26,26,26,26,26,26,26,
52,53,50,50,51,52,53,50,50,50,50,50,50,50,50,50,
53,53,53,53,53,53,53,3221225525,3221225525,3221225525,3221225525,3221225525,3221225525,3221225525,3221225525,3221225525,
3221225500,3221225499,3221225498,3221225501,3221225500,3221225499,3221225498,3221225501,3221225501,3221225501,3221225501,3221225501,3221225501,3221225501,3221225501,3221225501,
3221225666,3221225666,3221225667,3221225666,3221225666,3221225667,3221225666,3221225667,3221225667,3221225667,3221225667,3221225667,3221225667,3221225667,3221225667,3221225667,
0,0,0,0,0,0,0,0,0,0,0,0,0,0,0,0,
0,0,0,0,0,0,0,0,0,0,0,0,0,0,0,0,
0,0,0,0,0,0,0,0,0,0,0,0,0,0,0,0,
0,0,0,0,0,0,0,0,0,0,0,0,0,0,0,0
</chunk>
   <chunk x="-1168" y="336" width="16" height="16">
0,0,0,0,0,0,0,0,0,0,0,1610612931,1610612765,2684354612,2684354588,2684354754,
0,0,0,0,0,0,0,0,0,0,0,1610612930,1610612762,2684354613,2684354589,2684354755,
0,0,0,0,0,0,0,0,0,0,0,1610612930,1610612762,2684354613,2684354589,2684354755,
0,0,0,0,0,0,0,0,0,0,0,1610612930,1610612762,2684354613,2684354589,2684354755,
0,0,0,0,0,0,0,0,0,0,0,1610612930,1610612762,2684354613,2684354589,2684354755,
0,0,0,0,0,0,0,0,0,0,0,1610612930,1610612762,2684354613,2684354589,2684354755,
194,194,194,194,194,194,195,195,195,195,195,1610612930,1610612762,2684354613,2684354589,2684354755,
26,26,26,26,27,28,29,29,29,29,29,29,1610612762,2684354613,2684354589,26,
50,50,50,50,51,52,53,53,53,50,51,52,53,53,52,53,
3221225525,3221225525,3221225525,3221225525,3221225525,3221225525,3221225522,3221225522,3221225522,3221225525,3221225524,3221225523,3221225522,3221225522,3221225523,3221225522,
3221225501,3221225501,3221225501,3221225501,3221225501,3221225501,3221225498,3221225498,3221225498,3221225501,3221225500,3221225499,3221225498,3221225498,3221225499,3221225498,
3221225667,3221225667,3221225667,3221225667,3221225667,3221225667,3221225666,3221225666,3221225666,3221225667,3221225666,3221225666,3221225666,3221225666,3221225666,3221225666,
0,0,0,0,0,0,0,0,0,0,0,0,0,0,0,0,
0,0,0,0,0,0,0,0,0,0,0,0,0,0,0,0,
0,0,0,0,0,0,0,0,0,0,0,0,0,0,0,0,
0,0,0,0,0,0,0,0,0,0,0,0,0,0,0,0
</chunk>
   <chunk x="-1152" y="336" width="16" height="16">
0,0,0,0,0,0,0,0,0,0,0,0,0,0,0,0,
0,0,0,0,0,0,0,0,0,0,0,0,0,0,0,0,
0,0,0,0,0,0,0,0,0,0,0,0,0,0,0,0,
0,0,0,0,0,0,0,0,0,0,0,0,0,0,0,0,
0,0,0,0,0,0,0,0,0,0,0,0,0,0,0,0,
0,0,0,0,0,0,0,0,0,0,0,0,0,0,0,0,
195,195,195,195,195,195,195,194,194,194,194,195,194,194,194,194,
27,28,28,29,27,28,29,28,26,27,28,29,26,26,26,26,
53,51,52,53,51,52,53,52,50,51,52,53,50,50,50,50,
3221225522,3221225522,3221225523,3221225522,3221225524,3221225523,3221225522,3221225525,3221225525,3221225524,3221225523,3221225522,3221225525,3221225525,3221225525,3221225525,
3221225498,3221225498,3221225499,3221225498,3221225500,3221225499,3221225498,3221225501,3221225501,3221225500,3221225499,3221225498,3221225501,3221225501,3221225501,3221225501,
3221225666,3221225666,3221225666,3221225666,3221225666,3221225666,3221225666,3221225667,3221225667,3221225667,3221225667,3221225666,3221225667,3221225667,3221225667,3221225667,
0,0,0,0,0,0,0,0,0,0,0,0,0,0,0,0,
0,0,0,0,0,0,0,0,0,0,0,0,0,0,0,0,
0,0,0,0,0,0,0,0,0,0,0,0,0,0,0,0,
0,0,0,0,0,0,0,0,0,0,0,0,0,0,0,0
</chunk>
   <chunk x="-1136" y="336" width="16" height="16">
0,0,0,0,0,0,0,0,0,0,0,0,0,0,0,0,
0,0,0,0,0,0,0,0,0,0,0,0,0,0,0,0,
0,0,0,0,0,0,0,0,0,0,0,0,0,0,0,0,
0,0,0,0,0,0,0,0,0,0,0,0,0,0,0,0,
0,0,0,0,0,0,0,0,0,0,0,0,0,0,0,0,
0,0,0,0,0,0,0,0,0,0,0,0,0,0,0,0,
194,194,194,194,194,195,194,194,194,194,194,194,194,194,194,195,
27,28,26,27,28,29,26,26,26,26,27,28,26,27,28,29,
51,52,50,51,52,53,50,50,50,50,51,52,50,51,52,53,
3221225525,3221225525,3221225525,3221225524,3221225523,3221225522,3221225525,3221225525,3221225525,3221225525,3221225525,3221225525,3221225525,3221225524,3221225523,3221225522,
3221225501,3221225501,3221225501,3221225500,3221225499,3221225498,3221225501,3221225501,3221225501,3221225501,3221225501,3221225501,3221225501,3221225500,3221225499,3221225498,
3221225667,3221225667,3221225667,3221225667,3221225667,3221225666,3221225667,3221225667,3221225667,3221225667,3221225667,3221225667,3221225667,3221225667,3221225667,3221225666,
0,0,0,0,0,0,0,0,0,0,0,0,0,0,0,0,
0,0,0,0,0,0,0,0,0,0,0,0,0,0,0,0,
0,0,0,0,0,0,0,0,0,0,0,0,0,0,0,0,
0,0,0,0,0,0,0,0,0,0,0,0,0,0,0,0
</chunk>
   <chunk x="-1120" y="336" width="16" height="16">
0,0,0,0,0,0,0,0,0,0,0,0,0,0,0,0,
0,0,0,0,0,0,0,0,0,0,0,0,0,0,0,0,
0,0,0,0,0,0,0,0,0,0,0,0,0,0,0,0,
0,0,0,0,0,0,0,0,0,0,0,0,0,0,0,0,
0,0,0,0,0,0,0,0,0,0,0,0,0,0,0,0,
0,0,0,0,0,0,0,0,0,0,0,0,0,0,0,0,
194,194,194,194,194,194,194,194,194,195,194,194,194,194,194,194,
26,26,26,26,27,28,26,27,28,29,26,26,26,26,27,28,
50,50,50,50,51,52,50,51,52,53,50,50,50,50,51,52,
3221225525,3221225525,3221225525,3221225525,3221225525,3221225525,3221225525,3221225524,3221225523,3221225522,3221225525,3221225525,3221225525,3221225525,3221225525,3221225525,
3221225501,3221225501,3221225501,3221225501,3221225501,3221225501,3221225501,3221225500,3221225499,3221225498,3221225501,3221225501,3221225501,3221225501,3221225501,3221225501,
3221225667,3221225667,3221225667,3221225667,3221225667,3221225667,3221225667,3221225667,3221225667,3221225666,3221225667,3221225667,3221225667,3221225667,3221225667,3221225667,
0,0,0,0,0,0,0,0,0,0,0,0,0,0,0,0,
0,0,0,0,0,0,0,0,0,0,0,0,0,0,0,0,
0,0,0,0,0,0,0,0,0,0,0,0,0,0,0,0,
0,0,0,0,0,0,0,0,0,0,0,0,0,0,0,0
</chunk>
   <chunk x="-1104" y="336" width="16" height="16">
0,0,0,0,0,0,0,0,0,0,0,0,0,0,0,0,
0,0,0,0,0,0,0,0,0,0,0,0,0,0,0,0,
0,0,0,0,0,0,0,0,0,0,0,0,0,0,0,0,
0,0,0,0,0,0,0,0,0,0,0,0,0,0,0,0,
0,0,0,0,0,0,0,0,0,0,0,0,0,0,0,0,
0,0,0,0,0,0,0,0,0,0,0,0,0,0,0,0,
194,194,194,195,194,194,194,194,194,194,194,194,194,195,194,194,
26,27,28,29,26,26,26,26,27,28,26,27,28,29,26,26,
50,51,52,53,50,50,50,50,51,52,50,51,52,53,50,50,
3221225525,3221225524,3221225523,3221225522,3221225525,3221225525,3221225525,3221225525,3221225525,3221225525,3221225525,3221225524,3221225523,3221225522,3221225525,3221225525,
3221225501,3221225500,3221225499,3221225498,3221225501,3221225501,3221225501,3221225501,3221225501,3221225501,3221225501,3221225500,3221225499,3221225498,3221225501,3221225501,
3221225667,3221225667,3221225667,3221225666,3221225667,3221225667,3221225667,3221225667,3221225667,3221225667,3221225667,3221225667,3221225667,3221225666,3221225667,3221225667,
0,0,0,0,0,0,0,0,0,0,0,0,0,0,0,0,
0,0,0,0,0,0,0,0,0,0,0,0,0,0,0,0,
0,0,0,0,0,0,0,0,0,0,0,0,0,0,0,0,
0,0,0,0,0,0,0,0,0,0,0,0,0,0,0,0
</chunk>
   <chunk x="-1088" y="336" width="16" height="16">
0,0,0,0,0,0,0,0,0,0,1610612930,1610612762,1610612786,2684354613,2684354589,2684354755,
0,0,0,0,0,0,0,0,0,0,1610612930,1610612762,1610612786,2684354613,2684354589,2684354755,
0,0,0,0,0,0,0,0,0,0,1610612930,1610612762,1610612786,2684354613,2684354589,2684354755,
0,0,0,0,0,0,0,0,0,0,1610612930,1610612762,1610612786,2684354613,2684354589,2684354755,
0,0,0,0,0,0,0,0,0,0,1610612930,1610612762,1610612786,2684354613,2684354589,2684354755,
0,0,0,0,0,0,0,0,0,0,1610612930,1610612762,1610612786,2684354613,2684354589,2684354755,
194,194,194,194,194,194,195,195,195,195,1610612762,1610612789,1610612786,2684354613,2684354612,2684354589,
26,26,27,28,26,27,29,29,29,29,29,1610612789,53,52,2684354613,26,
50,50,51,52,50,51,53,53,53,53,53,1610612788,53,52,2684354613,50,
3221225525,3221225525,3221225525,3221225525,3221225525,3221225524,3221225522,3221225522,3221225522,3221225522,3221225522,1610612789,3221225524,3221225525,2684354612,3221225525,
3221225501,3221225501,3221225501,3221225501,3221225501,3221225500,3221225498,3221225498,3221225498,3221225498,3221225498,1610612789,3221225524,3221225525,2684354613,3221225501,
3221225667,3221225667,3221225667,3221225667,3221225667,3221225667,3221225666,3221225666,3221225666,3221225666,1610612765,1610612788,1610612789,2684354610,2684354613,2684354586,
0,0,0,0,0,0,0,0,0,0,1610612931,1610612765,1610612789,2684354610,2684354586,2684354754,
0,0,0,0,0,0,0,0,0,0,1610612931,1610612765,1610612789,2684354610,2684354586,2684354754,
0,0,0,0,0,0,0,0,0,0,1610612931,1610612765,1610612789,2684354610,2684354586,2684354754,
0,0,0,0,0,0,0,0,0,0,1610612931,1610612765,1610612789,2684354610,2684354586,2684354754
</chunk>
   <chunk x="-1072" y="336" width="16" height="16">
0,0,0,0,0,0,0,0,0,0,0,0,0,0,0,0,
0,0,0,0,0,0,0,0,0,0,0,0,0,0,0,0,
0,0,0,0,0,0,0,0,0,0,0,0,0,0,0,0,
0,0,0,0,0,0,0,0,0,0,0,0,0,0,0,0,
0,0,0,0,0,0,0,0,0,0,0,0,0,0,0,0,
0,0,0,0,0,0,0,0,0,0,0,0,0,0,0,0,
194,194,194,194,195,195,195,195,195,195,195,195,194,195,195,195,
26,26,26,26,28,29,29,29,29,29,29,29,26,27,28,29,
50,50,50,50,52,53,53,53,53,53,53,53,50,51,52,53,
3221225525,3221225525,3221225525,3221225525,3221225523,3221225522,3221225524,3221225523,3221225522,3221225522,3221225522,3221225522,3221225525,3221225524,3221225523,3221225522,
3221225501,3221225501,3221225501,3221225501,3221225499,3221225498,3221225500,3221225499,3221225498,3221225498,3221225498,3221225498,3221225501,3221225500,3221225499,3221225498,
3221225667,3221225667,3221225667,3221225667,3221225666,3221225666,3221225666,3221225666,3221225666,3221225666,3221225666,3221225666,3221225667,3221225666,3221225666,3221225666,
0,0,0,0,0,0,0,0,0,0,0,0,0,0,0,0,
0,0,0,0,0,0,0,0,0,0,0,0,0,0,0,0,
0,0,0,0,0,0,0,0,0,0,0,0,0,0,0,0,
0,0,0,0,0,0,0,0,0,0,0,0,0,0,0,0
</chunk>
   <chunk x="-1056" y="336" width="16" height="16">
0,0,0,0,0,0,0,0,0,0,0,0,0,0,0,0,
0,0,0,0,0,0,0,0,0,0,0,0,0,0,0,0,
0,0,0,0,0,0,0,0,0,0,0,0,0,0,0,0,
0,0,0,0,0,0,0,0,0,0,0,0,0,0,0,0,
0,0,0,0,0,0,0,0,0,0,0,0,0,0,0,0,
0,0,0,0,0,0,0,0,0,0,0,0,0,0,0,0,
195,195,195,195,195,195,194,195,195,195,195,195,195,195,195,195,
29,29,29,29,29,29,26,27,28,29,29,29,29,29,29,29,
53,53,53,53,53,53,50,51,52,53,53,53,53,53,53,53,
3221225524,3221225523,3221225522,3221225522,3221225522,3221225522,3221225525,3221225524,3221225523,3221225522,3221225524,3221225523,3221225522,3221225522,3221225522,3221225522,
3221225500,3221225499,3221225498,3221225498,3221225498,3221225498,3221225501,3221225500,3221225499,3221225498,3221225500,3221225499,3221225498,3221225498,3221225498,3221225498,
3221225666,3221225666,3221225666,3221225666,3221225666,3221225666,3221225667,3221225666,3221225666,3221225666,3221225666,3221225666,3221225666,3221225666,3221225666,3221225666,
0,0,0,0,0,0,0,0,0,0,0,0,0,0,0,0,
0,0,0,0,0,0,0,0,0,0,0,0,0,0,0,0,
0,0,0,0,0,0,0,0,0,0,0,0,0,0,0,0,
0,0,0,0,0,0,0,0,0,0,0,0,0,0,0,0
</chunk>
   <chunk x="-1040" y="336" width="16" height="16">
0,0,0,0,0,0,0,0,0,0,0,0,0,0,0,0,
0,0,0,0,0,0,0,0,0,0,0,0,0,0,0,0,
0,0,0,0,0,0,0,0,0,0,0,0,0,0,0,0,
0,0,0,0,0,0,0,0,0,0,0,0,0,0,0,0,
0,0,0,0,0,0,0,0,0,0,0,0,0,0,0,0,
0,0,0,0,0,0,0,0,0,0,0,0,0,0,0,0,
194,195,195,195,195,195,195,195,195,195,194,195,195,195,195,195,
26,27,28,29,29,29,29,29,29,29,26,27,28,29,29,29,
50,51,52,53,53,53,53,53,53,53,50,51,52,53,53,53,
3221225525,3221225524,3221225523,3221225522,3221225524,3221225523,3221225522,3221225522,3221225522,3221225522,3221225525,3221225524,3221225523,3221225522,3221225524,3221225523,
3221225501,3221225500,3221225499,3221225498,3221225500,3221225499,3221225498,3221225498,3221225498,3221225498,3221225501,3221225500,3221225499,3221225498,3221225500,3221225499,
3221225667,3221225666,3221225666,3221225666,3221225666,3221225666,3221225666,3221225666,3221225666,3221225666,3221225667,3221225666,3221225666,3221225666,3221225666,3221225666,
0,0,0,0,0,0,0,0,0,0,0,0,0,0,0,0,
0,0,0,0,0,0,0,0,0,0,0,0,0,0,0,0,
0,0,0,0,0,0,0,0,0,0,0,0,0,0,0,0,
0,0,0,0,0,0,0,0,0,0,0,0,0,0,0,0
</chunk>
   <chunk x="-1024" y="336" width="16" height="16">
0,0,0,0,0,0,0,0,0,0,0,0,0,0,0,0,
0,0,0,0,0,0,0,0,0,0,0,0,0,0,0,0,
0,0,0,0,0,0,0,0,0,0,0,0,0,0,0,0,
0,0,0,0,0,0,0,0,0,0,0,0,0,0,0,0,
0,0,0,0,0,0,0,0,0,0,0,0,0,0,0,0,
0,0,0,0,0,0,0,0,0,0,0,0,0,0,0,0,
195,195,195,195,194,195,195,195,195,195,195,195,195,195,194,195,
29,29,29,29,26,27,28,29,29,29,29,29,29,29,26,27,
53,53,53,53,50,51,52,53,53,53,53,53,53,53,50,51,
3221225522,3221225522,3221225522,3221225522,3221225525,3221225524,3221225523,3221225522,3221225524,3221225523,3221225522,3221225522,3221225522,3221225522,3221225525,3221225524,
3221225498,3221225498,3221225498,3221225498,3221225501,3221225500,3221225499,3221225498,3221225500,3221225499,3221225498,3221225498,3221225498,3221225498,3221225501,3221225500,
3221225666,3221225666,3221225666,3221225666,3221225667,3221225666,3221225666,3221225666,3221225666,3221225666,3221225666,3221225666,3221225666,3221225666,3221225667,3221225666,
0,0,0,0,0,0,0,0,0,0,0,0,0,0,0,0,
0,0,0,0,0,0,0,0,0,0,0,0,0,0,0,0,
0,0,0,0,0,0,0,0,0,0,0,0,0,0,0,0,
0,0,0,0,0,0,0,0,0,0,0,0,0,0,0,0
</chunk>
   <chunk x="-1008" y="336" width="16" height="16">
0,0,0,0,0,0,0,0,0,0,0,0,0,0,0,0,
0,0,0,0,0,0,0,0,0,0,0,0,0,0,0,0,
0,0,0,0,0,0,0,0,0,0,0,0,0,0,0,0,
0,0,0,0,0,0,0,0,0,0,0,0,0,0,0,0,
0,0,0,0,0,0,0,0,0,0,0,0,0,0,0,0,
0,0,0,0,0,0,0,0,0,0,0,0,0,0,0,0,
195,195,195,195,195,195,195,195,194,195,195,195,195,195,195,195,
28,29,29,29,29,29,29,29,26,27,28,29,29,29,29,29,
52,53,53,53,53,53,53,53,50,51,52,53,53,53,53,53,
3221225523,3221225522,3221225524,3221225523,3221225522,3221225522,3221225522,3221225522,3221225525,3221225524,3221225523,3221225522,3221225524,3221225523,3221225522,3221225522,
3221225499,3221225498,3221225500,3221225499,3221225498,3221225498,3221225498,3221225498,3221225501,3221225500,3221225499,3221225498,3221225500,3221225499,3221225498,3221225498,
3221225666,3221225666,3221225666,3221225666,3221225666,3221225666,3221225666,3221225666,3221225667,3221225666,3221225666,3221225666,3221225666,3221225666,3221225666,3221225666,
0,0,0,0,0,0,0,0,0,0,0,0,0,0,0,0,
0,0,0,0,0,0,0,0,0,0,0,0,0,0,0,0,
0,0,0,0,0,0,0,0,0,0,0,0,0,0,0,0,
0,0,0,0,0,0,0,0,0,0,0,0,0,0,0,0
</chunk>
   <chunk x="-992" y="336" width="16" height="16">
0,0,0,0,0,0,0,0,0,0,0,0,0,0,0,0,
0,0,0,0,0,0,0,0,0,0,0,0,0,0,0,0,
0,0,0,0,0,0,0,0,0,0,0,0,0,0,0,0,
0,0,0,0,0,0,0,0,0,0,0,0,0,0,0,0,
0,0,0,0,0,0,0,0,0,0,0,0,0,0,0,0,
0,0,0,0,0,0,0,0,0,0,0,0,0,0,0,0,
195,195,194,195,195,195,195,195,195,195,195,195,194,195,195,195,
29,29,26,27,28,29,29,29,29,29,29,29,26,27,28,29,
53,53,50,51,52,53,53,53,53,53,53,53,50,51,52,53,
3221225522,3221225522,3221225525,3221225524,3221225523,3221225522,3221225524,3221225523,3221225522,3221225522,3221225522,3221225522,3221225525,3221225524,3221225523,3221225522,
3221225498,3221225498,3221225501,3221225500,3221225499,3221225498,3221225500,3221225499,3221225498,3221225498,3221225498,3221225498,3221225501,3221225500,3221225499,3221225498,
3221225666,3221225666,3221225667,3221225666,3221225666,3221225666,3221225666,3221225666,3221225666,3221225666,3221225666,3221225666,3221225667,3221225666,3221225666,3221225666,
0,0,0,0,0,0,0,0,0,0,0,0,0,0,0,0,
0,0,0,0,0,0,0,0,0,0,0,0,0,0,0,0,
0,0,0,0,0,0,0,0,0,0,0,0,0,0,0,0,
0,0,0,0,0,0,0,0,0,0,0,0,0,0,0,0
</chunk>
   <chunk x="-976" y="336" width="16" height="16">
0,0,0,0,0,0,0,0,1610612930,1610612762,1610612786,2684354613,2684354589,2684354755,0,0,
0,0,0,0,0,0,0,0,1610612930,1610612762,1610612786,2684354613,2684354589,2684354755,0,0,
0,0,0,0,0,0,0,0,1610612930,1610612762,1610612786,2684354613,2684354589,2684354755,0,0,
0,0,0,0,0,0,0,0,1610612930,1610612762,1610612786,2684354613,2684354589,2684354755,0,0,
0,0,0,0,0,0,0,0,1610612930,1610612762,1610612786,2684354613,2684354589,2684354755,0,0,
0,0,0,0,0,0,0,0,1610612930,1610612762,1610612786,2684354613,2684354589,2684354755,0,0,
195,195,195,195,195,195,195,195,1610612762,1610612789,1610612786,2684354613,2684354612,2684354589,194,194,
29,29,29,29,29,29,29,29,29,1610612789,53,52,2684354613,26,26,26,
53,53,53,53,53,53,53,53,53,1610612788,53,52,2684354613,50,50,50,
3221225524,3221225523,3221225522,3221225522,3221225522,3221225522,3221225522,3221225522,3221225522,1610612789,3221225524,3221225525,2684354612,3221225525,3221225525,3221225525,
3221225500,3221225499,3221225498,3221225498,3221225498,3221225498,3221225498,3221225498,3221225498,1610612789,3221225524,3221225525,2684354613,3221225501,3221225501,3221225501,
3221225666,3221225666,3221225666,3221225666,3221225666,3221225666,3221225666,3221225666,1610612765,1610612788,1610612789,2684354610,2684354613,2684354586,3221225667,3221225667,
0,0,0,0,0,0,0,0,1610612931,1610612765,1610612789,2684354610,2684354586,2684354754,0,0,
0,0,0,0,0,0,0,0,1610612931,1610612765,1610612789,2684354610,2684354586,2684354754,0,0,
0,0,0,0,0,0,0,0,1610612931,1610612765,1610612789,2684354610,2684354586,2684354754,0,0,
0,0,0,0,0,0,0,0,1610612930,1610612764,1610612788,2684354611,2684354587,2684354755,0,0
</chunk>
   <chunk x="-960" y="336" width="16" height="16">
0,0,0,0,0,0,0,0,0,0,0,0,0,0,0,0,
0,0,0,0,0,0,0,0,0,0,0,0,0,0,0,0,
0,0,0,0,0,0,0,0,0,0,0,0,0,0,0,0,
0,0,0,0,0,0,0,0,0,0,0,0,0,0,0,0,
0,0,0,0,0,0,0,0,0,0,0,0,0,0,0,0,
0,0,0,0,0,0,0,0,0,0,0,0,0,0,0,0,
194,194,194,194,194,194,194,194,194,195,194,194,194,194,194,194,
26,26,26,26,27,28,26,27,28,29,26,26,26,26,27,28,
50,50,50,50,51,52,50,51,52,53,50,50,50,50,51,52,
3221225525,3221225525,3221225525,3221225525,3221225525,3221225525,3221225525,3221225524,3221225523,3221225522,3221225525,3221225525,3221225525,3221225525,3221225525,3221225525,
3221225501,3221225501,3221225501,3221225501,3221225501,3221225501,3221225501,3221225500,3221225499,3221225498,3221225501,3221225501,3221225501,3221225501,3221225501,3221225501,
3221225667,3221225667,3221225667,3221225667,3221225667,3221225667,3221225667,3221225667,3221225667,3221225666,3221225667,3221225667,3221225667,3221225667,3221225667,3221225667,
0,0,0,0,0,0,0,0,0,0,0,0,0,0,0,0,
0,0,0,0,0,0,0,0,0,0,0,0,0,0,0,0,
0,0,0,0,0,0,0,0,0,0,0,0,0,0,0,0,
0,0,0,0,0,0,0,0,0,0,0,0,0,0,0,0
</chunk>
   <chunk x="-944" y="336" width="16" height="16">
0,0,0,0,0,0,0,0,0,0,0,0,0,0,0,0,
0,0,0,0,0,0,0,0,0,0,0,0,0,0,0,0,
0,0,0,0,0,0,0,0,0,0,0,0,0,0,0,0,
0,0,0,0,0,0,0,0,0,0,0,0,0,0,0,0,
0,0,0,0,0,0,0,0,0,0,0,0,0,0,0,0,
0,0,0,0,0,0,0,0,0,0,0,0,0,0,0,0,
194,194,194,195,194,194,194,194,194,194,194,194,194,195,194,194,
26,27,28,29,26,26,26,26,27,28,26,27,28,29,26,26,
50,51,52,53,50,50,50,50,51,52,50,51,52,53,50,50,
3221225525,3221225524,3221225523,3221225522,3221225525,3221225525,3221225525,3221225525,3221225525,3221225525,3221225525,3221225524,3221225523,3221225522,3221225525,3221225525,
3221225501,3221225500,3221225499,3221225498,3221225501,3221225501,3221225501,3221225501,3221225501,3221225501,3221225501,3221225500,3221225499,3221225498,3221225501,3221225501,
3221225667,3221225667,3221225667,3221225666,3221225667,3221225667,3221225667,3221225667,3221225667,3221225667,3221225667,3221225667,3221225667,3221225666,3221225667,3221225667,
0,0,0,0,0,0,0,0,0,0,0,0,0,0,0,0,
0,0,0,0,0,0,0,0,0,0,0,0,0,0,0,0,
0,0,0,0,0,0,0,0,0,0,0,0,0,0,0,0,
0,0,0,0,0,0,0,0,0,0,0,0,0,0,0,0
</chunk>
   <chunk x="-928" y="336" width="16" height="16">
0,0,0,0,0,0,0,0,0,0,0,0,0,0,0,0,
0,0,0,0,0,0,0,0,0,0,0,0,0,0,0,0,
0,0,0,0,0,0,0,0,0,0,0,0,0,0,0,0,
0,0,0,0,0,0,0,0,0,0,0,0,0,0,0,0,
0,0,0,0,0,0,0,0,0,0,0,0,0,0,0,0,
0,0,0,0,0,0,0,0,0,0,0,0,0,0,0,0,
194,194,194,194,194,194,194,195,194,194,194,194,194,194,194,194,
26,26,27,28,26,27,28,29,26,26,26,26,27,28,26,27,
50,50,51,52,50,51,52,53,50,50,50,50,51,52,50,51,
3221225525,3221225525,3221225525,3221225525,3221225525,3221225524,3221225523,3221225522,3221225525,3221225525,3221225525,3221225525,3221225525,3221225525,3221225525,3221225524,
3221225501,3221225501,3221225501,3221225501,3221225501,3221225500,3221225499,3221225498,3221225501,3221225501,3221225501,3221225501,3221225501,3221225501,3221225501,3221225500,
3221225667,3221225667,3221225667,3221225667,3221225667,3221225667,3221225667,3221225666,3221225667,3221225667,3221225667,3221225667,3221225667,3221225667,3221225667,3221225667,
0,0,0,0,0,0,0,0,0,0,0,0,0,0,0,0,
0,0,0,0,0,0,0,0,0,0,0,0,0,0,0,0,
0,0,0,0,0,0,0,0,0,0,0,0,0,0,0,0,
0,0,0,0,0,0,0,0,0,0,0,0,0,0,0,0
</chunk>
   <chunk x="-912" y="336" width="16" height="16">
0,0,0,0,0,0,0,0,0,0,0,0,0,0,0,0,
0,0,0,0,0,0,0,0,0,0,0,0,0,0,0,0,
0,0,0,0,0,0,0,0,0,0,0,0,0,0,0,0,
0,0,0,0,0,0,0,0,0,0,0,0,0,0,0,0,
0,0,0,0,0,0,0,0,0,0,0,0,0,0,0,0,
0,0,0,0,0,0,0,0,0,0,0,0,0,0,0,0,
194,195,194,194,194,194,194,194,194,194,194,195,194,194,194,194,
28,29,26,26,26,26,27,28,26,27,28,29,26,26,26,26,
52,53,50,50,50,50,51,52,50,51,52,53,50,50,50,50,
3221225523,3221225522,3221225525,3221225525,3221225525,3221225525,3221225525,3221225525,3221225525,3221225524,3221225523,3221225522,3221225525,3221225525,3221225525,3221225525,
3221225499,3221225498,3221225501,3221225501,3221225501,3221225501,3221225501,3221225501,3221225501,3221225500,3221225499,3221225498,3221225501,3221225501,3221225501,3221225501,
3221225667,3221225666,3221225667,3221225667,3221225667,3221225667,3221225667,3221225667,3221225667,3221225667,3221225667,3221225666,3221225667,3221225667,3221225667,3221225667,
0,0,0,0,0,0,0,0,0,0,0,0,0,0,0,0,
0,0,0,0,0,0,0,0,0,0,0,0,0,0,0,0,
0,0,0,0,0,0,0,0,0,0,0,0,0,0,0,0,
0,0,0,0,0,0,0,0,0,0,0,0,0,0,0,0
</chunk>
   <chunk x="-896" y="336" width="16" height="16">
0,0,0,0,0,0,0,0,0,0,0,0,0,0,0,0,
0,0,0,0,0,0,0,0,0,0,0,0,0,0,0,0,
0,0,0,0,0,0,0,0,0,0,0,0,0,0,0,0,
0,0,0,0,0,0,0,0,0,0,0,0,0,0,0,0,
0,0,0,0,0,0,0,0,0,0,0,0,0,0,0,0,
0,0,0,0,0,0,0,0,0,0,0,0,0,0,0,0,
194,194,194,194,194,195,0,0,0,0,0,0,0,0,0,0,
27,28,26,27,28,29,0,0,0,0,0,0,0,0,0,0,
51,52,50,51,52,53,0,0,0,0,0,0,0,0,0,0,
3221225525,3221225525,3221225525,3221225524,3221225523,3221225522,0,0,0,0,0,0,0,0,0,0,
3221225501,3221225501,3221225501,3221225500,3221225499,3221225498,0,0,0,0,0,0,0,0,0,0,
3221225667,3221225667,3221225667,3221225667,3221225667,3221225666,0,0,0,0,0,0,0,0,0,0,
0,0,0,0,0,0,0,0,0,0,0,0,0,0,0,0,
0,0,0,0,0,0,0,0,0,0,0,0,0,0,0,0,
0,0,0,0,0,0,0,0,0,0,0,0,0,0,0,0,
0,0,0,0,0,0,0,0,0,0,0,0,0,0,0,0
</chunk>
   <chunk x="160" y="336" width="16" height="16">
0,0,0,0,0,0,0,0,0,0,0,0,0,0,0,0,
0,0,0,0,0,0,0,0,0,0,0,0,0,0,0,0,
0,0,0,0,0,0,0,0,0,0,0,0,0,0,0,0,
0,0,0,0,0,0,0,123,0,0,0,0,0,0,0,0,
0,0,0,0,0,0,0,0,0,0,0,0,0,0,0,0,
0,0,0,0,0,0,0,0,0,0,0,0,0,0,0,0,
0,0,0,0,0,0,0,0,0,0,0,0,0,0,0,0,
0,0,0,0,0,0,0,0,0,0,0,0,0,0,0,0,
0,0,0,0,0,0,0,0,0,0,0,0,0,0,0,0,
0,0,0,0,0,0,0,0,0,0,0,0,0,0,0,0,
0,0,0,0,0,0,0,0,0,0,0,0,0,0,0,0,
0,0,0,0,0,0,0,0,0,0,0,0,0,0,0,0,
0,0,0,0,0,0,0,0,0,0,0,0,0,0,0,0,
0,0,0,0,0,0,0,0,0,0,0,0,0,0,0,0,
0,0,0,0,0,0,0,0,0,0,0,0,0,0,0,0,
0,0,0,0,0,0,0,0,0,0,0,0,0,0,0,0
</chunk>
   <chunk x="192" y="336" width="16" height="16">
0,0,0,0,0,0,0,0,0,0,0,0,0,0,0,0,
0,0,0,0,0,0,0,0,0,0,0,0,0,0,0,0,
0,0,123,0,0,0,0,0,0,0,0,0,0,0,0,0,
0,0,0,0,0,0,0,0,0,0,0,0,0,0,0,0,
0,0,0,0,0,0,0,0,0,0,0,0,0,0,0,0,
0,0,0,0,0,0,0,0,0,0,0,0,0,0,0,0,
0,0,0,0,0,0,0,0,0,0,0,0,0,0,0,0,
0,0,0,0,0,0,0,0,0,0,0,0,0,0,0,0,
0,0,0,0,0,0,0,0,0,0,0,0,0,0,0,0,
0,0,0,0,0,0,0,0,0,0,0,0,0,0,0,0,
0,0,0,0,0,0,0,0,0,0,0,0,0,0,0,0,
0,0,0,0,0,0,0,0,0,0,0,0,0,0,0,0,
0,0,0,0,0,0,0,0,0,0,0,0,0,0,0,0,
0,0,0,0,0,0,0,0,0,0,0,0,0,0,0,0,
0,0,0,0,0,0,0,0,0,0,0,0,0,0,0,0,
0,0,0,0,0,0,0,0,0,0,0,0,0,0,0,0
</chunk>
   <chunk x="-1344" y="352" width="16" height="16">
0,0,0,0,1610612931,1610612765,2684354587,2684354755,0,0,0,0,0,0,0,0,
0,0,0,0,1610612931,1610612765,2684354588,2684354755,0,0,0,0,0,0,0,0,
0,0,0,0,1610612930,1610612764,2684354589,2684354755,0,0,0,0,0,0,0,0,
0,0,0,0,1610612931,1610612765,2684354586,2684354754,0,0,0,0,0,0,0,0,
0,0,0,0,1610612931,1610612765,2684354587,2684354755,0,0,0,0,0,0,0,0,
0,0,0,0,1610612931,1610612765,2684354588,2684354755,0,0,0,0,0,0,0,0,
0,0,0,0,1610612930,1610612764,2684354589,2684354755,0,0,0,0,0,0,0,0,
0,0,0,0,1610612930,1610612763,2684354589,2684354755,0,0,0,0,0,0,0,0,
0,0,0,0,1610612930,1610612762,2684354589,2684354755,0,0,0,0,0,0,0,0,
0,0,0,0,1610612930,1610612764,2684354589,2684354755,0,0,0,0,0,0,0,0,
0,0,0,0,1610612930,1610612763,2684354589,2684354755,0,0,0,0,0,0,0,0,
0,0,0,0,1610612930,1610612764,2684354589,2684354755,0,0,0,0,0,0,0,0,
0,0,0,0,1610612930,1610612763,2684354589,2684354755,0,0,0,0,0,0,0,0,
0,0,0,0,1610612931,1610612765,2684354586,2684354754,0,0,0,0,0,0,0,0,
0,0,0,0,1610612931,1610612765,2684354587,2684354755,0,0,0,0,0,0,0,0,
0,0,0,0,1610612931,1610612765,2684354588,2684354755,0,0,0,0,0,0,0,0
</chunk>
   <chunk x="-1088" y="352" width="16" height="16">
0,0,0,0,0,0,0,0,0,0,1610612930,1610612763,1610612787,2684354612,2684354588,2684354755,
0,0,0,0,0,0,0,0,0,0,1610612930,1610612762,1610612786,2684354613,2684354589,2684354755,
0,0,0,0,0,0,0,0,0,0,1610612930,1610612764,1610612788,2684354613,2684354589,2684354755,
0,0,0,0,0,0,0,0,0,0,1610612930,1610612763,1610612787,2684354613,2684354589,2684354755,
0,0,0,0,0,0,0,0,0,0,1610612930,1610612762,1610612786,2684354613,2684354589,2684354755,
0,0,0,0,0,0,0,0,0,0,1610612930,1610612762,1610612786,2684354613,2684354589,2684354755,
0,0,0,0,0,0,0,0,0,0,1610612930,1610612762,1610612786,2684354613,2684354589,2684354755,
0,0,0,0,0,0,0,0,0,0,1610612930,1610612762,1610612786,2684354613,2684354589,2684354755,
0,0,0,0,0,0,0,0,0,0,1610612931,1610612765,1610612789,2684354610,2684354586,2684354754,
0,0,0,0,0,0,0,0,0,0,1610612930,1610612764,1610612788,2684354611,2684354587,2684354755,
0,0,0,0,0,0,0,0,0,0,1610612930,1610612763,1610612787,2684354612,2684354588,2684354755,
0,0,0,0,0,0,0,0,0,0,1610612930,1610612762,1610612786,2684354613,2684354589,2684354755,
0,0,0,0,0,0,0,0,0,0,1610612930,1610612764,1610612788,2684354613,2684354589,2684354755,
0,0,0,0,0,0,0,0,0,0,1610612930,1610612763,1610612787,2684354613,2684354589,2684354755,
0,0,0,0,0,0,0,0,0,0,1610612930,1610612762,1610612786,2684354613,2684354589,2684354755,
0,0,0,0,0,0,0,0,0,0,1610612930,1610612762,1610612786,2684354613,2684354589,2684354755
</chunk>
   <chunk x="-976" y="352" width="16" height="16">
0,0,0,0,0,0,0,0,1610612930,1610612763,1610612787,2684354612,2684354588,2684354755,0,0,
0,0,0,0,0,0,0,0,1610612930,1610612762,1610612786,2684354613,2684354589,2684354755,0,0,
0,0,0,0,0,0,0,0,1610612930,1610612764,1610612788,2684354613,2684354589,2684354755,0,0,
0,0,0,0,0,0,0,0,1610612930,1610612763,1610612787,2684354613,2684354589,2684354755,0,0,
0,0,0,0,0,0,0,0,1610612930,1610612762,1610612786,2684354613,2684354589,2684354755,0,0,
0,0,0,0,0,0,0,0,1610612930,1610612762,1610612786,2684354613,2684354589,2684354755,0,0,
0,0,0,0,0,0,0,0,1610612930,1610612762,1610612786,2684354613,2684354589,2684354755,0,0,
0,0,0,0,0,0,0,0,1610612930,1610612762,1610612786,2684354613,2684354589,2684354755,0,0,
0,0,0,0,0,0,0,0,1610612931,1610612765,1610612789,2684354610,2684354586,2684354754,0,0,
0,0,0,0,0,0,0,0,1610612930,1610612764,1610612788,2684354611,2684354587,2684354755,0,0,
0,0,0,0,0,0,0,0,1610612930,1610612763,1610612787,2684354612,2684354588,2684354755,0,0,
0,0,0,0,0,0,0,0,1610612930,1610612762,1610612786,2684354613,2684354589,2684354755,0,0,
0,0,0,0,0,0,0,0,1610612930,1610612764,1610612788,2684354613,2684354589,2684354755,0,0,
0,0,0,0,0,0,0,0,1610612930,1610612763,1610612787,2684354613,2684354589,2684354755,0,0,
0,0,0,0,0,0,0,0,1610612930,1610612762,1610612786,2684354613,2684354589,2684354755,0,0,
0,0,0,0,0,0,0,0,1610612930,1610612762,1610612786,2684354613,2684354589,2684354755,0,0
</chunk>
   <chunk x="-1344" y="368" width="16" height="16">
0,0,0,0,1610612930,1610612764,2684354589,2684354755,0,0,0,0,0,0,0,0,
0,0,0,0,1610612930,1610612763,2684354589,2684354755,0,0,0,0,0,0,0,0,
0,0,0,0,1610612930,1610612762,2684354589,2684354755,0,0,0,0,0,0,0,0,
0,0,0,0,1610612930,1610612764,2684354589,2684354755,0,0,0,0,0,0,0,0,
0,0,0,0,1610612930,1610612763,2684354589,2684354755,0,0,0,0,0,0,0,0,
0,0,0,0,1610612930,1610612762,2684354589,2684354755,0,0,0,0,0,0,0,0,
0,0,0,0,1610612931,1610612765,2684354586,2684354754,0,0,0,0,0,0,0,0,
0,0,0,0,1610612931,1610612765,2684354587,2684354755,0,0,0,0,0,0,0,0,
0,0,0,0,1610612931,1610612765,2684354588,2684354755,0,0,0,0,0,0,0,0,
0,0,0,0,1610612930,1610612764,2684354589,2684354755,0,0,0,0,0,0,0,0,
0,0,0,0,1610612931,1610612765,2684354586,2684354754,0,0,0,0,0,0,0,0,
0,0,0,0,1610612931,1610612765,2684354587,2684354755,0,0,0,0,0,0,0,0,
0,0,0,0,1610612931,1610612765,2684354588,2684354755,0,0,0,0,0,0,0,0,
0,0,0,0,1610612930,1610612764,2684354589,2684354755,0,0,0,0,0,0,0,0,
0,0,0,0,1610612931,1610612765,2684354586,2684354754,0,0,0,0,0,0,0,0,
0,0,0,0,1610612931,1610612765,2684354587,2684354755,0,0,0,0,0,0,0,0
</chunk>
   <chunk x="-1088" y="368" width="16" height="16">
0,0,0,0,0,0,0,0,0,0,1610612930,1610612762,1610612786,2684354613,2684354589,2684354755,
0,0,0,0,0,0,0,0,0,0,1610612930,1610612762,1610612786,2684354613,2684354589,2684354755,
0,0,0,0,0,0,0,0,0,0,1610612931,1610612765,1610612789,2684354610,2684354586,2684354754,
0,0,0,0,0,0,0,0,0,0,1610612930,1610612764,1610612788,2684354611,2684354587,2684354755,
0,0,0,0,0,0,0,0,0,0,1610612930,1610612763,1610612787,2684354612,2684354588,2684354755,
0,0,0,0,0,0,0,0,0,0,1610612930,1610612762,1610612786,2684354613,2684354589,2684354755,
0,0,0,0,0,0,0,0,0,0,1610612930,1610612764,1610612788,2684354613,2684354589,2684354755,
0,0,0,0,0,0,0,0,0,0,1610612930,1610612763,1610612787,2684354613,2684354589,2684354755,
0,0,0,0,0,0,0,0,0,0,1610612930,1610612762,1610612786,2684354613,2684354589,2684354755,
0,0,0,0,0,0,0,0,0,0,1610612930,1610612762,1610612786,2684354613,2684354589,2684354755,
0,0,0,0,0,0,0,0,0,0,1610612930,1610612762,1610612786,2684354613,2684354589,2684354755,
0,0,0,0,0,0,0,0,0,0,1610612930,1610612762,1610612786,2684354613,2684354589,2684354755,
0,0,0,0,0,0,0,0,0,0,1610612931,1610612765,1610612789,2684354610,2684354586,2684354754,
0,0,0,0,0,0,0,0,0,0,1610612930,1610612764,1610612788,2684354611,2684354587,2684354755,
0,0,0,0,0,0,0,0,0,0,1610612930,1610612763,1610612787,2684354612,2684354588,2684354755,
0,0,0,0,0,0,0,0,0,0,1610612930,1610612762,1610612786,2684354613,2684354589,2684354755
</chunk>
   <chunk x="-976" y="368" width="16" height="16">
0,0,0,0,0,0,0,0,1610612930,1610612762,1610612786,2684354613,2684354589,2684354755,0,0,
0,0,0,0,0,0,0,0,1610612930,1610612762,1610612786,2684354613,2684354589,2684354755,0,0,
0,0,0,0,0,0,0,0,1610612931,1610612765,1610612789,2684354610,2684354586,2684354754,0,0,
0,0,0,0,0,0,0,0,1610612930,1610612764,1610612788,2684354611,2684354587,2684354755,0,0,
0,0,0,0,0,0,0,0,1610612930,1610612763,1610612787,2684354612,2684354588,2684354755,0,0,
0,0,0,0,0,0,0,0,1610612930,1610612762,1610612786,2684354613,2684354589,2684354755,0,0,
0,0,0,0,0,0,0,0,1610612930,1610612764,1610612788,2684354613,2684354589,2684354755,0,0,
0,0,0,0,0,0,0,0,1610612930,1610612763,1610612787,2684354613,2684354589,2684354755,0,0,
0,0,0,0,0,0,0,0,1610612930,1610612762,1610612786,2684354613,2684354589,2684354755,0,0,
0,0,0,0,0,0,0,0,1610612930,1610612762,1610612786,2684354613,2684354589,2684354755,0,0,
0,0,0,0,0,0,0,0,1610612930,1610612762,1610612786,2684354613,2684354589,2684354755,0,0,
0,0,0,0,0,0,0,0,1610612930,1610612762,1610612786,2684354613,2684354589,2684354755,0,0,
0,0,0,0,0,0,0,0,1610612931,1610612765,1610612789,2684354610,2684354586,2684354754,0,0,
0,0,0,0,0,0,0,0,1610612930,1610612764,1610612788,2684354611,2684354587,2684354755,0,0,
0,0,0,0,0,0,0,0,1610612930,1610612763,1610612787,2684354612,2684354588,2684354755,0,0,
0,0,0,0,0,0,0,0,1610612930,1610612762,1610612786,2684354613,2684354589,2684354755,0,0
</chunk>
   <chunk x="-1344" y="384" width="16" height="16">
0,0,0,0,1610612931,1610612765,2684354588,2684354755,0,0,0,0,0,0,0,0,
0,0,0,0,1610612930,1610612764,2684354589,2684354755,0,0,0,0,0,0,0,0,
0,0,0,0,1610612930,1610612763,2684354589,2684354755,0,0,0,0,0,0,0,0,
0,0,0,0,1610612930,1610612762,2684354589,2684354755,0,0,0,0,0,0,0,0,
0,0,0,0,1610612930,1610612764,2684354589,2684354755,0,0,0,0,0,0,0,0,
0,0,0,0,1610612930,1610612763,2684354589,2684354755,0,0,0,0,0,0,0,0,
0,0,0,0,0,0,0,0,0,0,0,0,0,0,0,0,
0,0,0,0,0,0,0,0,0,0,0,0,0,0,0,0,
0,0,0,0,0,0,0,0,0,0,0,0,0,0,0,0,
0,0,0,0,0,0,0,0,0,0,0,0,0,0,0,0,
0,0,0,0,0,0,0,0,0,0,0,0,0,0,0,0,
0,0,0,0,0,0,0,0,0,0,0,0,0,0,0,0,
0,0,0,0,0,0,0,0,0,0,0,0,0,0,0,0,
0,0,0,0,0,0,0,0,0,0,0,0,0,0,0,0,
0,0,0,0,0,0,0,0,0,0,0,0,0,0,0,0,
0,0,0,0,0,0,0,0,0,0,0,0,0,0,0,0
</chunk>
   <chunk x="-1088" y="384" width="16" height="16">
0,0,0,0,0,0,0,0,0,0,1610612930,1610612764,1610612788,2684354613,2684354589,2684354755,
0,0,0,0,0,0,0,0,0,0,1610612930,1610612763,1610612787,2684354613,2684354589,2684354755,
0,0,0,0,0,0,0,0,0,0,1610612930,1610612762,1610612786,2684354613,2684354589,2684354755,
0,0,0,0,0,0,0,0,0,0,1610612930,1610612762,1610612786,2684354613,2684354589,2684354755,
0,0,0,0,0,0,0,0,0,0,1610612930,1610612762,1610612786,2684354613,2684354589,2684354755,
0,0,0,0,0,0,0,0,0,0,1610612930,1610612762,1610612786,2684354613,2684354589,2684354755,
0,0,0,0,0,0,0,0,0,0,0,0,0,0,0,0,
0,0,0,0,0,0,0,0,0,0,0,0,0,0,0,0,
0,0,0,0,0,0,0,0,0,0,0,0,0,0,0,0,
0,0,0,0,0,0,0,0,0,0,0,0,0,0,0,0,
0,0,0,0,0,0,0,0,0,0,0,0,0,0,0,0,
0,0,0,0,0,0,0,0,0,0,0,0,0,0,0,0,
0,0,0,0,0,0,0,0,0,0,0,0,0,0,0,0,
0,0,0,0,0,0,0,0,0,0,0,0,0,0,0,0,
0,0,0,0,0,0,0,0,0,0,0,0,0,0,0,0,
0,0,0,0,0,0,0,0,0,0,0,0,0,0,0,0
</chunk>
   <chunk x="-976" y="384" width="16" height="16">
0,0,0,0,0,0,0,0,1610612930,1610612764,1610612788,2684354613,2684354589,2684354755,0,0,
0,0,0,0,0,0,0,0,1610612930,1610612763,1610612787,2684354613,2684354589,2684354755,0,0,
0,0,0,0,0,0,0,0,1610612930,1610612762,1610612786,2684354613,2684354589,2684354755,0,0,
0,0,0,0,0,0,0,0,1610612930,1610612762,1610612786,2684354613,2684354589,2684354755,0,0,
0,0,0,0,0,0,0,0,1610612930,1610612762,1610612786,2684354613,2684354589,2684354755,0,0,
0,0,0,0,0,0,0,0,1610612930,1610612762,1610612786,2684354613,2684354589,2684354755,0,0,
0,0,0,0,0,0,0,0,0,0,0,0,0,0,0,0,
0,0,0,0,0,0,0,0,0,0,0,0,0,0,0,0,
0,0,0,0,0,0,0,0,0,0,0,0,0,0,0,0,
0,0,0,0,0,0,0,0,0,0,0,0,0,0,0,0,
0,0,0,0,0,0,0,0,0,0,0,0,0,0,0,0,
0,0,0,0,0,0,0,0,0,0,0,0,0,0,0,0,
0,0,0,0,0,0,0,0,0,0,0,0,0,0,0,0,
0,0,0,0,0,0,0,0,0,0,0,0,0,0,0,0,
0,0,0,0,0,0,0,0,0,0,0,0,0,0,0,0,
0,0,0,0,0,0,0,0,0,0,0,0,0,0,0,0
</chunk>
   <chunk x="-368" y="480" width="16" height="16">
0,0,0,0,0,0,0,0,0,0,0,0,0,0,0,0,
0,0,0,0,0,0,0,0,0,0,0,0,0,0,0,0,
0,0,0,0,0,0,0,0,0,0,0,0,0,0,0,0,
0,0,0,0,0,0,0,0,0,0,0,0,0,0,0,0,
0,0,0,0,0,0,0,0,0,123,0,0,0,0,0,0,
0,0,0,0,0,0,0,0,0,0,0,0,0,0,0,0,
0,0,0,0,0,0,0,0,0,0,0,0,0,0,0,0,
0,0,0,0,0,0,0,0,0,0,0,0,0,0,0,0,
0,0,0,0,0,0,0,0,0,0,0,0,0,0,0,0,
0,0,0,0,0,0,0,0,0,0,0,0,0,0,0,0,
0,0,0,0,0,0,0,0,0,0,0,0,0,0,0,0,
0,0,0,0,0,0,0,0,0,0,0,0,0,0,0,0,
0,0,0,0,0,0,0,0,0,0,0,0,0,0,0,0,
0,0,0,0,0,0,0,0,0,0,0,0,0,0,0,0,
0,0,0,0,0,0,0,0,0,0,0,0,0,0,0,0,
0,0,0,0,0,0,0,0,0,0,0,0,0,0,0,0
</chunk>
  </data>
 </layer>
</map>
